assets/luts/rose.cube
TITLE "Rosé"
LUT_3D_SIZE 9
0.135200 0.060000 0.098000
0.254000 0.060000 0.098000
0.372800 0.060000 0.098000
0.491600 0.060000 0.098000
0.610400 0.060000 0.098000
0.729200 0.060000 0.098000
0.848000 0.060000 0.098000
0.966800 0.060000 0.098000
0.980000 0.060000 0.098000
0.135200 0.163500 0.098000
0.254000 0.163500 0.098000
0.372800 0.163500 0.098000
0.491600 0.163500 0.098000
0.610400 0.163500 0.098000
0.729200 0.163500 0.098000
0.848000 0.163500 0.098000
0.966800 0.163500 0.098000
0.980000 0.163500 0.098000
0.135200 0.267000 0.098000
0.254000 0.267000 0.098000
0.372800 0.267000 0.098000
0.491600 0.267000 0.098000
0.610400 0.267000 0.098000
0.729200 0.267000 0.098000
0.848000 0.267000 0.098000
0.966800 0.267000 0.098000
0.980000 0.267000 0.098000
0.135200 0.370500 0.098000
0.254000 0.370500 0.098000
0.372800 0.370500 0.098000
0.491600 0.370500 0.098000
0.610400 0.370500 0.098000
0.729200 0.370500 0.098000
0.848000 0.370500 0.098000
0.966800 0.370500 0.098000
0.980000 0.370500 0.098000
0.135200 0.474000 0.098000
0.254000 0.474000 0.098000
0.372800 0.474000 0.098000
0.491600 0.474000 0.098000
0.610400 0.474000 0.098000
0.729200 0.474000 0.098000
0.848000 0.474000 0.098000
0.966800 0.474000 0.098000
0.980000 0.474000 0.098000
0.135200 0.577500 0.098000
0.254000 0.577500 0.098000
0.372800 0.577500 0.098000
0.491600 0.577500 0.098000
0.610400 0.577500 0.098000
0.729200 0.577500 0.098000
0.848000 0.577500 0.098000
0.966800 0.577500 0.098000
0.980000 0.577500 0.098000
0.135200 0.681000 0.098000
0.254000 0.681000 0.098000
0.372800 0.681000 0.098000
0.491600 0.681000 0.098000
0.610400 0.681000 0.098000
0.729200 0.681000 0.098000
0.848000 0.681000 0.098000
0.966800 0.681000 0.098000
0.980000 0.681000 0.098000
0.135200 0.784500 0.098000
0.254000 0.784500 0.098000
0.372800 0.784500 0.098000
0.491600 0.784500 0.098000
0.610400 0.784500 0.098000
0.729200 0.784500 0.098000
0.848000 0.784500 0.098000
0.966800 0.784500 0.098000
0.980000 0.784500 0.098000
0.135200 0.888000 0.098000
0.254000 0.888000 0.098000
0.372800 0.888000 0.098000
0.491600 0.888000 0.098000
0.610400 0.888000 0.098000
0.729200 0.888000 0.098000
0.848000 0.888000 0.098000
0.966800 0.888000 0.098000
0.980000 0.888000 0.098000
0.135200 0.060000 0.215000
0.254000 0.060000 0.215000
0.372800 0.060000 0.215000
0.491600 0.060000 0.215000
0.610400 0.060000 0.215000
0.729200 0.060000 0.215000
0.848000 0.060000 0.215000
0.966800 0.060000 0.215000
0.980000 0.060000 0.215000
0.135200 0.163500 0.215000
0.254000 0.163500 0.215000
0.372800 0.163500 0.215000
0.491600 0.163500 0.215000
0.610400 0.163500 0.215000
0.729200 0.163500 0.215000
0.848000 0.163500 0.215000
0.966800 0.163500 0.215000
0.980000 0.163500 0.215000
0.135200 0.267000 0.215000
0.254000 0.267000 0.215000
0.372800 0.267000 0.215000
0.491600 0.267000 0.215000
0.610400 0.267000 0.215000
0.729200 0.267000 0.215000
0.848000 0.267000 0.215000
0.966800 0.267000 0.215000
0.980000 0.267000 0.215000
0.135200 0.370500 0.215000
0.254000 0.370500 0.215000
0.372800 0.370500 0.215000
0.491600 0.370500 0.215000
0.610400 0.370500 0.215000
0.729200 0.370500 0.215000
0.848000 0.370500 0.215000
0.966800 0.370500 0.215000
0.980000 0.370500 0.215000
0.135200 0.474000 0.215000
0.254000 0.474000 0.215000
0.372800 0.474000 0.215000
0.491600 0.474000 0.215000
0.610400 0.474000 0.215000
0.729200 0.474000 0.215000
0.848000 0.474000 0.215000
0.966800 0.474000 0.215000
0.980000 0.474000 0.215000
0.135200 0.577500 0.215000
0.254000 0.577500 0.215000
0.372800 0.577500 0.215000
0.491600 0.577500 0.215000
0.610400 0.577500 0.215000
0.729200 0.577500 0.215000
0.848000 0.577500 0.215000
0.966800 0.577500 0.215000
0.980000 0.577500 0.215000
0.135200 0.681000 0.215000
0.254000 0.681000 0.215000
0.372800 0.681000 0.215000
0.491600 0.681000 0.215000
0.610400 0.681000 0.215000
0.729200 0.681000 0.215000
0.848000 0.681000 0.215000
0.966800 0.681000 0.215000
0.980000 0.681000 0.215000
0.135200 0.784500 0.215000
0.254000 0.784500 0.215000
0.372800 0.784500 0.215000
0.491600 0.784500 0.215000
0.610400 0.784500 0.215000
0.729200 0.784500 0.215000
0.848000 0.784500 0.215000
0.966800 0.784500 0.215000
0.980000 0.784500 0.215000
0.135200 0.888000 0.215000
0.254000 0.888000 0.215000
0.372800 0.888000 0.215000
0.491600 0.888000 0.215000
0.610400 0.888000 0.215000
0.729200 0.888000 0.215000
0.848000 0.888000 0.215000
0.966800 0.888000 0.215000
0.980000 0.888000 0.215000
0.135200 0.060000 0.332000
0.254000 0.060000 0.332000
0.372800 0.060000 0.332000
0.491600 0.060000 0.332000
0.610400 0.060000 0.332000
0.729200 0.060000 0.332000
0.848000 0.060000 0.332000
0.966800 0.060000 0.332000
0.980000 0.060000 0.332000
0.135200 0.163500 0.332000
0.254000 0.163500 0.332000
0.372800 0.163500 0.332000
0.491600 0.163500 0.332000
0.610400 0.163500 0.332000
0.729200 0.163500 0.332000
0.848000 0.163500 0.332000
0.966800 0.163500 0.332000
0.980000 0.163500 0.332000
0.135200 0.267000 0.332000
0.254000 0.267000 0.332000
0.372800 0.267000 0.332000
0.491600 0.267000 0.332000
0.610400 0.267000 0.332000
0.729200 0.267000 0.332000
0.848000 0.267000 0.332000
0.966800 0.267000 0.332000
0.980000 0.267000 0.332000
0.135200 0.370500 0.332000
0.254000 0.370500 0.332000
0.372800 0.370500 0.332000
0.491600 0.370500 0.332000
0.610400 0.370500 0.332000
0.729200 0.370500 0.332000
0.848000 0.370500 0.332000
0.966800 0.370500 0.332000
0.980000 0.370500 0.332000
0.135200 0.474000 0.332000
0.254000 0.474000 0.332000
0.372800 0.474000 0.332000
0.491600 0.474000 0.332000
0.610400 0.474000 0.332000
0.729200 0.474000 0.332000
0.848000 0.474000 0.332000
0.966800 0.474000 0.332000
0.980000 0.474000 0.332000
0.135200 0.577500 0.332000
0.254000 0.577500 0.332000
0.372800 0.577500 0.332000
0.491600 0.577500 0.332000
0.610400 0.577500 0.332000
0.729200 0.577500 0.332000
0.848000 0.577500 0.332000
0.966800 0.577500 0.332000
0.980000 0.577500 0.332000
0.135200 0.681000 0.332000
0.254000 0.681000 0.332000
0.372800 0.681000 0.332000
0.491600 0.681000 0.332000
0.610400 0.681000 0.332000
0.729200 0.681000 0.332000
0.848000 0.681000 0.332000
0.966800 0.681000 0.332000
0.980000 0.681000 0.332000
0.135200 0.784500 0.332000
0.254000 0.784500 0.332000
0.372800 0.784500 0.332000
0.491600 0.784500 0.332000
0.610400 0.784500 0.332000
0.729200 0.784500 0.332000
0.848000 0.784500 0.332000
0.966800 0.784500 0.332000
0.980000 0.784500 0.332000
0.135200 0.888000 0.332000
0.254000 0.888000 0.332000
0.372800 0.888000 0.332000
0.491600 0.888000 0.332000
0.610400 0.888000 0.332000
0.729200 0.888000 0.332000
0.848000 0.888000 0.332000
0.966800 0.888000 0.332000
0.980000 0.888000 0.332000
0.135200 0.060000 0.449000
0.254000 0.060000 0.449000
0.372800 0.060000 0.449000
0.491600 0.060000 0.449000
0.610400 0.060000 0.449000
0.729200 0.060000 0.449000
0.848000 0.060000 0.449000
0.966800 0.060000 0.449000
0.980000 0.060000 0.449000
0.135200 0.163500 0.449000
0.254000 0.163500 0.449000
0.372800 0.163500 0.449000
0.491600 0.163500 0.449000
0.610400 0.163500 0.449000
0.729200 0.163500 0.449000
0.848000 0.163500 0.449000
0.966800 0.163500 0.449000
0.980000 0.163500 0.449000
0.135200 0.267000 0.449000
0.254000 0.267000 0.449000
0.372800 0.267000 0.449000
0.491600 0.267000 0.449000
0.610400 0.267000 0.449000
0.729200 0.267000 0.449000
0.848000 0.267000 0.449000
0.966800 0.267000 0.449000
0.980000 0.267000 0.449000
0.135200 0.370500 0.449000
0.254000 0.370500 0.449000
0.372800 0.370500 0.449000
0.491600 0.370500 0.449000
0.610400 0.370500 0.449000
0.729200 0.370500 0.449000
0.848000 0.370500 0.449000
0.966800 0.370500 0.449000
0.980000 0.370500 0.449000
0.135200 0.474000 0.449000
0.254000 0.474000 0.449000
0.372800 0.474000 0.449000
0.491600 0.474000 0.449000
0.610400 0.474000 0.449000
0.729200 0.474000 0.449000
0.848000 0.474000 0.449000
0.966800 0.474000 0.449000
0.980000 0.474000 0.449000
0.135200 0.577500 0.449000
0.254000 0.577500 0.449000
0.372800 0.577500 0.449000
0.491600 0.577500 0.449000
0.610400 0.577500 0.449000
0.729200 0.577500 0.449000
0.848000 0.577500 0.449000
0.966800 0.577500 0.449000
0.980000 0.577500 0.449000
0.135200 0.681000 0.449000
0.254000 0.681000 0.449000
0.372800 0.681000 0.449000
0.491600 0.681000 0.449000
0.610400 0.681000 0.449000
0.729200 0.681000 0.449000
0.848000 0.681000 0.449000
0.966800 0.681000 0.449000
0.980000 0.681000 0.449000
0.135200 0.784500 0.449000
0.254000 0.784500 0.449000
0.372800 0.784500 0.449000
0.491600 0.784500 0.449000
0.610400 0.784500 0.449000
0.729200 0.784500 0.449000
0.848000 0.784500 0.449000
0.966800 0.784500 0.449000
0.980000 0.784500 0.449000
0.135200 0.888000 0.449000
0.254000 0.888000 0.449000
0.372800 0.888000 0.449000
0.491600 0.888000 0.449000
0.610400 0.888000 0.449000
0.729200 0.888000 0.449000
0.848000 0.888000 0.449000
0.966800 0.888000 0.449000
0.980000 0.888000 0.449000
0.135200 0.060000 0.566000
0.254000 0.060000 0.566000
0.372800 0.060000 0.566000
0.491600 0.060000 0.566000
0.610400 0.060000 0.566000
0.729200 0.060000 0.566000
0.848000 0.060000 0.566000
0.966800 0.060000 0.566000
0.980000 0.060000 0.566000
0.135200 0.163500 0.566000
0.254000 0.163500 0.566000
0.372800 0.163500 0.566000
0.491600 0.163500 0.566000
0.610400 0.163500 0.566000
0.729200 0.163500 0.566000
0.848000 0.163500 0.566000
0.966800 0.163500 0.566000
0.980000 0.163500 0.566000
0.135200 0.267000 0.566000
0.254000 0.267000 0.566000
0.372800 0.267000 0.566000
0.491600 0.267000 0.566000
0.610400 0.267000 0.566000
0.729200 0.267000 0.566000
0.848000 0.267000 0.566000
0.966800 0.267000 0.566000
0.980000 0.267000 0.566000
0.135200 0.370500 0.566000
0.254000 0.370500 0.566000
0.372800 0.370500 0.566000
0.491600 0.370500 0.566000
0.610400 0.370500 0.566000
0.729200 0.370500 0.566000
0.848000 0.370500 0.566000
0.966800 0.370500 0.566000
0.980000 0.370500 0.566000
0.135200 0.474000 0.566000
0.254000 0.474000 0.566000
0.372800 0.474000 0.566000
0.491600 0.474000 0.566000
0.610400 0.474000 0.566000
0.729200 0.474000 0.566000
0.848000 0.474000 0.566000
0.966800 0.474000 0.566000
0.980000 0.474000 0.566000
0.135200 0.577500 0.566000
0.254000 0.577500 0.566000
0.372800 0.577500 0.566000
0.491600 0.577500 0.566000
0.610400 0.577500 0.566000
0.729200 0.577500 0.566000
0.848000 0.577500 0.566000
0.966800 0.577500 0.566000
0.980000 0.577500 0.566000
0.135200 0.681000 0.566000
0.254000 0.681000 0.566000
0.372800 0.681000 0.566000
0.491600 0.681000 0.566000
0.610400 0.681000 0.566000
0.729200 0.681000 0.566000
0.848000 0.681000 0.566000
0.966800 0.681000 0.566000
0.980000 0.681000 0.566000
0.135200 0.784500 0.566000
0.254000 0.784500 0.566000
0.372800 0.784500 0.566000
0.491600 0.784500 0.566000
0.610400 0.784500 0.566000
0.729200 0.784500 0.566000
0.848000 0.784500 0.566000
0.966800 0.784500 0.566000
0.980000 0.784500 0.566000
0.135200 0.888000 0.566000
0.254000 0.888000 0.566000
0.372800 0.888000 0.566000
0.491600 0.888000 0.566000
0.610400 0.888000 0.566000
0.729200 0.888000 0.566000
0.848000 0.888000 0.566000
0.966800 0.888000 0.566000
0.980000 0.888000 0.566000
0.135200 0.060000 0.683000
0.254000 0.060000 0.683000
0.372800 0.060000 0.683000
0.491600 0.060000 0.683000
0.610400 0.060000 0.683000
0.729200 0.060000 0.683000
0.848000 0.060000 0.683000
0.966800 0.060000 0.683000
0.980000 0.060000 0.683000
0.135200 0.163500 0.683000
0.254000 0.163500 0.683000
0.372800 0.163500 0.683000
0.491600 0.163500 0.683000
0.610400 0.163500 0.683000
0.729200 0.163500 0.683000
0.848000 0.163500 0.683000
0.966800 0.163500 0.683000
0.980000 0.163500 0.683000
0.135200 0.267000 0.683000
0.254000 0.267000 0.683000
0.372800 0.267000 0.683000
0.491600 0.267000 0.683000
0.610400 0.267000 0.683000
0.729200 0.267000 0.683000
0.848000 0.267000 0.683000
0.966800 0.267000 0.683000
0.980000 0.267000 0.683000
0.135200 0.370500 0.683000
0.254000 0.370500 0.683000
0.372800 0.370500 0.683000
0.491600 0.370500 0.683000
0.610400 0.370500 0.683000
0.729200 0.370500 0.683000
0.848000 0.370500 0.683000
0.966800 0.370500 0.683000
0.980000 0.370500 0.683000
0.135200 0.474000 0.683000
0.254000 0.474000 0.683000
0.372800 0.474000 0.683000
0.491600 0.474000 0.683000
0.610400 0.474000 0.683000
0.729200 0.474000 0.683000
0.848000 0.474000 0.683000
0.966800 0.474000 0.683000
0.980000 0.474000 0.683000
0.135200 0.577500 0.683000
0.254000 0.577500 0.683000
0.372800 0.577500 0.683000
0.491600 0.577500 0.683000
0.610400 0.577500 0.683000
0.729200 0.577500 0.683000
0.848000 0.577500 0.683000
0.966800 0.577500 0.683000
0.980000 0.577500 0.683000
0.135200 0.681000 0.683000
0.254000 0.681000 0.683000
0.372800 0.681000 0.683000
0.491600 0.681000 0.683000
0.610400 0.681000 0.683000
0.729200 0.681000 0.683000
0.848000 0.681000 0.683000
0.966800 0.681000 0.683000
0.980000 0.681000 0.683000
0.135200 0.784500 0.683000
0.254000 0.784500 0.683000
0.372800 0.784500 0.683000
0.491600 0.784500 0.683000
0.610400 0.784500 0.683000
0.729200 0.784500 0.683000
0.848000 0.784500 0.683000
0.966800 0.784500 0.683000
0.980000 0.784500 0.683000
0.135200 0.888000 0.683000
0.254000 0.888000 0.683000
0.372800 0.888000 0.683000
0.491600 0.888000 0.683000
0.610400 0.888000 0.683000
0.729200 0.888000 0.683000
0.848000 0.888000 0.683000
0.966800 0.888000 0.683000
0.980000 0.888000 0.683000
0.135200 0.060000 0.800000
0.254000 0.060000 0.800000
0.372800 0.060000 0.800000
0.491600 0.060000 0.800000
0.610400 0.060000 0.800000
0.729200 0.060000 0.800000
0.848000 0.060000 0.800000
0.966800 0.060000 0.800000
0.980000 0.060000 0.800000
0.135200 0.163500 0.800000
0.254000 0.163500 0.800000
0.372800 0.163500 0.800000
0.491600 0.163500 0.800000
0.610400 0.163500 0.800000
0.729200 0.163500 0.800000
0.848000 0.163500 0.800000
0.966800 0.163500 0.800000
0.980000 0.163500 0.800000
0.135200 0.267000 0.800000
0.254000 0.267000 0.800000
0.372800 0.267000 0.800000
0.491600 0.267000 0.800000
0.610400 0.267000 0.800000
0.729200 0.267000 0.800000
0.848000 0.267000 0.800000
0.966800 0.267000 0.800000
0.980000 0.267000 0.800000
0.135200 0.370500 0.800000
0.254000 0.370500 0.800000
0.372800 0.370500 0.800000
0.491600 0.370500 0.800000
0.610400 0.370500 0.800000
0.729200 0.370500 0.800000
0.848000 0.370500 0.800000
0.966800 0.370500 0.800000
0.980000 0.370500 0.800000
0.135200 0.474000 0.800000
0.254000 0.474000 0.800000
0.372800 0.474000 0.800000
0.491600 0.474000 0.800000
0.610400 0.474000 0.800000
0.729200 0.474000 0.800000
0.848000 0.474000 0.800000
0.966800 0.474000 0.800000
0.980000 0.474000 0.800000
0.135200 0.577500 0.800000
0.254000 0.577500 0.800000
0.372800 0.577500 0.800000
0.491600 0.577500 0.800000
0.610400 0.577500 0.800000
0.729200 0.577500 0.800000
0.848000 0.577500 0.800000
0.966800 0.577500 0.800000
0.980000 0.577500 0.800000
0.135200 0.681000 0.800000
0.254000 0.681000 0.800000
0.372800 0.681000 0.800000
0.491600 0.681000 0.800000
0.610400 0.681000 0.800000
0.729200 0.681000 0.800000
0.848000 0.681000 0.800000
0.966800 0.681000 0.800000
0.980000 0.681000 0.800000
0.135200 0.784500 0.800000
0.254000 0.784500 0.800000
0.372800 0.784500 0.800000
0.491600 0.784500 0.800000
0.610400 0.784500 0.800000
0.729200 0.784500 0.800000
0.848000 0.784500 0.800000
0.966800 0.784500 0.800000
0.980000 0.784500 0.800000
0.135200 0.888000 0.800000
0.254000 0.888000 0.800000
0.372800 0.888000 0.800000
0.491600 0.888000 0.800000
0.610400 0.888000 0.800000
0.729200 0.888000 0.800000
0.848000 0.888000 0.800000
0.966800 0.888000 0.800000
0.980000 0.888000 0.800000
0.135200 0.060000 0.917000
0.254000 0.060000 0.917000
0.372800 0.060000 0.917000
0.491600 0.060000 0.917000
0.610400 0.060000 0.917000
0.729200 0.060000 0.917000
0.848000 0.060000 0.917000
0.966800 0.060000 0.917000
0.980000 0.060000 0.917000
0.135200 0.163500 0.917000
0.254000 0.163500 0.917000
0.372800 0.163500 0.917000
0.491600 0.163500 0.917000
0.610400 0.163500 0.917000
0.729200 0.163500 0.917000
0.848000 0.163500 0.917000
0.966800 0.163500 0.917000
0.980000 0.163500 0.917000
0.135200 0.267000 0.917000
0.254000 0.267000 0.917000
0.372800 0.267000 0.917000
0.491600 0.267000 0.917000
0.610400 0.267000 0.917000
0.729200 0.267000 0.917000
0.848000 0.267000 0.917000
0.966800 0.267000 0.917000
0.980000 0.267000 0.917000
0.135200 0.370500 0.917000
0.254000 0.370500 0.917000
0.372800 0.370500 0.917000
0.491600 0.370500 0.917000
0.610400 0.370500 0.917000
0.729200 0.370500 0.917000
0.848000 0.370500 0.917000
0.966800 0.370500 0.917000
0.980000 0.370500 0.917000
0.135200 0.474000 0.917000
0.254000 0.474000 0.917000
0.372800 0.474000 0.917000
0.491600 0.474000 0.917000
0.610400 0.474000 0.917000
0.729200 0.474000 0.917000
0.848000 0.474000 0.917000
0.966800 0.474000 0.917000
0.980000 0.474000 0.917000
0.135200 0.577500 0.917000
0.254000 0.577500 0.917000
0.372800 0.577500 0.917000
0.491600 0.577500 0.917000
0.610400 0.577500 0.917000
0.729200 0.577500 0.917000
0.848000 0.577500 0.917000
0.966800 0.577500 0.917000
0.980000 0.577500 0.917000
0.135200 0.681000 0.917000
0.254000 0.681000 0.917000
0.372800 0.681000 0.917000
0.491600 0.681000 0.917000
0.610400 0.681000 0.917000
0.729200 0.681000 0.917000
0.848000 0.681000 0.917000
0.966800 0.681000 0.917000
0.980000 0.681000 0.917000
0.135200 0.784500 0.917000
0.254000 0.784500 0.917000
0.372800 0.784500 0.917000
0.491600 0.784500 0.917000
0.610400 0.784500 0.917000
0.729200 0.784500 0.917000
0.848000 0.784500 0.917000
0.966800 0.784500 0.917000
0.980000 0.784500 0.917000
0.135200 0.888000 0.917000
0.254000 0.888000 0.917000
0.372800 0.888000 0.917000
0.491600 0.888000 0.917000
0.610400 0.888000 0.917000
0.729200 0.888000 0.917000
0.848000 0.888000 0.917000
0.966800 0.888000 0.917000
0.980000 0.888000 0.917000
0.135200 0.060000 0.980000
0.254000 0.060000 0.980000
0.372800 0.060000 0.980000
0.491600 0.060000 0.980000
0.610400 0.060000 0.980000
0.729200 0.060000 0.980000
0.848000 0.060000 0.980000
0.966800 0.060000 0.980000
0.980000 0.060000 0.980000
0.135200 0.163500 0.980000
0.254000 0.163500 0.980000
0.372800 0.163500 0.980000
0.491600 0.163500 0.980000
0.610400 0.163500 0.980000
0.729200 0.163500 0.980000
0.848000 0.163500 0.980000
0.966800 0.163500 0.980000
0.980000 0.163500 0.980000
0.135200 0.267000 0.980000
0.254000 0.267000 0.980000
0.372800 0.267000 0.980000
0.491600 0.267000 0.980000
0.610400 0.267000 0.980000
0.729200 0.267000 0.980000
0.848000 0.267000 0.980000
0.966800 0.267000 0.980000
0.980000 0.267000 0.980000
0.135200 0.370500 0.980000
0.254000 0.370500 0.980000
0.372800 0.370500 0.980000
0.491600 0.370500 0.980000
0.610400 0.370500 0.980000
0.729200 0.370500 0.980000
0.848000 0.370500 0.980000
0.966800 0.370500 0.980000
0.980000 0.370500 0.980000
0.135200 0.474000 0.980000
0.254000 0.474000 0.980000
0.372800 0.474000 0.980000
0.491600 0.474000 0.980000
0.610400 0.474000 0.980000
0.729200 0.474000 0.980000
0.848000 0.474000 0.980000
0.966800 0.474000 0.980000
0.980000 0.474000 0.980000
0.135200 0.577500 0.980000
0.254000 0.577500 0.980000
0.372800 0.577500 0.980000
0.491600 0.577500 0.980000
0.610400 0.577500 0.980000
0.729200 0.577500 0.980000
0.848000 0.577500 0.980000
0.966800 0.577500 0.980000
0.980000 0.577500 0.980000
0.135200 0.681000 0.980000
0.254000 0.681000 0.980000
0.372800 0.681000 0.980000
0.491600 0.681000 0.980000
0.610400 0.681000 0.980000
0.729200 0.681000 0.980000
0.848000 0.681000 0.980000
0.966800 0.681000 0.980000
0.980000 0.681000 0.980000
0.135200 0.784500 0.980000
0.254000 0.784500 0.980000
0.372800 0.784500 0.980000
0.491600 0.784500 0.980000
0.610400 0.784500 0.980000
0.729200 0.784500 0.980000
0.848000 0.784500 0.980000
0.966800 0.784500 0.980000
0.980000 0.784500 0.980000
0.135200 0.888000 0.980000
0.254000 0.888000 0.980000
0.372800 0.888000 0.980000
0.491600 0.888000 0.980000
0.610400 0.888000 0.980000
0.729200 0.888000 0.980000
0.848000 0.888000 0.980000
0.966800 0.888000 0.980000
0.980000 0.888000 0.980000
