assets/luts/rose.cube
TITLE "Rosé"
LUT_3D_SIZE 5
0.135200 0.060000 0.098000
0.372800 0.060000 0.098000
0.610400 0.060000 0.098000
0.848000 0.060000 0.098000
0.980000 0.060000 0.098000
0.135200 0.267000 0.098000
0.372800 0.267000 0.098000
0.610400 0.267000 0.098000
0.848000 0.267000 0.098000
0.980000 0.267000 0.098000
0.135200 0.474000 0.098000
0.372800 0.474000 0.098000
0.610400 0.474000 0.098000
0.848000 0.474000 0.098000
0.980000 0.474000 0.098000
0.135200 0.681000 0.098000
0.372800 0.681000 0.098000
0.610400 0.681000 0.098000
0.848000 0.681000 0.098000
0.980000 0.681000 0.098000
0.135200 0.888000 0.098000
0.372800 0.888000 0.098000
0.610400 0.888000 0.098000
0.848000 0.888000 0.098000
0.980000 0.888000 0.098000
0.135200 0.060000 0.332000
0.372800 0.060000 0.332000
0.610400 0.060000 0.332000
0.848000 0.060000 0.332000
0.980000 0.060000 0.332000
0.135200 0.267000 0.332000
0.372800 0.267000 0.332000
0.610400 0.267000 0.332000
0.848000 0.267000 0.332000
0.980000 0.267000 0.332000
0.135200 0.474000 0.332000
0.372800 0.474000 0.332000
0.610400 0.474000 0.332000
0.848000 0.474000 0.332000
0.980000 0.474000 0.332000
0.135200 0.681000 0.332000
0.372800 0.681000 0.332000
0.610400 0.681000 0.332000
0.848000 0.681000 0.332000
0.980000 0.681000 0.332000
0.135200 0.888000 0.332000
0.372800 0.888000 0.332000
0.610400 0.888000 0.332000
0.848000 0.888000 0.332000
0.980000 0.888000 0.332000
0.135200 0.060000 0.566000
0.372800 0.060000 0.566000
0.610400 0.060000 0.566000
0.848000 0.060000 0.566000
0.980000 0.060000 0.566000
0.135200 0.267000 0.566000
0.372800 0.267000 0.566000
0.610400 0.267000 0.566000
0.848000 0.267000 0.566000
0.980000 0.267000 0.566000
0.135200 0.474000 0.566000
0.372800 0.474000 0.566000
0.610400 0.474000 0.566000
0.848000 0.474000 0.566000
0.980000 0.474000 0.566000
0.135200 0.681000 0.566000
0.372800 0.681000 0.566000
0.610400 0.681000 0.566000
0.848000 0.681000 0.566000
0.980000 0.681000 0.566000
0.135200 0.888000 0.566000
0.372800 0.888000 0.566000
0.610400 0.888000 0.566000
0.848000 0.888000 0.566000
0.980000 0.888000 0.566000
0.135200 0.060000 0.800000
0.372800 0.060000 0.800000
0.610400 0.060000 0.800000
0.848000 0.060000 0.800000
0.980000 0.060000 0.800000
0.135200 0.267000 0.800000
0.372800 0.267000 0.800000
0.610400 0.267000 0.800000
0.848000 0.267000 0.800000
0.980000 0.267000 0.800000
0.135200 0.474000 0.800000
0.372800 0.474000 0.800000
0.610400 0.474000 0.800000
0.848000 0.474000 0.800000
0.980000 0.474000 0.800000
0.135200 0.681000 0.800000
0.372800 0.681000 0.800000
0.610400 0.681000 0.800000
0.848000 0.681000 0.800000
0.980000 0.681000 0.800000
0.135200 0.888000 0.800000
0.372800 0.888000 0.800000
0.610400 0.888000 0.800000
0.848000 0.888000 0.800000
0.980000 0.888000 0.800000
0.135200 0.060000 0.980000
0.372800 0.060000 0.980000
0.610400 0.060000 0.980000
0.848000 0.060000 0.980000
0.980000 0.060000 0.980000
0.135200 0.267000 0.980000
0.372800 0.267000 0.980000
0.610400 0.267000 0.980000
0.848000 0.267000 0.980000
0.980000 0.267000 0.980000
0.135200 0.474000 0.980000
0.372800 0.474000 0.980000
0.610400 0.474000 0.980000
0.848000 0.474000 0.980000
0.980000 0.474000 0.980000
0.135200 0.681000 0.980000
0.372800 0.681000 0.980000
0.610400 0.681000 0.980000
0.848000 0.681000 0.980000
0.980000 0.681000 0.980000
0.135200 0.888000 0.980000
0.372800 0.888000 0.980000
0.610400 0.888000 0.980000
0.848000 0.888000 0.980000
0.980000 0.888000 0.980000
