assets/luts/rose.cube
TITLE "Rosé"
LUT_3D_SIZE 17
0.135200 0.060000 0.098000
0.194600 0.060000 0.098000
0.254000 0.060000 0.098000
0.313400 0.060000 0.098000
0.372800 0.060000 0.098000
0.432200 0.060000 0.098000
0.491600 0.060000 0.098000
0.551000 0.060000 0.098000
0.610400 0.060000 0.098000
0.669800 0.060000 0.098000
0.729200 0.060000 0.098000
0.788600 0.060000 0.098000
0.848000 0.060000 0.098000
0.907400 0.060000 0.098000
0.966800 0.060000 0.098000
0.980000 0.060000 0.098000
0.980000 0.060000 0.098000
0.135200 0.111750 0.098000
0.194600 0.111750 0.098000
0.254000 0.111750 0.098000
0.313400 0.111750 0.098000
0.372800 0.111750 0.098000
0.432200 0.111750 0.098000
0.491600 0.111750 0.098000
0.551000 0.111750 0.098000
0.610400 0.111750 0.098000
0.669800 0.111750 0.098000
0.729200 0.111750 0.098000
0.788600 0.111750 0.098000
0.848000 0.111750 0.098000
0.907400 0.111750 0.098000
0.966800 0.111750 0.098000
0.980000 0.111750 0.098000
0.980000 0.111750 0.098000
0.135200 0.163500 0.098000
0.194600 0.163500 0.098000
0.254000 0.163500 0.098000
0.313400 0.163500 0.098000
0.372800 0.163500 0.098000
0.432200 0.163500 0.098000
0.491600 0.163500 0.098000
0.551000 0.163500 0.098000
0.610400 0.163500 0.098000
0.669800 0.163500 0.098000
0.729200 0.163500 0.098000
0.788600 0.163500 0.098000
0.848000 0.163500 0.098000
0.907400 0.163500 0.098000
0.966800 0.163500 0.098000
0.980000 0.163500 0.098000
0.980000 0.163500 0.098000
0.135200 0.215250 0.098000
0.194600 0.215250 0.098000
0.254000 0.215250 0.098000
0.313400 0.215250 0.098000
0.372800 0.215250 0.098000
0.432200 0.215250 0.098000
0.491600 0.215250 0.098000
0.551000 0.215250 0.098000
0.610400 0.215250 0.098000
0.669800 0.215250 0.098000
0.729200 0.215250 0.098000
0.788600 0.215250 0.098000
0.848000 0.215250 0.098000
0.907400 0.215250 0.098000
0.966800 0.215250 0.098000
0.980000 0.215250 0.098000
0.980000 0.215250 0.098000
0.135200 0.267000 0.098000
0.194600 0.267000 0.098000
0.254000 0.267000 0.098000
0.313400 0.267000 0.098000
0.372800 0.267000 0.098000
0.432200 0.267000 0.098000
0.491600 0.267000 0.098000
0.551000 0.267000 0.098000
0.610400 0.267000 0.098000
0.669800 0.267000 0.098000
0.729200 0.267000 0.098000
0.788600 0.267000 0.098000
0.848000 0.267000 0.098000
0.907400 0.267000 0.098000
0.966800 0.267000 0.098000
0.980000 0.267000 0.098000
0.980000 0.267000 0.098000
0.135200 0.318750 0.098000
0.194600 0.318750 0.098000
0.254000 0.318750 0.098000
0.313400 0.318750 0.098000
0.372800 0.318750 0.098000
0.432200 0.318750 0.098000
0.491600 0.318750 0.098000
0.551000 0.318750 0.098000
0.610400 0.318750 0.098000
0.669800 0.318750 0.098000
0.729200 0.318750 0.098000
0.788600 0.318750 0.098000
0.848000 0.318750 0.098000
0.907400 0.318750 0.098000
0.966800 0.318750 0.098000
0.980000 0.318750 0.098000
0.980000 0.318750 0.098000
0.135200 0.370500 0.098000
0.194600 0.370500 0.098000
0.254000 0.370500 0.098000
0.313400 0.370500 0.098000
0.372800 0.370500 0.098000
0.432200 0.370500 0.098000
0.491600 0.370500 0.098000
0.551000 0.370500 0.098000
0.610400 0.370500 0.098000
0.669800 0.370500 0.098000
0.729200 0.370500 0.098000
0.788600 0.370500 0.098000
0.848000 0.370500 0.098000
0.907400 0.370500 0.098000
0.966800 0.370500 0.098000
0.980000 0.370500 0.098000
0.980000 0.370500 0.098000
0.135200 0.422250 0.098000
0.194600 0.422250 0.098000
0.254000 0.422250 0.098000
0.313400 0.422250 0.098000
0.372800 0.422250 0.098000
0.432200 0.422250 0.098000
0.491600 0.422250 0.098000
0.551000 0.422250 0.098000
0.610400 0.422250 0.098000
0.669800 0.422250 0.098000
0.729200 0.422250 0.098000
0.788600 0.422250 0.098000
0.848000 0.422250 0.098000
0.907400 0.422250 0.098000
0.966800 0.422250 0.098000
0.980000 0.422250 0.098000
0.980000 0.422250 0.098000
0.135200 0.474000 0.098000
0.194600 0.474000 0.098000
0.254000 0.474000 0.098000
0.313400 0.474000 0.098000
0.372800 0.474000 0.098000
0.432200 0.474000 0.098000
0.491600 0.474000 0.098000
0.551000 0.474000 0.098000
0.610400 0.474000 0.098000
0.669800 0.474000 0.098000
0.729200 0.474000 0.098000
0.788600 0.474000 0.098000
0.848000 0.474000 0.098000
0.907400 0.474000 0.098000
0.966800 0.474000 0.098000
0.980000 0.474000 0.098000
0.980000 0.474000 0.098000
0.135200 0.525750 0.098000
0.194600 0.525750 0.098000
0.254000 0.525750 0.098000
0.313400 0.525750 0.098000
0.372800 0.525750 0.098000
0.432200 0.525750 0.098000
0.491600 0.525750 0.098000
0.551000 0.525750 0.098000
0.610400 0.525750 0.098000
0.669800 0.525750 0.098000
0.729200 0.525750 0.098000
0.788600 0.525750 0.098000
0.848000 0.525750 0.098000
0.907400 0.525750 0.098000
0.966800 0.525750 0.098000
0.980000 0.525750 0.098000
0.980000 0.525750 0.098000
0.135200 0.577500 0.098000
0.194600 0.577500 0.098000
0.254000 0.577500 0.098000
0.313400 0.577500 0.098000
0.372800 0.577500 0.098000
0.432200 0.577500 0.098000
0.491600 0.577500 0.098000
0.551000 0.577500 0.098000
0.610400 0.577500 0.098000
0.669800 0.577500 0.098000
0.729200 0.577500 0.098000
0.788600 0.577500 0.098000
0.848000 0.577500 0.098000
0.907400 0.577500 0.098000
0.966800 0.577500 0.098000
0.980000 0.577500 0.098000
0.980000 0.577500 0.098000
0.135200 0.629250 0.098000
0.194600 0.629250 0.098000
0.254000 0.629250 0.098000
0.313400 0.629250 0.098000
0.372800 0.629250 0.098000
0.432200 0.629250 0.098000
0.491600 0.629250 0.098000
0.551000 0.629250 0.098000
0.610400 0.629250 0.098000
0.669800 0.629250 0.098000
0.729200 0.629250 0.098000
0.788600 0.629250 0.098000
0.848000 0.629250 0.098000
0.907400 0.629250 0.098000
0.966800 0.629250 0.098000
0.980000 0.629250 0.098000
0.980000 0.629250 0.098000
0.135200 0.681000 0.098000
0.194600 0.681000 0.098000
0.254000 0.681000 0.098000
0.313400 0.681000 0.098000
0.372800 0.681000 0.098000
0.432200 0.681000 0.098000
0.491600 0.681000 0.098000
0.551000 0.681000 0.098000
0.610400 0.681000 0.098000
0.669800 0.681000 0.098000
0.729200 0.681000 0.098000
0.788600 0.681000 0.098000
0.848000 0.681000 0.098000
0.907400 0.681000 0.098000
0.966800 0.681000 0.098000
0.980000 0.681000 0.098000
0.980000 0.681000 0.098000
0.135200 0.732750 0.098000
0.194600 0.732750 0.098000
0.254000 0.732750 0.098000
0.313400 0.732750 0.098000
0.372800 0.732750 0.098000
0.432200 0.732750 0.098000
0.491600 0.732750 0.098000
0.551000 0.732750 0.098000
0.610400 0.732750 0.098000
0.669800 0.732750 0.098000
0.729200 0.732750 0.098000
0.788600 0.732750 0.098000
0.848000 0.732750 0.098000
0.907400 0.732750 0.098000
0.966800 0.732750 0.098000
0.980000 0.732750 0.098000
0.980000 0.732750 0.098000
0.135200 0.784500 0.098000
0.194600 0.784500 0.098000
0.254000 0.784500 0.098000
0.313400 0.784500 0.098000
0.372800 0.784500 0.098000
0.432200 0.784500 0.098000
0.491600 0.784500 0.098000
0.551000 0.784500 0.098000
0.610400 0.784500 0.098000
0.669800 0.784500 0.098000
0.729200 0.784500 0.098000
0.788600 0.784500 0.098000
0.848000 0.784500 0.098000
0.907400 0.784500 0.098000
0.966800 0.784500 0.098000
0.980000 0.784500 0.098000
0.980000 0.784500 0.098000
0.135200 0.836250 0.098000
0.194600 0.836250 0.098000
0.254000 0.836250 0.098000
0.313400 0.836250 0.098000
0.372800 0.836250 0.098000
0.432200 0.836250 0.098000
0.491600 0.836250 0.098000
0.551000 0.836250 0.098000
0.610400 0.836250 0.098000
0.669800 0.836250 0.098000
0.729200 0.836250 0.098000
0.788600 0.836250 0.098000
0.848000 0.836250 0.098000
0.907400 0.836250 0.098000
0.966800 0.836250 0.098000
0.980000 0.836250 0.098000
0.980000 0.836250 0.098000
0.135200 0.888000 0.098000
0.194600 0.888000 0.098000
0.254000 0.888000 0.098000
0.313400 0.888000 0.098000
0.372800 0.888000 0.098000
0.432200 0.888000 0.098000
0.491600 0.888000 0.098000
0.551000 0.888000 0.098000
0.610400 0.888000 0.098000
0.669800 0.888000 0.098000
0.729200 0.888000 0.098000
0.788600 0.888000 0.098000
0.848000 0.888000 0.098000
0.907400 0.888000 0.098000
0.966800 0.888000 0.098000
0.980000 0.888000 0.098000
0.980000 0.888000 0.098000
0.135200 0.060000 0.156500
0.194600 0.060000 0.156500
0.254000 0.060000 0.156500
0.313400 0.060000 0.156500
0.372800 0.060000 0.156500
0.432200 0.060000 0.156500
0.491600 0.060000 0.156500
0.551000 0.060000 0.156500
0.610400 0.060000 0.156500
0.669800 0.060000 0.156500
0.729200 0.060000 0.156500
0.788600 0.060000 0.156500
0.848000 0.060000 0.156500
0.907400 0.060000 0.156500
0.966800 0.060000 0.156500
0.980000 0.060000 0.156500
0.980000 0.060000 0.156500
0.135200 0.111750 0.156500
0.194600 0.111750 0.156500
0.254000 0.111750 0.156500
0.313400 0.111750 0.156500
0.372800 0.111750 0.156500
0.432200 0.111750 0.156500
0.491600 0.111750 0.156500
0.551000 0.111750 0.156500
0.610400 0.111750 0.156500
0.669800 0.111750 0.156500
0.729200 0.111750 0.156500
0.788600 0.111750 0.156500
0.848000 0.111750 0.156500
0.907400 0.111750 0.156500
0.966800 0.111750 0.156500
0.980000 0.111750 0.156500
0.980000 0.111750 0.156500
0.135200 0.163500 0.156500
0.194600 0.163500 0.156500
0.254000 0.163500 0.156500
0.313400 0.163500 0.156500
0.372800 0.163500 0.156500
0.432200 0.163500 0.156500
0.491600 0.163500 0.156500
0.551000 0.163500 0.156500
0.610400 0.163500 0.156500
0.669800 0.163500 0.156500
0.729200 0.163500 0.156500
0.788600 0.163500 0.156500
0.848000 0.163500 0.156500
0.907400 0.163500 0.156500
0.966800 0.163500 0.156500
0.980000 0.163500 0.156500
0.980000 0.163500 0.156500
0.135200 0.215250 0.156500
0.194600 0.215250 0.156500
0.254000 0.215250 0.156500
0.313400 0.215250 0.156500
0.372800 0.215250 0.156500
0.432200 0.215250 0.156500
0.491600 0.215250 0.156500
0.551000 0.215250 0.156500
0.610400 0.215250 0.156500
0.669800 0.215250 0.156500
0.729200 0.215250 0.156500
0.788600 0.215250 0.156500
0.848000 0.215250 0.156500
0.907400 0.215250 0.156500
0.966800 0.215250 0.156500
0.980000 0.215250 0.156500
0.980000 0.215250 0.156500
0.135200 0.267000 0.156500
0.194600 0.267000 0.156500
0.254000 0.267000 0.156500
0.313400 0.267000 0.156500
0.372800 0.267000 0.156500
0.432200 0.267000 0.156500
0.491600 0.267000 0.156500
0.551000 0.267000 0.156500
0.610400 0.267000 0.156500
0.669800 0.267000 0.156500
0.729200 0.267000 0.156500
0.788600 0.267000 0.156500
0.848000 0.267000 0.156500
0.907400 0.267000 0.156500
0.966800 0.267000 0.156500
0.980000 0.267000 0.156500
0.980000 0.267000 0.156500
0.135200 0.318750 0.156500
0.194600 0.318750 0.156500
0.254000 0.318750 0.156500
0.313400 0.318750 0.156500
0.372800 0.318750 0.156500
0.432200 0.318750 0.156500
0.491600 0.318750 0.156500
0.551000 0.318750 0.156500
0.610400 0.318750 0.156500
0.669800 0.318750 0.156500
0.729200 0.318750 0.156500
0.788600 0.318750 0.156500
0.848000 0.318750 0.156500
0.907400 0.318750 0.156500
0.966800 0.318750 0.156500
0.980000 0.318750 0.156500
0.980000 0.318750 0.156500
0.135200 0.370500 0.156500
0.194600 0.370500 0.156500
0.254000 0.370500 0.156500
0.313400 0.370500 0.156500
0.372800 0.370500 0.156500
0.432200 0.370500 0.156500
0.491600 0.370500 0.156500
0.551000 0.370500 0.156500
0.610400 0.370500 0.156500
0.669800 0.370500 0.156500
0.729200 0.370500 0.156500
0.788600 0.370500 0.156500
0.848000 0.370500 0.156500
0.907400 0.370500 0.156500
0.966800 0.370500 0.156500
0.980000 0.370500 0.156500
0.980000 0.370500 0.156500
0.135200 0.422250 0.156500
0.194600 0.422250 0.156500
0.254000 0.422250 0.156500
0.313400 0.422250 0.156500
0.372800 0.422250 0.156500
0.432200 0.422250 0.156500
0.491600 0.422250 0.156500
0.551000 0.422250 0.156500
0.610400 0.422250 0.156500
0.669800 0.422250 0.156500
0.729200 0.422250 0.156500
0.788600 0.422250 0.156500
0.848000 0.422250 0.156500
0.907400 0.422250 0.156500
0.966800 0.422250 0.156500
0.980000 0.422250 0.156500
0.980000 0.422250 0.156500
0.135200 0.474000 0.156500
0.194600 0.474000 0.156500
0.254000 0.474000 0.156500
0.313400 0.474000 0.156500
0.372800 0.474000 0.156500
0.432200 0.474000 0.156500
0.491600 0.474000 0.156500
0.551000 0.474000 0.156500
0.610400 0.474000 0.156500
0.669800 0.474000 0.156500
0.729200 0.474000 0.156500
0.788600 0.474000 0.156500
0.848000 0.474000 0.156500
0.907400 0.474000 0.156500
0.966800 0.474000 0.156500
0.980000 0.474000 0.156500
0.980000 0.474000 0.156500
0.135200 0.525750 0.156500
0.194600 0.525750 0.156500
0.254000 0.525750 0.156500
0.313400 0.525750 0.156500
0.372800 0.525750 0.156500
0.432200 0.525750 0.156500
0.491600 0.525750 0.156500
0.551000 0.525750 0.156500
0.610400 0.525750 0.156500
0.669800 0.525750 0.156500
0.729200 0.525750 0.156500
0.788600 0.525750 0.156500
0.848000 0.525750 0.156500
0.907400 0.525750 0.156500
0.966800 0.525750 0.156500
0.980000 0.525750 0.156500
0.980000 0.525750 0.156500
0.135200 0.577500 0.156500
0.194600 0.577500 0.156500
0.254000 0.577500 0.156500
0.313400 0.577500 0.156500
0.372800 0.577500 0.156500
0.432200 0.577500 0.156500
0.491600 0.577500 0.156500
0.551000 0.577500 0.156500
0.610400 0.577500 0.156500
0.669800 0.577500 0.156500
0.729200 0.577500 0.156500
0.788600 0.577500 0.156500
0.848000 0.577500 0.156500
0.907400 0.577500 0.156500
0.966800 0.577500 0.156500
0.980000 0.577500 0.156500
0.980000 0.577500 0.156500
0.135200 0.629250 0.156500
0.194600 0.629250 0.156500
0.254000 0.629250 0.156500
0.313400 0.629250 0.156500
0.372800 0.629250 0.156500
0.432200 0.629250 0.156500
0.491600 0.629250 0.156500
0.551000 0.629250 0.156500
0.610400 0.629250 0.156500
0.669800 0.629250 0.156500
0.729200 0.629250 0.156500
0.788600 0.629250 0.156500
0.848000 0.629250 0.156500
0.907400 0.629250 0.156500
0.966800 0.629250 0.156500
0.980000 0.629250 0.156500
0.980000 0.629250 0.156500
0.135200 0.681000 0.156500
0.194600 0.681000 0.156500
0.254000 0.681000 0.156500
0.313400 0.681000 0.156500
0.372800 0.681000 0.156500
0.432200 0.681000 0.156500
0.491600 0.681000 0.156500
0.551000 0.681000 0.156500
0.610400 0.681000 0.156500
0.669800 0.681000 0.156500
0.729200 0.681000 0.156500
0.788600 0.681000 0.156500
0.848000 0.681000 0.156500
0.907400 0.681000 0.156500
0.966800 0.681000 0.156500
0.980000 0.681000 0.156500
0.980000 0.681000 0.156500
0.135200 0.732750 0.156500
0.194600 0.732750 0.156500
0.254000 0.732750 0.156500
0.313400 0.732750 0.156500
0.372800 0.732750 0.156500
0.432200 0.732750 0.156500
0.491600 0.732750 0.156500
0.551000 0.732750 0.156500
0.610400 0.732750 0.156500
0.669800 0.732750 0.156500
0.729200 0.732750 0.156500
0.788600 0.732750 0.156500
0.848000 0.732750 0.156500
0.907400 0.732750 0.156500
0.966800 0.732750 0.156500
0.980000 0.732750 0.156500
0.980000 0.732750 0.156500
0.135200 0.784500 0.156500
0.194600 0.784500 0.156500
0.254000 0.784500 0.156500
0.313400 0.784500 0.156500
0.372800 0.784500 0.156500
0.432200 0.784500 0.156500
0.491600 0.784500 0.156500
0.551000 0.784500 0.156500
0.610400 0.784500 0.156500
0.669800 0.784500 0.156500
0.729200 0.784500 0.156500
0.788600 0.784500 0.156500
0.848000 0.784500 0.156500
0.907400 0.784500 0.156500
0.966800 0.784500 0.156500
0.980000 0.784500 0.156500
0.980000 0.784500 0.156500
0.135200 0.836250 0.156500
0.194600 0.836250 0.156500
0.254000 0.836250 0.156500
0.313400 0.836250 0.156500
0.372800 0.836250 0.156500
0.432200 0.836250 0.156500
0.491600 0.836250 0.156500
0.551000 0.836250 0.156500
0.610400 0.836250 0.156500
0.669800 0.836250 0.156500
0.729200 0.836250 0.156500
0.788600 0.836250 0.156500
0.848000 0.836250 0.156500
0.907400 0.836250 0.156500
0.966800 0.836250 0.156500
0.980000 0.836250 0.156500
0.980000 0.836250 0.156500
0.135200 0.888000 0.156500
0.194600 0.888000 0.156500
0.254000 0.888000 0.156500
0.313400 0.888000 0.156500
0.372800 0.888000 0.156500
0.432200 0.888000 0.156500
0.491600 0.888000 0.156500
0.551000 0.888000 0.156500
0.610400 0.888000 0.156500
0.669800 0.888000 0.156500
0.729200 0.888000 0.156500
0.788600 0.888000 0.156500
0.848000 0.888000 0.156500
0.907400 0.888000 0.156500
0.966800 0.888000 0.156500
0.980000 0.888000 0.156500
0.980000 0.888000 0.156500
0.135200 0.060000 0.215000
0.194600 0.060000 0.215000
0.254000 0.060000 0.215000
0.313400 0.060000 0.215000
0.372800 0.060000 0.215000
0.432200 0.060000 0.215000
0.491600 0.060000 0.215000
0.551000 0.060000 0.215000
0.610400 0.060000 0.215000
0.669800 0.060000 0.215000
0.729200 0.060000 0.215000
0.788600 0.060000 0.215000
0.848000 0.060000 0.215000
0.907400 0.060000 0.215000
0.966800 0.060000 0.215000
0.980000 0.060000 0.215000
0.980000 0.060000 0.215000
0.135200 0.111750 0.215000
0.194600 0.111750 0.215000
0.254000 0.111750 0.215000
0.313400 0.111750 0.215000
0.372800 0.111750 0.215000
0.432200 0.111750 0.215000
0.491600 0.111750 0.215000
0.551000 0.111750 0.215000
0.610400 0.111750 0.215000
0.669800 0.111750 0.215000
0.729200 0.111750 0.215000
0.788600 0.111750 0.215000
0.848000 0.111750 0.215000
0.907400 0.111750 0.215000
0.966800 0.111750 0.215000
0.980000 0.111750 0.215000
0.980000 0.111750 0.215000
0.135200 0.163500 0.215000
0.194600 0.163500 0.215000
0.254000 0.163500 0.215000
0.313400 0.163500 0.215000
0.372800 0.163500 0.215000
0.432200 0.163500 0.215000
0.491600 0.163500 0.215000
0.551000 0.163500 0.215000
0.610400 0.163500 0.215000
0.669800 0.163500 0.215000
0.729200 0.163500 0.215000
0.788600 0.163500 0.215000
0.848000 0.163500 0.215000
0.907400 0.163500 0.215000
0.966800 0.163500 0.215000
0.980000 0.163500 0.215000
0.980000 0.163500 0.215000
0.135200 0.215250 0.215000
0.194600 0.215250 0.215000
0.254000 0.215250 0.215000
0.313400 0.215250 0.215000
0.372800 0.215250 0.215000
0.432200 0.215250 0.215000
0.491600 0.215250 0.215000
0.551000 0.215250 0.215000
0.610400 0.215250 0.215000
0.669800 0.215250 0.215000
0.729200 0.215250 0.215000
0.788600 0.215250 0.215000
0.848000 0.215250 0.215000
0.907400 0.215250 0.215000
0.966800 0.215250 0.215000
0.980000 0.215250 0.215000
0.980000 0.215250 0.215000
0.135200 0.267000 0.215000
0.194600 0.267000 0.215000
0.254000 0.267000 0.215000
0.313400 0.267000 0.215000
0.372800 0.267000 0.215000
0.432200 0.267000 0.215000
0.491600 0.267000 0.215000
0.551000 0.267000 0.215000
0.610400 0.267000 0.215000
0.669800 0.267000 0.215000
0.729200 0.267000 0.215000
0.788600 0.267000 0.215000
0.848000 0.267000 0.215000
0.907400 0.267000 0.215000
0.966800 0.267000 0.215000
0.980000 0.267000 0.215000
0.980000 0.267000 0.215000
0.135200 0.318750 0.215000
0.194600 0.318750 0.215000
0.254000 0.318750 0.215000
0.313400 0.318750 0.215000
0.372800 0.318750 0.215000
0.432200 0.318750 0.215000
0.491600 0.318750 0.215000
0.551000 0.318750 0.215000
0.610400 0.318750 0.215000
0.669800 0.318750 0.215000
0.729200 0.318750 0.215000
0.788600 0.318750 0.215000
0.848000 0.318750 0.215000
0.907400 0.318750 0.215000
0.966800 0.318750 0.215000
0.980000 0.318750 0.215000
0.980000 0.318750 0.215000
0.135200 0.370500 0.215000
0.194600 0.370500 0.215000
0.254000 0.370500 0.215000
0.313400 0.370500 0.215000
0.372800 0.370500 0.215000
0.432200 0.370500 0.215000
0.491600 0.370500 0.215000
0.551000 0.370500 0.215000
0.610400 0.370500 0.215000
0.669800 0.370500 0.215000
0.729200 0.370500 0.215000
0.788600 0.370500 0.215000
0.848000 0.370500 0.215000
0.907400 0.370500 0.215000
0.966800 0.370500 0.215000
0.980000 0.370500 0.215000
0.980000 0.370500 0.215000
0.135200 0.422250 0.215000
0.194600 0.422250 0.215000
0.254000 0.422250 0.215000
0.313400 0.422250 0.215000
0.372800 0.422250 0.215000
0.432200 0.422250 0.215000
0.491600 0.422250 0.215000
0.551000 0.422250 0.215000
0.610400 0.422250 0.215000
0.669800 0.422250 0.215000
0.729200 0.422250 0.215000
0.788600 0.422250 0.215000
0.848000 0.422250 0.215000
0.907400 0.422250 0.215000
0.966800 0.422250 0.215000
0.980000 0.422250 0.215000
0.980000 0.422250 0.215000
0.135200 0.474000 0.215000
0.194600 0.474000 0.215000
0.254000 0.474000 0.215000
0.313400 0.474000 0.215000
0.372800 0.474000 0.215000
0.432200 0.474000 0.215000
0.491600 0.474000 0.215000
0.551000 0.474000 0.215000
0.610400 0.474000 0.215000
0.669800 0.474000 0.215000
0.729200 0.474000 0.215000
0.788600 0.474000 0.215000
0.848000 0.474000 0.215000
0.907400 0.474000 0.215000
0.966800 0.474000 0.215000
0.980000 0.474000 0.215000
0.980000 0.474000 0.215000
0.135200 0.525750 0.215000
0.194600 0.525750 0.215000
0.254000 0.525750 0.215000
0.313400 0.525750 0.215000
0.372800 0.525750 0.215000
0.432200 0.525750 0.215000
0.491600 0.525750 0.215000
0.551000 0.525750 0.215000
0.610400 0.525750 0.215000
0.669800 0.525750 0.215000
0.729200 0.525750 0.215000
0.788600 0.525750 0.215000
0.848000 0.525750 0.215000
0.907400 0.525750 0.215000
0.966800 0.525750 0.215000
0.980000 0.525750 0.215000
0.980000 0.525750 0.215000
0.135200 0.577500 0.215000
0.194600 0.577500 0.215000
0.254000 0.577500 0.215000
0.313400 0.577500 0.215000
0.372800 0.577500 0.215000
0.432200 0.577500 0.215000
0.491600 0.577500 0.215000
0.551000 0.577500 0.215000
0.610400 0.577500 0.215000
0.669800 0.577500 0.215000
0.729200 0.577500 0.215000
0.788600 0.577500 0.215000
0.848000 0.577500 0.215000
0.907400 0.577500 0.215000
0.966800 0.577500 0.215000
0.980000 0.577500 0.215000
0.980000 0.577500 0.215000
0.135200 0.629250 0.215000
0.194600 0.629250 0.215000
0.254000 0.629250 0.215000
0.313400 0.629250 0.215000
0.372800 0.629250 0.215000
0.432200 0.629250 0.215000
0.491600 0.629250 0.215000
0.551000 0.629250 0.215000
0.610400 0.629250 0.215000
0.669800 0.629250 0.215000
0.729200 0.629250 0.215000
0.788600 0.629250 0.215000
0.848000 0.629250 0.215000
0.907400 0.629250 0.215000
0.966800 0.629250 0.215000
0.980000 0.629250 0.215000
0.980000 0.629250 0.215000
0.135200 0.681000 0.215000
0.194600 0.681000 0.215000
0.254000 0.681000 0.215000
0.313400 0.681000 0.215000
0.372800 0.681000 0.215000
0.432200 0.681000 0.215000
0.491600 0.681000 0.215000
0.551000 0.681000 0.215000
0.610400 0.681000 0.215000
0.669800 0.681000 0.215000
0.729200 0.681000 0.215000
0.788600 0.681000 0.215000
0.848000 0.681000 0.215000
0.907400 0.681000 0.215000
0.966800 0.681000 0.215000
0.980000 0.681000 0.215000
0.980000 0.681000 0.215000
0.135200 0.732750 0.215000
0.194600 0.732750 0.215000
0.254000 0.732750 0.215000
0.313400 0.732750 0.215000
0.372800 0.732750 0.215000
0.432200 0.732750 0.215000
0.491600 0.732750 0.215000
0.551000 0.732750 0.215000
0.610400 0.732750 0.215000
0.669800 0.732750 0.215000
0.729200 0.732750 0.215000
0.788600 0.732750 0.215000
0.848000 0.732750 0.215000
0.907400 0.732750 0.215000
0.966800 0.732750 0.215000
0.980000 0.732750 0.215000
0.980000 0.732750 0.215000
0.135200 0.784500 0.215000
0.194600 0.784500 0.215000
0.254000 0.784500 0.215000
0.313400 0.784500 0.215000
0.372800 0.784500 0.215000
0.432200 0.784500 0.215000
0.491600 0.784500 0.215000
0.551000 0.784500 0.215000
0.610400 0.784500 0.215000
0.669800 0.784500 0.215000
0.729200 0.784500 0.215000
0.788600 0.784500 0.215000
0.848000 0.784500 0.215000
0.907400 0.784500 0.215000
0.966800 0.784500 0.215000
0.980000 0.784500 0.215000
0.980000 0.784500 0.215000
0.135200 0.836250 0.215000
0.194600 0.836250 0.215000
0.254000 0.836250 0.215000
0.313400 0.836250 0.215000
0.372800 0.836250 0.215000
0.432200 0.836250 0.215000
0.491600 0.836250 0.215000
0.551000 0.836250 0.215000
0.610400 0.836250 0.215000
0.669800 0.836250 0.215000
0.729200 0.836250 0.215000
0.788600 0.836250 0.215000
0.848000 0.836250 0.215000
0.907400 0.836250 0.215000
0.966800 0.836250 0.215000
0.980000 0.836250 0.215000
0.980000 0.836250 0.215000
0.135200 0.888000 0.215000
0.194600 0.888000 0.215000
0.254000 0.888000 0.215000
0.313400 0.888000 0.215000
0.372800 0.888000 0.215000
0.432200 0.888000 0.215000
0.491600 0.888000 0.215000
0.551000 0.888000 0.215000
0.610400 0.888000 0.215000
0.669800 0.888000 0.215000
0.729200 0.888000 0.215000
0.788600 0.888000 0.215000
0.848000 0.888000 0.215000
0.907400 0.888000 0.215000
0.966800 0.888000 0.215000
0.980000 0.888000 0.215000
0.980000 0.888000 0.215000
0.135200 0.060000 0.273500
0.194600 0.060000 0.273500
0.254000 0.060000 0.273500
0.313400 0.060000 0.273500
0.372800 0.060000 0.273500
0.432200 0.060000 0.273500
0.491600 0.060000 0.273500
0.551000 0.060000 0.273500
0.610400 0.060000 0.273500
0.669800 0.060000 0.273500
0.729200 0.060000 0.273500
0.788600 0.060000 0.273500
0.848000 0.060000 0.273500
0.907400 0.060000 0.273500
0.966800 0.060000 0.273500
0.980000 0.060000 0.273500
0.980000 0.060000 0.273500
0.135200 0.111750 0.273500
0.194600 0.111750 0.273500
0.254000 0.111750 0.273500
