assets/luts/tropical.cube
TITLE "Tropical"
LUT_3D_SIZE 17
0.000000 0.053151 0.000000
0.065625 0.053151 0.000000
0.131250 0.053151 0.000000
0.196875 0.053151 0.000000
0.262500 0.053151 0.000000
0.328125 0.053151 0.000000
0.393750 0.053151 0.000000
0.459375 0.053151 0.000000
0.525000 0.053151 0.000000
0.590625 0.053151 0.000000
0.656250 0.053151 0.000000
0.721875 0.053151 0.000000
0.787500 0.053151 0.000000
0.853125 0.053151 0.000000
0.918750 0.053151 0.000000
0.984375 0.053151 0.000000
1.000000 0.053151 0.000000
0.000000 0.078710 0.000000
0.065625 0.078710 0.000000
0.131250 0.078710 0.000000
0.196875 0.078710 0.000000
0.262500 0.078710 0.000000
0.328125 0.078710 0.000000
0.393750 0.078710 0.000000
0.459375 0.078710 0.000000
0.525000 0.078710 0.000000
0.590625 0.078710 0.000000
0.656250 0.078710 0.000000
0.721875 0.078710 0.000000
0.787500 0.078710 0.000000
0.853125 0.078710 0.000000
0.918750 0.078710 0.000000
0.984375 0.078710 0.000000
1.000000 0.078710 0.000000
0.000000 0.115067 0.000000
0.065625 0.115067 0.000000
0.131250 0.115067 0.000000
0.196875 0.115067 0.000000
0.262500 0.115067 0.000000
0.328125 0.115067 0.000000
0.393750 0.115067 0.000000
0.459375 0.115067 0.000000
0.525000 0.115067 0.000000
0.590625 0.115067 0.000000
0.656250 0.115067 0.000000
0.721875 0.115067 0.000000
0.787500 0.115067 0.000000
0.853125 0.115067 0.000000
0.918750 0.115067 0.000000
0.984375 0.115067 0.000000
1.000000 0.115067 0.000000
0.000000 0.165205 0.000000
0.065625 0.165205 0.000000
0.131250 0.165205 0.000000
0.196875 0.165205 0.000000
0.262500 0.165205 0.000000
0.328125 0.165205 0.000000
0.393750 0.165205 0.000000
0.459375 0.165205 0.000000
0.525000 0.165205 0.000000
0.590625 0.165205 0.000000
0.656250 0.165205 0.000000
0.721875 0.165205 0.000000
0.787500 0.165205 0.000000
0.853125 0.165205 0.000000
0.918750 0.165205 0.000000
0.984375 0.165205 0.000000
1.000000 0.165205 0.000000
0.000000 0.231475 0.000000
0.065625 0.231475 0.000000
0.131250 0.231475 0.000000
0.196875 0.231475 0.000000
0.262500 0.231475 0.000000
0.328125 0.231475 0.000000
0.393750 0.231475 0.000000
0.459375 0.231475 0.000000
0.525000 0.231475 0.000000
0.590625 0.231475 0.000000
0.656250 0.231475 0.000000
0.721875 0.231475 0.000000
0.787500 0.231475 0.000000
0.853125 0.231475 0.000000
0.918750 0.231475 0.000000
0.984375 0.231475 0.000000
1.000000 0.231475 0.000000
0.000000 0.314320 0.000000
0.065625 0.314320 0.000000
0.131250 0.314320 0.000000
0.196875 0.314320 0.000000
0.262500 0.314320 0.000000
0.328125 0.314320 0.000000
0.393750 0.314320 0.000000
0.459375 0.314320 0.000000
0.525000 0.314320 0.000000
0.590625 0.314320 0.000000
0.656250 0.314320 0.000000
0.721875 0.314320 0.000000
0.787500 0.314320 0.000000
0.853125 0.314320 0.000000
0.918750 0.314320 0.000000
0.984375 0.314320 0.000000
1.000000 0.314320 0.000000
0.000000 0.410960 0.000000
0.065625 0.410960 0.000000
0.131250 0.410960 0.000000
0.196875 0.410960 0.000000
0.262500 0.410960 0.000000
0.328125 0.410960 0.000000
0.393750 0.410960 0.000000
0.459375 0.410960 0.000000
0.525000 0.410960 0.000000
0.590625 0.410960 0.000000
0.656250 0.410960 0.000000
0.721875 0.410960 0.000000
0.787500 0.410960 0.000000
0.853125 0.410960 0.000000
0.918750 0.410960 0.000000
0.984375 0.410960 0.000000
1.000000 0.410960 0.000000
0.000000 0.514996 0.000000
0.065625 0.514996 0.000000
0.131250 0.514996 0.000000
0.196875 0.514996 0.000000
0.262500 0.514996 0.000000
0.328125 0.514996 0.000000
0.393750 0.514996 0.000000
0.459375 0.514996 0.000000
0.525000 0.514996 0.000000
0.590625 0.514996 0.000000
0.656250 0.514996 0.000000
0.721875 0.514996 0.000000
0.787500 0.514996 0.000000
0.853125 0.514996 0.000000
0.918750 0.514996 0.000000
0.984375 0.514996 0.000000
1.000000 0.514996 0.000000
0.000000 0.617748 0.000000
0.065625 0.617748 0.000000
0.131250 0.617748 0.000000
0.196875 0.617748 0.000000
0.262500 0.617748 0.000000
0.328125 0.617748 0.000000
0.393750 0.617748 0.000000
0.459375 0.617748 0.000000
0.525000 0.617748 0.000000
0.590625 0.617748 0.000000
0.656250 0.617748 0.000000
0.721875 0.617748 0.000000
0.787500 0.617748 0.000000
0.853125 0.617748 0.000000
0.918750 0.617748 0.000000
0.984375 0.617748 0.000000
1.000000 0.617748 0.000000
0.000000 0.710950 0.000000
0.065625 0.710950 0.000000
0.131250 0.710950 0.000000
0.196875 0.710950 0.000000
0.262500 0.710950 0.000000
0.328125 0.710950 0.000000
0.393750 0.710950 0.000000
0.459375 0.710950 0.000000
0.525000 0.710950 0.000000
0.590625 0.710950 0.000000
0.656250 0.710950 0.000000
0.721875 0.710950 0.000000
0.787500 0.710950 0.000000
0.853125 0.710950 0.000000
0.918750 0.710950 0.000000
0.984375 0.710950 0.000000
1.000000 0.710950 0.000000
0.000000 0.789182 0.000000
0.065625 0.789182 0.000000
0.131250 0.789182 0.000000
0.196875 0.789182 0.000000
0.262500 0.789182 0.000000
0.328125 0.789182 0.000000
0.393750 0.789182 0.000000
0.459375 0.789182 0.000000
0.525000 0.789182 0.000000
0.590625 0.789182 0.000000
0.656250 0.789182 0.000000
0.721875 0.789182 0.000000
0.787500 0.789182 0.000000
0.853125 0.789182 0.000000
0.918750 0.789182 0.000000
0.984375 0.789182 0.000000
1.000000 0.789182 0.000000
0.000000 0.850687 0.000000
0.065625 0.850687 0.000000
0.131250 0.850687 0.000000
0.196875 0.850687 0.000000
0.262500 0.850687 0.000000
0.328125 0.850687 0.000000
0.393750 0.850687 0.000000
0.459375 0.850687 0.000000
0.525000 0.850687 0.000000
0.590625 0.850687 0.000000
0.656250 0.850687 0.000000
0.721875 0.850687 0.000000
0.787500 0.850687 0.000000
0.853125 0.850687 0.000000
0.918750 0.850687 0.000000
0.984375 0.850687 0.000000
1.000000 0.850687 0.000000
0.000000 0.896600 0.000000
0.065625 0.896600 0.000000
0.131250 0.896600 0.000000
0.196875 0.896600 0.000000
0.262500 0.896600 0.000000
0.328125 0.896600 0.000000
0.393750 0.896600 0.000000
0.459375 0.896600 0.000000
0.525000 0.896600 0.000000
0.590625 0.896600 0.000000
0.656250 0.896600 0.000000
0.721875 0.896600 0.000000
0.787500 0.896600 0.000000
0.853125 0.896600 0.000000
0.918750 0.896600 0.000000
0.984375 0.896600 0.000000
1.000000 0.896600 0.000000
0.000000 0.929563 0.000000
0.065625 0.929563 0.000000
0.131250 0.929563 0.000000
0.196875 0.929563 0.000000
0.262500 0.929563 0.000000
0.328125 0.929563 0.000000
0.393750 0.929563 0.000000
0.459375 0.929563 0.000000
0.525000 0.929563 0.000000
0.590625 0.929563 0.000000
0.656250 0.929563 0.000000
0.721875 0.929563 0.000000
0.787500 0.929563 0.000000
0.853125 0.929563 0.000000
0.918750 0.929563 0.000000
0.984375 0.929563 0.000000
1.000000 0.929563 0.000000
0.000000 0.952574 0.000000
0.065625 0.952574 0.000000
0.131250 0.952574 0.000000
0.196875 0.952574 0.000000
0.262500 0.952574 0.000000
0.328125 0.952574 0.000000
0.393750 0.952574 0.000000
0.459375 0.952574 0.000000
0.525000 0.952574 0.000000
0.590625 0.952574 0.000000
0.656250 0.952574 0.000000
0.721875 0.952574 0.000000
0.787500 0.952574 0.000000
0.853125 0.952574 0.000000
0.918750 0.952574 0.000000
0.984375 0.952574 0.000000
1.000000 0.952574 0.000000
0.000000 0.952574 0.000000
0.065625 0.952574 0.000000
0.131250 0.952574 0.000000
0.196875 0.952574 0.000000
0.262500 0.952574 0.000000
0.328125 0.952574 0.000000
0.393750 0.952574 0.000000
0.459375 0.952574 0.000000
0.525000 0.952574 0.000000
0.590625 0.952574 0.000000
0.656250 0.952574 0.000000
0.721875 0.952574 0.000000
0.787500 0.952574 0.000000
0.853125 0.952574 0.000000
0.918750 0.952574 0.000000
0.984375 0.952574 0.000000
1.000000 0.952574 0.000000
0.000000 0.952574 0.000000
0.065625 0.952574 0.000000
0.131250 0.952574 0.000000
0.196875 0.952574 0.000000
0.262500 0.952574 0.000000
0.328125 0.952574 0.000000
0.393750 0.952574 0.000000
0.459375 0.952574 0.000000
0.525000 0.952574 0.000000
0.590625 0.952574 0.000000
0.656250 0.952574 0.000000
0.721875 0.952574 0.000000
0.787500 0.952574 0.000000
0.853125 0.952574 0.000000
0.918750 0.952574 0.000000
0.984375 0.952574 0.000000
1.000000 0.952574 0.000000
0.000000 0.053151 0.055000
0.065625 0.053151 0.055000
0.131250 0.053151 0.055000
0.196875 0.053151 0.055000
0.262500 0.053151 0.055000
0.328125 0.053151 0.055000
0.393750 0.053151 0.055000
0.459375 0.053151 0.055000
0.525000 0.053151 0.055000
0.590625 0.053151 0.055000
0.656250 0.053151 0.055000
0.721875 0.053151 0.055000
0.787500 0.053151 0.055000
0.853125 0.053151 0.055000
0.918750 0.053151 0.055000
0.984375 0.053151 0.055000
1.000000 0.053151 0.055000
0.000000 0.078710 0.055000
0.065625 0.078710 0.055000
0.131250 0.078710 0.055000
0.196875 0.078710 0.055000
0.262500 0.078710 0.055000
0.328125 0.078710 0.055000
0.393750 0.078710 0.055000
0.459375 0.078710 0.055000
0.525000 0.078710 0.055000
0.590625 0.078710 0.055000
0.656250 0.078710 0.055000
0.721875 0.078710 0.055000
0.787500 0.078710 0.055000
0.853125 0.078710 0.055000
0.918750 0.078710 0.055000
0.984375 0.078710 0.055000
1.000000 0.078710 0.055000
0.000000 0.115067 0.055000
0.065625 0.115067 0.055000
0.131250 0.115067 0.055000
0.196875 0.115067 0.055000
0.262500 0.115067 0.055000
0.328125 0.115067 0.055000
0.393750 0.115067 0.055000
0.459375 0.115067 0.055000
0.525000 0.115067 0.055000
0.590625 0.115067 0.055000
0.656250 0.115067 0.055000
0.721875 0.115067 0.055000
0.787500 0.115067 0.055000
0.853125 0.115067 0.055000
0.918750 0.115067 0.055000
0.984375 0.115067 0.055000
1.000000 0.115067 0.055000
0.000000 0.165205 0.055000
0.065625 0.165205 0.055000
0.131250 0.165205 0.055000
0.196875 0.165205 0.055000
0.262500 0.165205 0.055000
0.328125 0.165205 0.055000
0.393750 0.165205 0.055000
0.459375 0.165205 0.055000
0.525000 0.165205 0.055000
0.590625 0.165205 0.055000
0.656250 0.165205 0.055000
0.721875 0.165205 0.055000
0.787500 0.165205 0.055000
0.853125 0.165205 0.055000
0.918750 0.165205 0.055000
0.984375 0.165205 0.055000
1.000000 0.165205 0.055000
0.000000 0.231475 0.055000
0.065625 0.231475 0.055000
0.131250 0.231475 0.055000
0.196875 0.231475 0.055000
0.262500 0.231475 0.055000
0.328125 0.231475 0.055000
0.393750 0.231475 0.055000
0.459375 0.231475 0.055000
0.525000 0.231475 0.055000
0.590625 0.231475 0.055000
0.656250 0.231475 0.055000
0.721875 0.231475 0.055000
0.787500 0.231475 0.055000
0.853125 0.231475 0.055000
0.918750 0.231475 0.055000
0.984375 0.231475 0.055000
1.000000 0.231475 0.055000
0.000000 0.314320 0.055000
0.065625 0.314320 0.055000
0.131250 0.314320 0.055000
0.196875 0.314320 0.055000
0.262500 0.314320 0.055000
0.328125 0.314320 0.055000
0.393750 0.314320 0.055000
0.459375 0.314320 0.055000
0.525000 0.314320 0.055000
0.590625 0.314320 0.055000
0.656250 0.314320 0.055000
0.721875 0.314320 0.055000
0.787500 0.314320 0.055000
0.853125 0.314320 0.055000
0.918750 0.314320 0.055000
0.984375 0.314320 0.055000
1.000000 0.314320 0.055000
0.000000 0.410960 0.055000
0.065625 0.410960 0.055000
0.131250 0.410960 0.055000
0.196875 0.410960 0.055000
0.262500 0.410960 0.055000
0.328125 0.410960 0.055000
0.393750 0.410960 0.055000
0.459375 0.410960 0.055000
0.525000 0.410960 0.055000
0.590625 0.410960 0.055000
0.656250 0.410960 0.055000
0.721875 0.410960 0.055000
0.787500 0.410960 0.055000
0.853125 0.410960 0.055000
0.918750 0.410960 0.055000
0.984375 0.410960 0.055000
1.000000 0.410960 0.055000
0.000000 0.514996 0.055000
0.065625 0.514996 0.055000
0.131250 0.514996 0.055000
0.196875 0.514996 0.055000
0.262500 0.514996 0.055000
0.328125 0.514996 0.055000
0.393750 0.514996 0.055000
0.459375 0.514996 0.055000
0.525000 0.514996 0.055000
0.590625 0.514996 0.055000
0.656250 0.514996 0.055000
0.721875 0.514996 0.055000
0.787500 0.514996 0.055000
0.853125 0.514996 0.055000
0.918750 0.514996 0.055000
0.984375 0.514996 0.055000
1.000000 0.514996 0.055000
0.000000 0.617748 0.055000
0.065625 0.617748 0.055000
0.131250 0.617748 0.055000
0.196875 0.617748 0.055000
0.262500 0.617748 0.055000
0.328125 0.617748 0.055000
0.393750 0.617748 0.055000
0.459375 0.617748 0.055000
0.525000 0.617748 0.055000
0.590625 0.617748 0.055000
0.656250 0.617748 0.055000
0.721875 0.617748 0.055000
0.787500 0.617748 0.055000
0.853125 0.617748 0.055000
0.918750 0.617748 0.055000
0.984375 0.617748 0.055000
1.000000 0.617748 0.055000
0.000000 0.710950 0.055000
0.065625 0.710950 0.055000
0.131250 0.710950 0.055000
0.196875 0.710950 0.055000
0.262500 0.710950 0.055000
0.328125 0.710950 0.055000
0.393750 0.710950 0.055000
0.459375 0.710950 0.055000
0.525000 0.710950 0.055000
0.590625 0.710950 0.055000
0.656250 0.710950 0.055000
0.721875 0.710950 0.055000
0.787500 0.710950 0.055000
0.853125 0.710950 0.055000
0.918750 0.710950 0.055000
0.984375 0.710950 0.055000
1.000000 0.710950 0.055000
0.000000 0.789182 0.055000
0.065625 0.789182 0.055000
0.131250 0.789182 0.055000
0.196875 0.789182 0.055000
0.262500 0.789182 0.055000
0.328125 0.789182 0.055000
0.393750 0.789182 0.055000
0.459375 0.789182 0.055000
0.525000 0.789182 0.055000
0.590625 0.789182 0.055000
0.656250 0.789182 0.055000
0.721875 0.789182 0.055000
0.787500 0.789182 0.055000
0.853125 0.789182 0.055000
0.918750 0.789182 0.055000
0.984375 0.789182 0.055000
1.000000 0.789182 0.055000
0.000000 0.850687 0.055000
0.065625 0.850687 0.055000
0.131250 0.850687 0.055000
0.196875 0.850687 0.055000
0.262500 0.850687 0.055000
0.328125 0.850687 0.055000
0.393750 0.850687 0.055000
0.459375 0.850687 0.055000
0.525000 0.850687 0.055000
0.590625 0.850687 0.055000
0.656250 0.850687 0.055000
0.721875 0.850687 0.055000
0.787500 0.850687 0.055000
0.853125 0.850687 0.055000
0.918750 0.850687 0.055000
0.984375 0.850687 0.055000
1.000000 0.850687 0.055000
0.000000 0.896600 0.055000
0.065625 0.896600 0.055000
0.131250 0.896600 0.055000
0.196875 0.896600 0.055000
0.262500 0.896600 0.055000
0.328125 0.896600 0.055000
0.393750 0.896600 0.055000
0.459375 0.896600 0.055000
0.525000 0.896600 0.055000
0.590625 0.896600 0.055000
0.656250 0.896600 0.055000
0.721875 0.896600 0.055000
0.787500 0.896600 0.055000
0.853125 0.896600 0.055000
0.918750 0.896600 0.055000
0.984375 0.896600 0.055000
1.000000 0.896600 0.055000
0.000000 0.929563 0.055000
0.065625 0.929563 0.055000
0.131250 0.929563 0.055000
0.196875 0.929563 0.055000
0.262500 0.929563 0.055000
0.328125 0.929563 0.055000
0.393750 0.929563 0.055000
0.459375 0.929563 0.055000
0.525000 0.929563 0.055000
0.590625 0.929563 0.055000
0.656250 0.929563 0.055000
0.721875 0.929563 0.055000
0.787500 0.929563 0.055000
0.853125 0.929563 0.055000
0.918750 0.929563 0.055000
0.984375 0.929563 0.055000
1.000000 0.929563 0.055000
0.000000 0.952574 0.055000
0.065625 0.952574 0.055000
0.131250 0.952574 0.055000
0.196875 0.952574 0.055000
0.262500 0.952574 0.055000
0.328125 0.952574 0.055000
0.393750 0.952574 0.055000
0.459375 0.952574 0.055000
0.525000 0.952574 0.055000
0.590625 0.952574 0.055000
0.656250 0.952574 0.055000
0.721875 0.952574 0.055000
0.787500 0.952574 0.055000
0.853125 0.952574 0.055000
0.918750 0.952574 0.055000
0.984375 0.952574 0.055000
1.000000 0.952574 0.055000
0.000000 0.952574 0.055000
0.065625 0.952574 0.055000
0.131250 0.952574 0.055000
0.196875 0.952574 0.055000
0.262500 0.952574 0.055000
0.328125 0.952574 0.055000
0.393750 0.952574 0.055000
0.459375 0.952574 0.055000
0.525000 0.952574 0.055000
0.590625 0.952574 0.055000
0.656250 0.952574 0.055000
0.721875 0.952574 0.055000
0.787500 0.952574 0.055000
0.853125 0.952574 0.055000
0.918750 0.952574 0.055000
0.984375 0.952574 0.055000
1.000000 0.952574 0.055000
0.000000 0.952574 0.055000
0.065625 0.952574 0.055000
0.131250 0.952574 0.055000
0.196875 0.952574 0.055000
0.262500 0.952574 0.055000
0.328125 0.952574 0.055000
0.393750 0.952574 0.055000
0.459375 0.952574 0.055000
0.525000 0.952574 0.055000
0.590625 0.952574 0.055000
0.656250 0.952574 0.055000
0.721875 0.952574 0.055000
0.787500 0.952574 0.055000
0.853125 0.952574 0.055000
0.918750 0.952574 0.055000
0.984375 0.952574 0.055000
1.000000 0.952574 0.055000
0.000000 0.053151 0.110000
0.065625 0.053151 0.110000
0.131250 0.053151 0.110000
0.196875 0.053151 0.110000
0.262500 0.053151 0.110000
0.328125 0.053151 0.110000
0.393750 0.053151 0.110000
0.459375 0.053151 0.110000
0.525000 0.053151 0.110000
0.590625 0.053151 0.110000
0.656250 0.053151 0.110000
0.721875 0.053151 0.110000
0.787500 0.053151 0.110000
0.853125 0.053151 0.110000
0.918750 0.053151 0.110000
0.984375 0.053151 0.110000
1.000000 0.053151 0.110000
0.000000 0.078710 0.110000
0.065625 0.078710 0.110000
0.131250 0.078710 0.110000
0.196875 0.078710 0.110000
0.262500 0.078710 0.110000
0.328125 0.078710 0.110000
0.393750 0.078710 0.110000
0.459375 0.078710 0.110000
0.525000 0.078710 0.110000
0.590625 0.078710 0.110000
0.656250 0.078710 0.110000
0.721875 0.078710 0.110000
0.787500 0.078710 0.110000
0.853125 0.078710 0.110000
0.918750 0.078710 0.110000
0.984375 0.078710 0.110000
1.000000 0.078710 0.110000
0.000000 0.115067 0.110000
0.065625 0.115067 0.110000
0.131250 0.115067 0.110000
0.196875 0.115067 0.110000
0.262500 0.115067 0.110000
0.328125 0.115067 0.110000
0.393750 0.115067 0.110000
0.459375 0.115067 0.110000
0.525000 0.115067 0.110000
0.590625 0.115067 0.110000
0.656250 0.115067 0.110000
0.721875 0.115067 0.110000
0.787500 0.115067 0.110000
0.853125 0.115067 0.110000
0.918750 0.115067 0.110000
0.984375 0.115067 0.110000
1.000000 0.115067 0.110000
0.000000 0.165205 0.110000
0.065625 0.165205 0.110000
0.131250 0.165205 0.110000
0.196875 0.165205 0.110000
0.262500 0.165205 0.110000
0.328125 0.165205 0.110000
0.393750 0.165205 0.110000
0.459375 0.165205 0.110000
0.525000 0.165205 0.110000
0.590625 0.165205 0.110000
0.656250 0.165205 0.110000
0.721875 0.165205 0.110000
0.787500 0.165205 0.110000
0.853125 0.165205 0.110000
0.918750 0.165205 0.110000
0.984375 0.165205 0.110000
1.000000 0.165205 0.110000
0.000000 0.231475 0.110000
0.065625 0.231475 0.110000
0.131250 0.231475 0.110000
0.196875 0.231475 0.110000
0.262500 0.231475 0.110000
0.328125 0.231475 0.110000
0.393750 0.231475 0.110000
0.459375 0.231475 0.110000
0.525000 0.231475 0.110000
0.590625 0.231475 0.110000
0.656250 0.231475 0.110000
0.721875 0.231475 0.110000
0.787500 0.231475 0.110000
0.853125 0.231475 0.110000
0.918750 0.231475 0.110000
0.984375 0.231475 0.110000
1.000000 0.231475 0.110000
0.000000 0.314320 0.110000
0.065625 0.314320 0.110000
0.131250 0.314320 0.110000
0.196875 0.314320 0.110000
0.262500 0.314320 0.110000
0.328125 0.314320 0.110000
0.393750 0.314320 0.110000
0.459375 0.314320 0.110000
0.525000 0.314320 0.110000
0.590625 0.314320 0.110000
0.656250 0.314320 0.110000
0.721875 0.314320 0.110000
0.787500 0.314320 0.110000
0.853125 0.314320 0.110000
0.918750 0.314320 0.110000
0.984375 0.314320 0.110000
1.000000 0.314320 0.110000
0.000000 0.410960 0.110000
0.065625 0.410960 0.110000
0.131250 0.410960 0.110000
0.196875 0.410960 0.110000
0.262500 0.410960 0.110000
0.328125 0.410960 0.110000
0.393750 0.410960 0.110000
0.459375 0.410960 0.110000
0.525000 0.410960 0.110000
0.590625 0.410960 0.110000
0.656250 0.410960 0.110000
0.721875 0.410960 0.110000
0.787500 0.410960 0.110000
0.853125 0.410960 0.110000
0.918750 0.410960 0.110000
0.984375 0.410960 0.110000
1.000000 0.410960 0.110000
0.000000 0.514996 0.110000
0.065625 0.514996 0.110000
0.131250 0.514996 0.110000
0.196875 0.514996 0.110000
0.262500 0.514996 0.110000
0.328125 0.514996 0.110000
0.393750 0.514996 0.110000
0.459375 0.514996 0.110000
0.525000 0.514996 0.110000
0.590625 0.514996 0.110000
0.656250 0.514996 0.110000
0.721875 0.514996 0.110000
0.787500 0.514996 0.110000
0.853125 0.514996 0.110000
0.918750 0.514996 0.110000
0.984375 0.514996 0.110000
1.000000 0.514996 0.110000
0.000000 0.617748 0.110000
0.065625 0.617748 0.110000
0.131250 0.617748 0.110000
0.196875 0.617748 0.110000
0.262500 0.617748 0.110000
0.328125 0.617748 0.110000
0.393750 0.617748 0.110000
0.459375 0.617748 0.110000
0.525000 0.617748 0.110000
0.590625 0.617748 0.110000
0.656250 0.617748 0.110000
0.721875 0.617748 0.110000
0.787500 0.617748 0.110000
0.853125 0.617748 0.110000
0.918750 0.617748 0.110000
0.984375 0.617748 0.110000
1.000000 0.617748 0.110000
0.000000 0.710950 0.110000
0.065625 0.710950 0.110000
0.131250 0.710950 0.110000
0.196875 0.710950 0.110000
0.262500 0.710950 0.110000
0.328125 0.710950 0.110000
0.393750 0.710950 0.110000
0.459375 0.710950 0.110000
0.525000 0.710950 0.110000
0.590625 0.710950 0.110000
0.656250 0.710950 0.110000
0.721875 0.710950 0.110000
0.787500 0.710950 0.110000
0.853125 0.710950 0.110000
0.918750 0.710950 0.110000
0.984375 0.710950 0.110000
1.000000 0.710950 0.110000
0.000000 0.789182 0.110000
0.065625 0.789182 0.110000
0.131250 0.789182 0.110000
0.196875 0.789182 0.110000
0.262500 0.789182 0.110000
0.328125 0.789182 0.110000
0.393750 0.789182 0.110000
0.459375 0.789182 0.110000
0.525000 0.789182 0.110000
0.590625 0.789182 0.110000
0.656250 0.789182 0.110000
0.721875 0.789182 0.110000
0.787500 0.789182 0.110000
0.853125 0.789182 0.110000
0.918750 0.789182 0.110000
0.984375 0.789182 0.110000
1.000000 0.789182 0.110000
0.000000 0.850687 0.110000
0.065625 0.850687 0.110000
0.131250 0.850687 0.110000
0.196875 0.850687 0.110000
0.262500 0.850687 0.110000
0.328125 0.850687 0.110000
0.393750 0.850687 0.110000
0.459375 0.850687 0.110000
0.525000 0.850687 0.110000
0.590625 0.850687 0.110000
0.656250 0.850687 0.110000
0.721875 0.850687 0.110000
0.787500 0.850687 0.110000
0.853125 0.850687 0.110000
0.918750 0.850687 0.110000
0.984375 0.850687 0.110000
1.000000 0.850687 0.110000
0.000000 0.896600 0.110000
0.065625 0.896600 0.110000
0.131250 0.896600 0.110000
0.196875 0.896600 0.110000
0.262500 0.896600 0.110000
0.328125 0.896600 0.110000
0.393750 0.896600 0.110000
0.459375 0.896600 0.110000
0.525000 0.896600 0.110000
0.590625 0.896600 0.110000
0.656250 0.896600 0.110000
0.721875 0.896600 0.110000
0.787500 0.896600 0.110000
0.853125 0.896600 0.110000
0.918750 0.896600 0.110000
0.984375 0.896600 0.110000
1.000000 0.896600 0.110000
0.000000 0.929563 0.110000
0.065625 0.929563 0.110000
0.131250 0.929563 0.110000
0.196875 0.929563 0.110000
0.262500 0.929563 0.110000
0.328125 0.929563 0.110000
0.393750 0.929563 0.110000
0.459375 0.929563 0.110000
0.525000 0.929563 0.110000
0.590625 0.929563 0.110000
0.656250 0.929563 0.110000
0.721875 0.929563 0.110000
0.787500 0.929563 0.110000
0.853125 0.929563 0.110000
0.918750 0.929563 0.110000
0.984375 0.929563 0.110000
1.000000 0.929563 0.110000
0.000000 0.952574 0.110000
0.065625 0.952574 0.110000
0.131250 0.952574 0.110000
0.196875 0.952574 0.110000
0.262500 0.952574 0.110000
0.328125 0.952574 0.110000
0.393750 0.952574 0.110000
0.459375 0.952574 0.110000
0.525000 0.952574 0.110000
0.590625 0.952574 0.110000
0.656250 0.952574 0.110000
0.721875 0.952574 0.110000
0.787500 0.952574 0.110000
0.853125 0.952574 0.110000
0.918750 0.952574 0.110000
0.984375 0.952574 0.110000
1.000000 0.952574 0.110000
0.000000 0.952574 0.110000
0.065625 0.952574 0.110000
0.131250 0.952574 0.110000
0.196875 0.952574 0.110000
0.262500 0.952574 0.110000
0.328125 0.952574 0.110000
0.393750 0.952574 0.110000
0.459375 0.952574 0.110000
0.525000 0.952574 0.110000
0.590625 0.952574 0.110000
0.656250 0.952574 0.110000
0.721875 0.952574 0.110000
0.787500 0.952574 0.110000
0.853125 0.952574 0.110000
0.918750 0.952574 0.110000
0.984375 0.952574 0.110000
1.000000 0.952574 0.110000
0.000000 0.952574 0.110000
0.065625 0.952574 0.110000
0.131250 0.952574 0.110000
0.196875 0.952574 0.110000
0.262500 0.952574 0.110000
0.328125 0.952574 0.110000
0.393750 0.952574 0.110000
0.459375 0.952574 0.110000
0.525000 0.952574 0.110000
0.590625 0.952574 0.110000
0.656250 0.952574 0.110000
0.721875 0.952574 0.110000
0.787500 0.952574 0.110000
0.853125 0.952574 0.110000
0.918750 0.952574 0.110000
0.984375 0.952574 0.110000
1.000000 0.952574 0.110000
0.000000 0.053151 0.165000
0.065625 0.053151 0.165000
0.131250 0.053151 0.165000
0.196875 0.053151 0.165000
0.262500 0.053151 0.165000
0.328125 0.053151 0.165000
0.393750 0.053151 0.165000
0.459375 0.053151 0.165000
0.525000 0.053151 0.165000
0.590625 0.053151 0.165000
0.656250 0.053151 0.165000
0.721875 0.053151 0.165000
0.787500 0.053151 0.165000
0.853125 0.053151 0.165000
0.918750 0.053151 0.165000
0.984375 0.053151 0.165000
1.000000 0.053151 0.165000
0.000000 0.078710 0.165000
0.065625 0.078710 0.165000
0.131250 0.078710 0.165000
