assets/luts/tropical.cube
TITLE "Tropical"
LUT_3D_SIZE 9
0.000000 0.053151 0.000000
0.131250 0.053151 0.000000
0.262500 0.053151 0.000000
0.393750 0.053151 0.000000
0.525000 0.053151 0.000000
0.656250 0.053151 0.000000
0.787500 0.053151 0.000000
0.918750 0.053151 0.000000
1.000000 0.053151 0.000000
0.000000 0.115067 0.000000
0.131250 0.115067 0.000000
0.262500 0.115067 0.000000
0.393750 0.115067 0.000000
0.525000 0.115067 0.000000
0.656250 0.115067 0.000000
0.787500 0.115067 0.000000
0.918750 0.115067 0.000000
1.000000 0.115067 0.000000
0.000000 0.231475 0.000000
0.131250 0.231475 0.000000
0.262500 0.231475 0.000000
0.393750 0.231475 0.000000
0.525000 0.231475 0.000000
0.656250 0.231475 0.000000
0.787500 0.231475 0.000000
0.918750 0.231475 0.000000
1.000000 0.231475 0.000000
0.000000 0.410960 0.000000
0.131250 0.410960 0.000000
0.262500 0.410960 0.000000
0.393750 0.410960 0.000000
0.525000 0.410960 0.000000
0.656250 0.410960 0.000000
0.787500 0.410960 0.000000
0.918750 0.410960 0.000000
1.000000 0.410960 0.000000
0.000000 0.617748 0.000000
0.131250 0.617748 0.000000
0.262500 0.617748 0.000000
0.393750 0.617748 0.000000
0.525000 0.617748 0.000000
0.656250 0.617748 0.000000
0.787500 0.617748 0.000000
0.918750 0.617748 0.000000
1.000000 0.617748 0.000000
0.000000 0.789182 0.000000
0.131250 0.789182 0.000000
0.262500 0.789182 0.000000
0.393750 0.789182 0.000000
0.525000 0.789182 0.000000
0.656250 0.789182 0.000000
0.787500 0.789182 0.000000
0.918750 0.789182 0.000000
1.000000 0.789182 0.000000
0.000000 0.896600 0.000000
0.131250 0.896600 0.000000
0.262500 0.896600 0.000000
0.393750 0.896600 0.000000
0.525000 0.896600 0.000000
0.656250 0.896600 0.000000
0.787500 0.896600 0.000000
0.918750 0.896600 0.000000
1.000000 0.896600 0.000000
0.000000 0.952574 0.000000
0.131250 0.952574 0.000000
0.262500 0.952574 0.000000
0.393750 0.952574 0.000000
0.525000 0.952574 0.000000
0.656250 0.952574 0.000000
0.787500 0.952574 0.000000
0.918750 0.952574 0.000000
1.000000 0.952574 0.000000
0.000000 0.952574 0.000000
0.131250 0.952574 0.000000
0.262500 0.952574 0.000000
0.393750 0.952574 0.000000
0.525000 0.952574 0.000000
0.656250 0.952574 0.000000
0.787500 0.952574 0.000000
0.918750 0.952574 0.000000
1.000000 0.952574 0.000000
0.000000 0.053151 0.110000
0.131250 0.053151 0.110000
0.262500 0.053151 0.110000
0.393750 0.053151 0.110000
0.525000 0.053151 0.110000
0.656250 0.053151 0.110000
0.787500 0.053151 0.110000
0.918750 0.053151 0.110000
1.000000 0.053151 0.110000
0.000000 0.115067 0.110000
0.131250 0.115067 0.110000
0.262500 0.115067 0.110000
0.393750 0.115067 0.110000
0.525000 0.115067 0.110000
0.656250 0.115067 0.110000
0.787500 0.115067 0.110000
0.918750 0.115067 0.110000
1.000000 0.115067 0.110000
0.000000 0.231475 0.110000
0.131250 0.231475 0.110000
0.262500 0.231475 0.110000
0.393750 0.231475 0.110000
0.525000 0.231475 0.110000
0.656250 0.231475 0.110000
0.787500 0.231475 0.110000
0.918750 0.231475 0.110000
1.000000 0.231475 0.110000
0.000000 0.410960 0.110000
0.131250 0.410960 0.110000
0.262500 0.410960 0.110000
0.393750 0.410960 0.110000
0.525000 0.410960 0.110000
0.656250 0.410960 0.110000
0.787500 0.410960 0.110000
0.918750 0.410960 0.110000
1.000000 0.410960 0.110000
0.000000 0.617748 0.110000
0.131250 0.617748 0.110000
0.262500 0.617748 0.110000
0.393750 0.617748 0.110000
0.525000 0.617748 0.110000
0.656250 0.617748 0.110000
0.787500 0.617748 0.110000
0.918750 0.617748 0.110000
1.000000 0.617748 0.110000
0.000000 0.789182 0.110000
0.131250 0.789182 0.110000
0.262500 0.789182 0.110000
0.393750 0.789182 0.110000
0.525000 0.789182 0.110000
0.656250 0.789182 0.110000
0.787500 0.789182 0.110000
0.918750 0.789182 0.110000
1.000000 0.789182 0.110000
0.000000 0.896600 0.110000
0.131250 0.896600 0.110000
0.262500 0.896600 0.110000
0.393750 0.896600 0.110000
0.525000 0.896600 0.110000
0.656250 0.896600 0.110000
0.787500 0.896600 0.110000
0.918750 0.896600 0.110000
1.000000 0.896600 0.110000
0.000000 0.952574 0.110000
0.131250 0.952574 0.110000
0.262500 0.952574 0.110000
0.393750 0.952574 0.110000
0.525000 0.952574 0.110000
0.656250 0.952574 0.110000
0.787500 0.952574 0.110000
0.918750 0.952574 0.110000
1.000000 0.952574 0.110000
0.000000 0.952574 0.110000
0.131250 0.952574 0.110000
0.262500 0.952574 0.110000
0.393750 0.952574 0.110000
0.525000 0.952574 0.110000
0.656250 0.952574 0.110000
0.787500 0.952574 0.110000
0.918750 0.952574 0.110000
1.000000 0.952574 0.110000
0.000000 0.053151 0.220000
0.131250 0.053151 0.220000
0.262500 0.053151 0.220000
0.393750 0.053151 0.220000
0.525000 0.053151 0.220000
0.656250 0.053151 0.220000
0.787500 0.053151 0.220000
0.918750 0.053151 0.220000
1.000000 0.053151 0.220000
0.000000 0.115067 0.220000
0.131250 0.115067 0.220000
0.262500 0.115067 0.220000
0.393750 0.115067 0.220000
0.525000 0.115067 0.220000
0.656250 0.115067 0.220000
0.787500 0.115067 0.220000
0.918750 0.115067 0.220000
1.000000 0.115067 0.220000
0.000000 0.231475 0.220000
0.131250 0.231475 0.220000
0.262500 0.231475 0.220000
0.393750 0.231475 0.220000
0.525000 0.231475 0.220000
0.656250 0.231475 0.220000
0.787500 0.231475 0.220000
0.918750 0.231475 0.220000
1.000000 0.231475 0.220000
0.000000 0.410960 0.220000
0.131250 0.410960 0.220000
0.262500 0.410960 0.220000
0.393750 0.410960 0.220000
0.525000 0.410960 0.220000
0.656250 0.410960 0.220000
0.787500 0.410960 0.220000
0.918750 0.410960 0.220000
1.000000 0.410960 0.220000
0.000000 0.617748 0.220000
0.131250 0.617748 0.220000
0.262500 0.617748 0.220000
0.393750 0.617748 0.220000
0.525000 0.617748 0.220000
0.656250 0.617748 0.220000
0.787500 0.617748 0.220000
0.918750 0.617748 0.220000
1.000000 0.617748 0.220000
0.000000 0.789182 0.220000
0.131250 0.789182 0.220000
0.262500 0.789182 0.220000
0.393750 0.789182 0.220000
0.525000 0.789182 0.220000
0.656250 0.789182 0.220000
0.787500 0.789182 0.220000
0.918750 0.789182 0.220000
1.000000 0.789182 0.220000
0.000000 0.896600 0.220000
0.131250 0.896600 0.220000
0.262500 0.896600 0.220000
0.393750 0.896600 0.220000
0.525000 0.896600 0.220000
0.656250 0.896600 0.220000
0.787500 0.896600 0.220000
0.918750 0.896600 0.220000
1.000000 0.896600 0.220000
0.000000 0.952574 0.220000
0.131250 0.952574 0.220000
0.262500 0.952574 0.220000
0.393750 0.952574 0.220000
0.525000 0.952574 0.220000
0.656250 0.952574 0.220000
0.787500 0.952574 0.220000
0.918750 0.952574 0.220000
1.000000 0.952574 0.220000
0.000000 0.952574 0.220000
0.131250 0.952574 0.220000
0.262500 0.952574 0.220000
0.393750 0.952574 0.220000
0.525000 0.952574 0.220000
0.656250 0.952574 0.220000
0.787500 0.952574 0.220000
0.918750 0.952574 0.220000
1.000000 0.952574 0.220000
0.000000 0.053151 0.330000
0.131250 0.053151 0.330000
0.262500 0.053151 0.330000
0.393750 0.053151 0.330000
0.525000 0.053151 0.330000
0.656250 0.053151 0.330000
0.787500 0.053151 0.330000
0.918750 0.053151 0.330000
1.000000 0.053151 0.330000
0.000000 0.115067 0.330000
0.131250 0.115067 0.330000
0.262500 0.115067 0.330000
0.393750 0.115067 0.330000
0.525000 0.115067 0.330000
0.656250 0.115067 0.330000
0.787500 0.115067 0.330000
0.918750 0.115067 0.330000
1.000000 0.115067 0.330000
0.000000 0.231475 0.330000
0.131250 0.231475 0.330000
0.262500 0.231475 0.330000
0.393750 0.231475 0.330000
0.525000 0.231475 0.330000
0.656250 0.231475 0.330000
0.787500 0.231475 0.330000
0.918750 0.231475 0.330000
1.000000 0.231475 0.330000
0.000000 0.410960 0.330000
0.131250 0.410960 0.330000
0.262500 0.410960 0.330000
0.393750 0.410960 0.330000
0.525000 0.410960 0.330000
0.656250 0.410960 0.330000
0.787500 0.410960 0.330000
0.918750 0.410960 0.330000
1.000000 0.410960 0.330000
0.000000 0.617748 0.330000
0.131250 0.617748 0.330000
0.262500 0.617748 0.330000
0.393750 0.617748 0.330000
0.525000 0.617748 0.330000
0.656250 0.617748 0.330000
0.787500 0.617748 0.330000
0.918750 0.617748 0.330000
1.000000 0.617748 0.330000
0.000000 0.789182 0.330000
0.131250 0.789182 0.330000
0.262500 0.789182 0.330000
0.393750 0.789182 0.330000
0.525000 0.789182 0.330000
0.656250 0.789182 0.330000
0.787500 0.789182 0.330000
0.918750 0.789182 0.330000
1.000000 0.789182 0.330000
0.000000 0.896600 0.330000
0.131250 0.896600 0.330000
0.262500 0.896600 0.330000
0.393750 0.896600 0.330000
0.525000 0.896600 0.330000
0.656250 0.896600 0.330000
0.787500 0.896600 0.330000
0.918750 0.896600 0.330000
1.000000 0.896600 0.330000
0.000000 0.952574 0.330000
0.131250 0.952574 0.330000
0.262500 0.952574 0.330000
0.393750 0.952574 0.330000
0.525000 0.952574 0.330000
0.656250 0.952574 0.330000
0.787500 0.952574 0.330000
0.918750 0.952574 0.330000
1.000000 0.952574 0.330000
0.000000 0.952574 0.330000
0.131250 0.952574 0.330000
0.262500 0.952574 0.330000
0.393750 0.952574 0.330000
0.525000 0.952574 0.330000
0.656250 0.952574 0.330000
0.787500 0.952574 0.330000
0.918750 0.952574 0.330000
1.000000 0.952574 0.330000
0.000000 0.053151 0.440000
0.131250 0.053151 0.440000
0.262500 0.053151 0.440000
0.393750 0.053151 0.440000
0.525000 0.053151 0.440000
0.656250 0.053151 0.440000
0.787500 0.053151 0.440000
0.918750 0.053151 0.440000
1.000000 0.053151 0.440000
0.000000 0.115067 0.440000
0.131250 0.115067 0.440000
0.262500 0.115067 0.440000
0.393750 0.115067 0.440000
0.525000 0.115067 0.440000
0.656250 0.115067 0.440000
0.787500 0.115067 0.440000
0.918750 0.115067 0.440000
1.000000 0.115067 0.440000
0.000000 0.231475 0.440000
0.131250 0.231475 0.440000
0.262500 0.231475 0.440000
0.393750 0.231475 0.440000
0.525000 0.231475 0.440000
0.656250 0.231475 0.440000
0.787500 0.231475 0.440000
0.918750 0.231475 0.440000
1.000000 0.231475 0.440000
0.000000 0.410960 0.440000
0.131250 0.410960 0.440000
0.262500 0.410960 0.440000
0.393750 0.410960 0.440000
0.525000 0.410960 0.440000
0.656250 0.410960 0.440000
0.787500 0.410960 0.440000
0.918750 0.410960 0.440000
1.000000 0.410960 0.440000
0.000000 0.617748 0.440000
0.131250 0.617748 0.440000
0.262500 0.617748 0.440000
0.393750 0.617748 0.440000
0.525000 0.617748 0.440000
0.656250 0.617748 0.440000
0.787500 0.617748 0.440000
0.918750 0.617748 0.440000
1.000000 0.617748 0.440000
0.000000 0.789182 0.440000
0.131250 0.789182 0.440000
0.262500 0.789182 0.440000
0.393750 0.789182 0.440000
0.525000 0.789182 0.440000
0.656250 0.789182 0.440000
0.787500 0.789182 0.440000
0.918750 0.789182 0.440000
1.000000 0.789182 0.440000
0.000000 0.896600 0.440000
0.131250 0.896600 0.440000
0.262500 0.896600 0.440000
0.393750 0.896600 0.440000
0.525000 0.896600 0.440000
0.656250 0.896600 0.440000
0.787500 0.896600 0.440000
0.918750 0.896600 0.440000
1.000000 0.896600 0.440000
0.000000 0.952574 0.440000
0.131250 0.952574 0.440000
0.262500 0.952574 0.440000
0.393750 0.952574 0.440000
0.525000 0.952574 0.440000
0.656250 0.952574 0.440000
0.787500 0.952574 0.440000
0.918750 0.952574 0.440000
1.000000 0.952574 0.440000
0.000000 0.952574 0.440000
0.131250 0.952574 0.440000
0.262500 0.952574 0.440000
0.393750 0.952574 0.440000
0.525000 0.952574 0.440000
0.656250 0.952574 0.440000
0.787500 0.952574 0.440000
0.918750 0.952574 0.440000
1.000000 0.952574 0.440000
0.000000 0.053151 0.550000
0.131250 0.053151 0.550000
0.262500 0.053151 0.550000
0.393750 0.053151 0.550000
0.525000 0.053151 0.550000
0.656250 0.053151 0.550000
0.787500 0.053151 0.550000
0.918750 0.053151 0.550000
1.000000 0.053151 0.550000
0.000000 0.115067 0.550000
0.131250 0.115067 0.550000
0.262500 0.115067 0.550000
0.393750 0.115067 0.550000
0.525000 0.115067 0.550000
0.656250 0.115067 0.550000
0.787500 0.115067 0.550000
0.918750 0.115067 0.550000
1.000000 0.115067 0.550000
0.000000 0.231475 0.550000
0.131250 0.231475 0.550000
0.262500 0.231475 0.550000
0.393750 0.231475 0.550000
0.525000 0.231475 0.550000
0.656250 0.231475 0.550000
0.787500 0.231475 0.550000
0.918750 0.231475 0.550000
1.000000 0.231475 0.550000
0.000000 0.410960 0.550000
0.131250 0.410960 0.550000
0.262500 0.410960 0.550000
0.393750 0.410960 0.550000
0.525000 0.410960 0.550000
0.656250 0.410960 0.550000
0.787500 0.410960 0.550000
0.918750 0.410960 0.550000
1.000000 0.410960 0.550000
0.000000 0.617748 0.550000
0.131250 0.617748 0.550000
0.262500 0.617748 0.550000
0.393750 0.617748 0.550000
0.525000 0.617748 0.550000
0.656250 0.617748 0.550000
0.787500 0.617748 0.550000
0.918750 0.617748 0.550000
1.000000 0.617748 0.550000
0.000000 0.789182 0.550000
0.131250 0.789182 0.550000
0.262500 0.789182 0.550000
0.393750 0.789182 0.550000
0.525000 0.789182 0.550000
0.656250 0.789182 0.550000
0.787500 0.789182 0.550000
0.918750 0.789182 0.550000
1.000000 0.789182 0.550000
0.000000 0.896600 0.550000
0.131250 0.896600 0.550000
0.262500 0.896600 0.550000
0.393750 0.896600 0.550000
0.525000 0.896600 0.550000
0.656250 0.896600 0.550000
0.787500 0.896600 0.550000
0.918750 0.896600 0.550000
1.000000 0.896600 0.550000
0.000000 0.952574 0.550000
0.131250 0.952574 0.550000
0.262500 0.952574 0.550000
0.393750 0.952574 0.550000
0.525000 0.952574 0.550000
0.656250 0.952574 0.550000
0.787500 0.952574 0.550000
0.918750 0.952574 0.550000
1.000000 0.952574 0.550000
0.000000 0.952574 0.550000
0.131250 0.952574 0.550000
0.262500 0.952574 0.550000
0.393750 0.952574 0.550000
0.525000 0.952574 0.550000
0.656250 0.952574 0.550000
0.787500 0.952574 0.550000
0.918750 0.952574 0.550000
1.000000 0.952574 0.550000
0.000000 0.053151 0.660000
0.131250 0.053151 0.660000
0.262500 0.053151 0.660000
0.393750 0.053151 0.660000
0.525000 0.053151 0.660000
0.656250 0.053151 0.660000
0.787500 0.053151 0.660000
0.918750 0.053151 0.660000
1.000000 0.053151 0.660000
0.000000 0.115067 0.660000
0.131250 0.115067 0.660000
0.262500 0.115067 0.660000
0.393750 0.115067 0.660000
0.525000 0.115067 0.660000
0.656250 0.115067 0.660000
0.787500 0.115067 0.660000
0.918750 0.115067 0.660000
1.000000 0.115067 0.660000
0.000000 0.231475 0.660000
0.131250 0.231475 0.660000
0.262500 0.231475 0.660000
0.393750 0.231475 0.660000
0.525000 0.231475 0.660000
0.656250 0.231475 0.660000
0.787500 0.231475 0.660000
0.918750 0.231475 0.660000
1.000000 0.231475 0.660000
0.000000 0.410960 0.660000
0.131250 0.410960 0.660000
0.262500 0.410960 0.660000
0.393750 0.410960 0.660000
0.525000 0.410960 0.660000
0.656250 0.410960 0.660000
0.787500 0.410960 0.660000
0.918750 0.410960 0.660000
1.000000 0.410960 0.660000
0.000000 0.617748 0.660000
0.131250 0.617748 0.660000
0.262500 0.617748 0.660000
0.393750 0.617748 0.660000
0.525000 0.617748 0.660000
0.656250 0.617748 0.660000
0.787500 0.617748 0.660000
0.918750 0.617748 0.660000
1.000000 0.617748 0.660000
0.000000 0.789182 0.660000
0.131250 0.789182 0.660000
0.262500 0.789182 0.660000
0.393750 0.789182 0.660000
0.525000 0.789182 0.660000
0.656250 0.789182 0.660000
0.787500 0.789182 0.660000
0.918750 0.789182 0.660000
1.000000 0.789182 0.660000
0.000000 0.896600 0.660000
0.131250 0.896600 0.660000
0.262500 0.896600 0.660000
0.393750 0.896600 0.660000
0.525000 0.896600 0.660000
0.656250 0.896600 0.660000
0.787500 0.896600 0.660000
0.918750 0.896600 0.660000
1.000000 0.896600 0.660000
0.000000 0.952574 0.660000
0.131250 0.952574 0.660000
0.262500 0.952574 0.660000
0.393750 0.952574 0.660000
0.525000 0.952574 0.660000
0.656250 0.952574 0.660000
0.787500 0.952574 0.660000
0.918750 0.952574 0.660000
1.000000 0.952574 0.660000
0.000000 0.952574 0.660000
0.131250 0.952574 0.660000
0.262500 0.952574 0.660000
0.393750 0.952574 0.660000
0.525000 0.952574 0.660000
0.656250 0.952574 0.660000
0.787500 0.952574 0.660000
0.918750 0.952574 0.660000
1.000000 0.952574 0.660000
0.000000 0.053151 0.770000
0.131250 0.053151 0.770000
0.262500 0.053151 0.770000
0.393750 0.053151 0.770000
0.525000 0.053151 0.770000
0.656250 0.053151 0.770000
0.787500 0.053151 0.770000
0.918750 0.053151 0.770000
1.000000 0.053151 0.770000
0.000000 0.115067 0.770000
0.131250 0.115067 0.770000
0.262500 0.115067 0.770000
0.393750 0.115067 0.770000
0.525000 0.115067 0.770000
0.656250 0.115067 0.770000
0.787500 0.115067 0.770000
0.918750 0.115067 0.770000
1.000000 0.115067 0.770000
0.000000 0.231475 0.770000
0.131250 0.231475 0.770000
0.262500 0.231475 0.770000
0.393750 0.231475 0.770000
0.525000 0.231475 0.770000
0.656250 0.231475 0.770000
0.787500 0.231475 0.770000
0.918750 0.231475 0.770000
1.000000 0.231475 0.770000
0.000000 0.410960 0.770000
0.131250 0.410960 0.770000
0.262500 0.410960 0.770000
0.393750 0.410960 0.770000
0.525000 0.410960 0.770000
0.656250 0.410960 0.770000
0.787500 0.410960 0.770000
0.918750 0.410960 0.770000
1.000000 0.410960 0.770000
0.000000 0.617748 0.770000
0.131250 0.617748 0.770000
0.262500 0.617748 0.770000
0.393750 0.617748 0.770000
0.525000 0.617748 0.770000
0.656250 0.617748 0.770000
0.787500 0.617748 0.770000
0.918750 0.617748 0.770000
1.000000 0.617748 0.770000
0.000000 0.789182 0.770000
0.131250 0.789182 0.770000
0.262500 0.789182 0.770000
0.393750 0.789182 0.770000
0.525000 0.789182 0.770000
0.656250 0.789182 0.770000
0.787500 0.789182 0.770000
0.918750 0.789182 0.770000
1.000000 0.789182 0.770000
0.000000 0.896600 0.770000
0.131250 0.896600 0.770000
0.262500 0.896600 0.770000
0.393750 0.896600 0.770000
0.525000 0.896600 0.770000
0.656250 0.896600 0.770000
0.787500 0.896600 0.770000
0.918750 0.896600 0.770000
1.000000 0.896600 0.770000
0.000000 0.952574 0.770000
0.131250 0.952574 0.770000
0.262500 0.952574 0.770000
0.393750 0.952574 0.770000
0.525000 0.952574 0.770000
0.656250 0.952574 0.770000
0.787500 0.952574 0.770000
0.918750 0.952574 0.770000
1.000000 0.952574 0.770000
0.000000 0.952574 0.770000
0.131250 0.952574 0.770000
0.262500 0.952574 0.770000
0.393750 0.952574 0.770000
0.525000 0.952574 0.770000
0.656250 0.952574 0.770000
0.787500 0.952574 0.770000
0.918750 0.952574 0.770000
1.000000 0.952574 0.770000
0.000000 0.053151 0.880000
0.131250 0.053151 0.880000
0.262500 0.053151 0.880000
0.393750 0.053151 0.880000
0.525000 0.053151 0.880000
0.656250 0.053151 0.880000
0.787500 0.053151 0.880000
0.918750 0.053151 0.880000
1.000000 0.053151 0.880000
0.000000 0.115067 0.880000
0.131250 0.115067 0.880000
0.262500 0.115067 0.880000
0.393750 0.115067 0.880000
0.525000 0.115067 0.880000
0.656250 0.115067 0.880000
0.787500 0.115067 0.880000
0.918750 0.115067 0.880000
1.000000 0.115067 0.880000
0.000000 0.231475 0.880000
0.131250 0.231475 0.880000
0.262500 0.231475 0.880000
0.393750 0.231475 0.880000
0.525000 0.231475 0.880000
0.656250 0.231475 0.880000
0.787500 0.231475 0.880000
0.918750 0.231475 0.880000
1.000000 0.231475 0.880000
0.000000 0.410960 0.880000
0.131250 0.410960 0.880000
0.262500 0.410960 0.880000
0.393750 0.410960 0.880000
0.525000 0.410960 0.880000
0.656250 0.410960 0.880000
0.787500 0.410960 0.880000
0.918750 0.410960 0.880000
1.000000 0.410960 0.880000
0.000000 0.617748 0.880000
0.131250 0.617748 0.880000
0.262500 0.617748 0.880000
0.393750 0.617748 0.880000
0.525000 0.617748 0.880000
0.656250 0.617748 0.880000
0.787500 0.617748 0.880000
0.918750 0.617748 0.880000
1.000000 0.617748 0.880000
0.000000 0.789182 0.880000
0.131250 0.789182 0.880000
0.262500 0.789182 0.880000
0.393750 0.789182 0.880000
0.525000 0.789182 0.880000
0.656250 0.789182 0.880000
0.787500 0.789182 0.880000
0.918750 0.789182 0.880000
1.000000 0.789182 0.880000
0.000000 0.896600 0.880000
0.131250 0.896600 0.880000
0.262500 0.896600 0.880000
0.393750 0.896600 0.880000
0.525000 0.896600 0.880000
0.656250 0.896600 0.880000
0.787500 0.896600 0.880000
0.918750 0.896600 0.880000
1.000000 0.896600 0.880000
0.000000 0.952574 0.880000
0.131250 0.952574 0.880000
0.262500 0.952574 0.880000
0.393750 0.952574 0.880000
0.525000 0.952574 0.880000
0.656250 0.952574 0.880000
0.787500 0.952574 0.880000
0.918750 0.952574 0.880000
1.000000 0.952574 0.880000
0.000000 0.952574 0.880000
0.131250 0.952574 0.880000
0.262500 0.952574 0.880000
0.393750 0.952574 0.880000
0.525000 0.952574 0.880000
0.656250 0.952574 0.880000
0.787500 0.952574 0.880000
0.918750 0.952574 0.880000
1.000000 0.952574 0.880000
