assets/luts/tropical.cube
TITLE "Tropical"
LUT_3D_SIZE 5
0.000000 0.053151 0.000000
0.262500 0.053151 0.000000
0.525000 0.053151 0.000000
0.787500 0.053151 0.000000
1.000000 0.053151 0.000000
0.000000 0.231475 0.000000
0.262500 0.231475 0.000000
0.525000 0.231475 0.000000
0.787500 0.231475 0.000000
1.000000 0.231475 0.000000
0.000000 0.617748 0.000000
0.262500 0.617748 0.000000
0.525000 0.617748 0.000000
0.787500 0.617748 0.000000
1.000000 0.617748 0.000000
0.000000 0.896600 0.000000
0.262500 0.896600 0.000000
0.525000 0.896600 0.000000
0.787500 0.896600 0.000000
1.000000 0.896600 0.000000
0.000000 0.952574 0.000000
0.262500 0.952574 0.000000
0.525000 0.952574 0.000000
0.787500 0.952574 0.000000
1.000000 0.952574 0.000000
0.000000 0.053151 0.220000
0.262500 0.053151 0.220000
0.525000 0.053151 0.220000
0.787500 0.053151 0.220000
1.000000 0.053151 0.220000
0.000000 0.231475 0.220000
0.262500 0.231475 0.220000
0.525000 0.231475 0.220000
0.787500 0.231475 0.220000
1.000000 0.231475 0.220000
0.000000 0.617748 0.220000
0.262500 0.617748 0.220000
0.525000 0.617748 0.220000
0.787500 0.617748 0.220000
1.000000 0.617748 0.220000
0.000000 0.896600 0.220000
0.262500 0.896600 0.220000
0.525000 0.896600 0.220000
0.787500 0.896600 0.220000
1.000000 0.896600 0.220000
0.000000 0.952574 0.220000
0.262500 0.952574 0.220000
0.525000 0.952574 0.220000
0.787500 0.952574 0.220000
1.000000 0.952574 0.220000
0.000000 0.053151 0.440000
0.262500 0.053151 0.440000
0.525000 0.053151 0.440000
0.787500 0.053151 0.440000
1.000000 0.053151 0.440000
0.000000 0.231475 0.440000
0.262500 0.231475 0.440000
0.525000 0.231475 0.440000
0.787500 0.231475 0.440000
1.000000 0.231475 0.440000
0.000000 0.617748 0.440000
0.262500 0.617748 0.440000
0.525000 0.617748 0.440000
0.787500 0.617748 0.440000
1.000000 0.617748 0.440000
0.000000 0.896600 0.440000
0.262500 0.896600 0.440000
0.525000 0.896600 0.440000
0.787500 0.896600 0.440000
1.000000 0.896600 0.440000
0.000000 0.952574 0.440000
0.262500 0.952574 0.440000
0.525000 0.952574 0.440000
0.787500 0.952574 0.440000
1.000000 0.952574 0.440000
0.000000 0.053151 0.660000
0.262500 0.053151 0.660000
0.525000 0.053151 0.660000
0.787500 0.053151 0.660000
1.000000 0.053151 0.660000
0.000000 0.231475 0.660000
0.262500 0.231475 0.660000
0.525000 0.231475 0.660000
0.787500 0.231475 0.660000
1.000000 0.231475 0.660000
0.000000 0.617748 0.660000
0.262500 0.617748 0.660000
0.525000 0.617748 0.660000
0.787500 0.617748 0.660000
1.000000 0.617748 0.660000
0.000000 0.896600 0.660000
0.262500 0.896600 0.660000
0.525000 0.896600 0.660000
0.787500 0.896600 0.660000
1.000000 0.896600 0.660000
0.000000 0.952574 0.660000
0.262500 0.952574 0.660000
0.525000 0.952574 0.660000
0.787500 0.952574 0.660000
1.000000 0.952574 0.660000
0.000000 0.053151 0.880000
0.262500 0.053151 0.880000
0.525000 0.053151 0.880000
0.787500 0.053151 0.880000
1.000000 0.053151 0.880000
0.000000 0.231475 0.880000
0.262500 0.231475 0.880000
0.525000 0.231475 0.880000
0.787500 0.231475 0.880000
1.000000 0.231475 0.880000
0.000000 0.617748 0.880000
0.262500 0.617748 0.880000
0.525000 0.617748 0.880000
0.787500 0.617748 0.880000
1.000000 0.617748 0.880000
0.000000 0.896600 0.880000
0.262500 0.896600 0.880000
0.525000 0.896600 0.880000
0.787500 0.896600 0.880000
1.000000 0.896600 0.880000
0.000000 0.952574 0.880000
0.262500 0.952574 0.880000
0.525000 0.952574 0.880000
0.787500 0.952574 0.880000
1.000000 0.952574 0.880000
