booth/assets/luts/golden_hour.cube
TITLE "Golden Hour"
LUT_3D_SIZE 5
0.031373 0.011765 0.000000
0.333333 0.000000 0.000000
0.647059 0.000000 0.000000
0.952941 0.000000 0.000000
1.000000 0.000000 0.000000
0.007843 0.282353 0.000000
0.313725 0.270588 0.000000
0.623529 0.258824 0.000000
0.933333 0.247059 0.000000
1.000000 0.239216 0.000000
0.000000 0.564706 0.000000
0.290196 0.549020 0.000000
0.600000 0.537255 0.000000
0.909804 0.525490 0.000000
1.000000 0.517647 0.000000
0.000000 0.839216 0.000000
0.266667 0.827451 0.000000
0.576471 0.811765 0.000000
0.886275 0.800000 0.000000
1.000000 0.796078 0.000000
0.000000 1.000000 0.000000
0.247059 1.000000 0.000000
0.560784 1.000000 0.000000
0.866667 1.000000 0.000000
1.000000 1.000000 0.000000
0.027451 0.007843 0.231373
0.329412 0.000000 0.219608
0.643137 0.000000 0.203922
0.949020 0.000000 0.192157
1.000000 0.000000 0.188235
0.003922 0.282353 0.207843
0.309804 0.266667 0.196078
0.619608 0.254902 0.184314
0.929412 0.243137 0.172549
1.000000 0.235294 0.164706
0.000000 0.560784 0.184314
0.286275 0.549020 0.172549
0.596078 0.533333 0.160784
0.905882 0.521569 0.149020
1.000000 0.517647 0.141176
0.000000 0.835294 0.160784
0.262745 0.823529 0.149020
0.576471 0.807843 0.137255
0.882353 0.796078 0.125490
1.000000 0.792157 0.117647
0.000000 1.000000 0.145098
0.243137 1.000000 0.133333
0.556863 1.000000 0.117647
0.862745 1.000000 0.105882
1.000000 1.000000 0.101961
0.023529 0.007843 0.470588
0.329412 0.000000 0.458824
0.639216 0.000000 0.447059
0.949020 0.000000 0.431373
1.000000 0.000000 0.427451
0.000000 0.278431 0.447059
0.305882 0.262745 0.435294
0.615686 0.250980 0.423529
0.925490 0.239216 0.411765
1.000000 0.235294 0.403922
0.000000 0.556863 0.423529
0.282353 0.545098 0.411765
0.592157 0.529412 0.400000
0.901961 0.517647 0.388235
1.000000 0.513725 0.380392
0.000000 0.831373 0.403922
0.258824 0.819608 0.388235
0.572549 0.803922 0.376471
0.878431 0.792157 0.364706
1.000000 0.788235 0.360784
0.000000 1.000000 0.384314
0.239216 1.000000 0.372549
0.552941 1.000000 0.360784
0.858824 1.000000 0.345098
1.000000 1.000000 0.341176
0.019608 0.003922 0.713725
0.325490 0.000000 0.701961
0.635294 0.000000 0.690196
0.945098 0.000000 0.678431
1.000000 0.000000 0.670588
0.000000 0.274510 0.694118
0.301961 0.262745 0.678431
0.611765 0.247059 0.666667
0.921569 0.235294 0.654902
1.000000 0.231373 0.650980
0.000000 0.552941 0.670588
0.278431 0.541176 0.658824
0.592157 0.525490 0.643137
0.898039 0.513725 0.631373
1.000000 0.509804 0.627451
0.000000 0.827451 0.647059
0.254902 0.815686 0.635294
0.568627 0.803922 0.623529
0.874510 0.788235 0.607843
1.000000 0.784314 0.603922
0.000000 1.000000 0.627451
0.235294 1.000000 0.615686
0.549020 1.000000 0.603922
0.858824 1.000000 0.592157
1.000000 1.000000 0.584314
0.015686 0.000000 0.952941
0.321569 0.000000 0.941176
0.631373 0.000000 0.929412
0.941176 0.000000 0.917647
1.000000 0.000000 0.909804
0.000000 0.270588 0.933333
0.298039 0.258824 0.921569
0.611765 0.243137 0.905882
0.917647 0.231373 0.894118
1.000000 0.227451 0.890196
0.000000 0.549020 0.909804
0.274510 0.537255 0.898039
0.588235 0.525490 0.886275
0.894118 0.509804 0.870588
1.000000 0.505882 0.866667
0.000000 0.823529 0.886275
0.250980 0.811765 0.874510
0.564706 0.800000 0.862745
0.870588 0.784314 0.850980
1.000000 0.780392 0.843137
0.000000 1.000000 0.866667
0.235294 1.000000 0.854902
0.545098 1.000000 0.843137
0.854902 1.000000 0.831373
1.000000 1.000000 0.823529
