booth/assets/luts/golden_hour.cube
TITLE "Golden Hour"
LUT_3D_SIZE 9
0.031373 0.011765 0.000000
0.180392 0.007843 0.000000
0.333333 0.000000 0.000000
0.490196 0.000000 0.000000
0.647059 0.000000 0.000000
0.803922 0.000000 0.000000
0.952941 0.000000 0.000000
1.000000 0.000000 0.000000
1.000000 0.000000 0.000000
0.019608 0.145098 0.000000
0.168627 0.141176 0.000000
0.325490 0.133333 0.000000
0.478431 0.129412 0.000000
0.635294 0.121569 0.000000
0.792157 0.113725 0.000000
0.945098 0.109804 0.000000
1.000000 0.101961 0.000000
1.000000 0.101961 0.000000
0.007843 0.282353 0.000000
0.156863 0.278431 0.000000
0.313725 0.270588 0.000000
0.466667 0.266667 0.000000
0.623529 0.258824 0.000000
0.780392 0.250980 0.000000
0.933333 0.247059 0.000000
1.000000 0.239216 0.000000
1.000000 0.239216 0.000000
0.000000 0.419608 0.000000
0.145098 0.415686 0.000000
0.301961 0.407843 0.000000
0.458824 0.403922 0.000000
0.611765 0.396078 0.000000
0.768627 0.388235 0.000000
0.921569 0.384314 0.000000
1.000000 0.376471 0.000000
1.000000 0.376471 0.000000
0.000000 0.564706 0.000000
0.133333 0.556863 0.000000
0.290196 0.549020 0.000000
0.447059 0.545098 0.000000
0.600000 0.537255 0.000000
0.756863 0.533333 0.000000
0.909804 0.525490 0.000000
1.000000 0.517647 0.000000
1.000000 0.517647 0.000000
0.000000 0.701961 0.000000
0.121569 0.694118 0.000000
0.278431 0.686275 0.000000
0.435294 0.682353 0.000000
0.588235 0.674510 0.000000
0.745098 0.670588 0.000000
0.898039 0.662745 0.000000
1.000000 0.658824 0.000000
1.000000 0.658824 0.000000
0.000000 0.839216 0.000000
0.109804 0.831373 0.000000
0.266667 0.827451 0.000000
0.423529 0.819608 0.000000
0.576471 0.811765 0.000000
0.733333 0.807843 0.000000
0.886275 0.800000 0.000000
1.000000 0.796078 0.000000
1.000000 0.796078 0.000000
0.000000 0.976471 0.000000
0.098039 0.968627 0.000000
0.254902 0.964706 0.000000
0.411765 0.956863 0.000000
0.568627 0.949020 0.000000
0.721569 0.945098 0.000000
0.874510 0.937255 0.000000
1.000000 0.933333 0.000000
1.000000 0.933333 0.000000
0.000000 1.000000 0.000000
0.090196 1.000000 0.000000
0.247059 1.000000 0.000000
0.403922 1.000000 0.000000
0.560784 1.000000 0.000000
0.717647 1.000000 0.000000
0.866667 1.000000 0.000000
1.000000 1.000000 0.000000
1.000000 1.000000 0.000000
0.031373 0.011765 0.109804
0.176471 0.003922 0.105882
0.333333 0.000000 0.098039
0.490196 0.000000 0.090196
0.643137 0.000000 0.086275
0.800000 0.000000 0.078431
0.952941 0.000000 0.074510
1.000000 0.000000 0.066667
1.000000 0.000000 0.066667
0.019608 0.145098 0.098039
0.164706 0.137255 0.094118
0.321569 0.133333 0.086275
0.478431 0.125490 0.082353
0.635294 0.121569 0.074510
0.788235 0.113725 0.066667
0.941176 0.105882 0.062745
1.000000 0.101961 0.054902
1.000000 0.101961 0.054902
0.007843 0.282353 0.090196
0.152941 0.274510 0.082353
0.309804 0.270588 0.074510
0.466667 0.262745 0.070588
0.623529 0.258824 0.062745
0.780392 0.250980 0.058824
0.929412 0.243137 0.050980
1.000000 0.239216 0.043137
1.000000 0.239216 0.043137
0.000000 0.419608 0.078431
0.141176 0.411765 0.070588
0.298039 0.407843 0.062745
0.454902 0.400000 0.058824
0.611765 0.396078 0.050980
0.768627 0.388235 0.047059
0.917647 0.380392 0.039216
1.000000 0.376471 0.035294
1.000000 0.376471 0.035294
0.000000 0.560784 0.066667
0.129412 0.556863 0.058824
0.286275 0.549020 0.050980
0.443137 0.541176 0.047059
0.600000 0.537255 0.039216
0.756863 0.529412 0.035294
0.905882 0.525490 0.027451
1.000000 0.517647 0.023529
1.000000 0.517647 0.023529
0.000000 0.698039 0.054902
0.121569 0.694118 0.047059
0.274510 0.686275 0.043137
0.431373 0.678431 0.035294
0.588235 0.674510 0.027451
0.745098 0.666667 0.023529
0.894118 0.662745 0.015686
1.000000 0.654902 0.011765
1.000000 0.654902 0.011765
0.000000 0.835294 0.043137
0.109804 0.831373 0.035294
0.262745 0.823529 0.031373
0.419608 0.815686 0.023529
0.576471 0.811765 0.015686
0.733333 0.803922 0.011765
0.886275 0.800000 0.003922
1.000000 0.792157 0.000000
1.000000 0.792157 0.000000
0.000000 0.972549 0.031373
0.098039 0.968627 0.023529
0.254902 0.960784 0.019608
0.407843 0.956863 0.011765
0.564706 0.949020 0.007843
0.721569 0.941176 0.000000
0.874510 0.937255 0.000000
1.000000 0.929412 0.000000
1.000000 0.929412 0.000000
0.000000 1.000000 0.023529
0.090196 1.000000 0.019608
0.247059 1.000000 0.011765
0.403922 1.000000 0.003922
0.556863 1.000000 0.000000
0.713725 1.000000 0.000000
0.866667 1.000000 0.000000
1.000000 1.000000 0.000000
1.000000 1.000000 0.000000
0.027451 0.007843 0.231373
0.176471 0.003922 0.223529
0.329412 0.000000 0.219608
0.486275 0.000000 0.211765
0.643137 0.000000 0.203922
0.800000 0.000000 0.200000
0.949020 0.000000 0.192157
1.000000 0.000000 0.188235
1.000000 0.000000 0.188235
0.015686 0.141176 0.219608
0.164706 0.137255 0.211765
0.321569 0.129412 0.207843
0.474510 0.125490 0.200000
0.631373 0.117647 0.196078
0.788235 0.109804 0.188235
0.941176 0.105882 0.180392
1.000000 0.098039 0.176471
1.000000 0.098039 0.176471
0.003922 0.282353 0.207843
0.152941 0.274510 0.203922
0.309804 0.266667 0.196078
0.466667 0.262745 0.188235
0.619608 0.254902 0.184314
0.776471 0.250980 0.176471
0.929412 0.243137 0.172549
1.000000 0.235294 0.164706
1.000000 0.235294 0.164706
0.000000 0.419608 0.196078
0.141176 0.411765 0.192157
0.298039 0.403922 0.184314
0.454902 0.400000 0.176471
0.607843 0.392157 0.172549
0.764706 0.388235 0.164706
0.917647 0.380392 0.160784
1.000000 0.372549 0.152941
1.000000 0.372549 0.152941
0.000000 0.560784 0.184314
0.129412 0.552941 0.180392
0.286275 0.549020 0.172549
0.443137 0.541176 0.164706
0.596078 0.533333 0.160784
0.752941 0.529412 0.152941
0.905882 0.521569 0.149020
1.000000 0.517647 0.141176
1.000000 0.517647 0.141176
0.000000 0.698039 0.172549
0.117647 0.690196 0.168627
0.274510 0.686275 0.160784
0.431373 0.678431 0.156863
0.584314 0.670588 0.149020
0.741176 0.666667 0.141176
0.894118 0.658824 0.137255
1.000000 0.654902 0.129412
1.000000 0.654902 0.129412
0.000000 0.835294 0.160784
0.105882 0.827451 0.156863
0.262745 0.823529 0.149020
0.419608 0.815686 0.145098
0.576471 0.807843 0.137255
0.729412 0.803922 0.129412
0.882353 0.796078 0.125490
1.000000 0.792157 0.117647
1.000000 0.792157 0.117647
0.000000 0.972549 0.149020
0.094118 0.964706 0.145098
0.250980 0.960784 0.137255
0.407843 0.952941 0.133333
0.564706 0.945098 0.125490
0.717647 0.941176 0.121569
0.870588 0.933333 0.113725
1.000000 0.929412 0.105882
1.000000 0.929412 0.105882
0.000000 1.000000 0.145098
0.090196 1.000000 0.137255
0.243137 1.000000 0.133333
0.400000 1.000000 0.125490
0.556863 1.000000 0.117647
0.713725 1.000000 0.113725
0.862745 1.000000 0.105882
1.000000 1.000000 0.101961
1.000000 1.000000 0.101961
0.027451 0.007843 0.349020
0.172549 0.000000 0.345098
0.329412 0.000000 0.337255
0.486275 0.000000 0.333333
0.643137 0.000000 0.325490
0.796078 0.000000 0.317647
0.949020 0.000000 0.313725
1.000000 0.000000 0.305882
1.000000 0.000000 0.305882
0.015686 0.141176 0.341176
0.160784 0.133333 0.333333
0.317647 0.129412 0.325490
0.474510 0.121569 0.321569
0.631373 0.117647 0.313725
0.788235 0.109804 0.309804
0.937255 0.101961 0.301961
1.000000 0.098039 0.298039
1.000000 0.098039 0.298039
0.003922 0.278431 0.329412
0.149020 0.274510 0.321569
0.305882 0.266667 0.317647
0.462745 0.258824 0.309804
0.619608 0.254902 0.301961
0.776471 0.247059 0.298039
0.925490 0.239216 0.290196
1.000000 0.235294 0.286275
1.000000 0.235294 0.286275
0.000000 0.415686 0.317647
0.141176 0.411765 0.309804
0.294118 0.403922 0.305882
0.450980 0.396078 0.298039
0.607843 0.392157 0.290196
0.764706 0.384314 0.286275
0.913725 0.380392 0.278431
1.000000 0.372549 0.274510
1.000000 0.372549 0.274510
0.000000 0.556863 0.305882
0.129412 0.552941 0.298039
0.282353 0.545098 0.294118
0.439216 0.537255 0.286275
0.596078 0.533333 0.278431
0.752941 0.525490 0.274510
0.901961 0.521569 0.266667
1.000000 0.513725 0.262745
1.000000 0.513725 0.262745
0.000000 0.694118 0.294118
0.117647 0.690196 0.286275
0.270588 0.682353 0.282353
0.427451 0.674510 0.274510
0.584314 0.670588 0.270588
0.741176 0.662745 0.262745
0.890196 0.658824 0.254902
1.000000 0.650980 0.250980
1.000000 0.650980 0.250980
0.000000 0.831373 0.282353
0.105882 0.827451 0.274510
0.262745 0.819608 0.270588
0.415686 0.815686 0.262745
0.572549 0.807843 0.258824
0.729412 0.800000 0.250980
0.882353 0.796078 0.243137
1.000000 0.788235 0.239216
1.000000 0.788235 0.239216
0.000000 0.968627 0.270588
0.094118 0.964706 0.266667
0.250980 0.956863 0.258824
0.403922 0.952941 0.250980
0.560784 0.945098 0.247059
0.717647 0.937255 0.239216
0.870588 0.933333 0.235294
1.000000 0.925490 0.227451
1.000000 0.925490 0.227451
0.000000 1.000000 0.262745
0.086275 1.000000 0.258824
0.243137 1.000000 0.250980
0.400000 1.000000 0.247059
0.552941 1.000000 0.239216
0.709804 1.000000 0.231373
0.862745 1.000000 0.227451
1.000000 1.000000 0.219608
1.000000 1.000000 0.219608
0.023529 0.007843 0.470588
0.172549 0.000000 0.462745
0.329412 0.000000 0.458824
0.482353 0.000000 0.450980
0.639216 0.000000 0.447059
0.796078 0.000000 0.439216
0.949020 0.000000 0.431373
1.000000 0.000000 0.427451
1.000000 0.000000 0.427451
0.011765 0.141176 0.458824
0.160784 0.133333 0.454902
0.317647 0.125490 0.447059
0.470588 0.121569 0.439216
0.627451 0.113725 0.435294
0.784314 0.109804 0.427451
0.937255 0.101961 0.423529
1.000000 0.094118 0.415686
1.000000 0.094118 0.415686
0.000000 0.278431 0.447059
0.149020 0.270588 0.443137
0.305882 0.262745 0.435294
0.462745 0.258824 0.431373
0.615686 0.250980 0.423529
0.772549 0.247059 0.415686
0.925490 0.239216 0.411765
1.000000 0.235294 0.403922
1.000000 0.235294 0.403922
0.000000 0.415686 0.435294
0.137255 0.407843 0.431373
0.294118 0.400000 0.423529
0.450980 0.396078 0.419608
0.603922 0.388235 0.411765
0.760784 0.384314 0.403922
0.913725 0.376471 0.400000
1.000000 0.372549 0.392157
1.000000 0.372549 0.392157
0.000000 0.556863 0.423529
0.125490 0.549020 0.419608
0.282353 0.545098 0.411765
0.439216 0.537255 0.407843
0.592157 0.529412 0.400000
0.749020 0.525490 0.392157
0.901961 0.517647 0.388235
1.000000 0.513725 0.380392
1.000000 0.513725 0.380392
0.000000 0.694118 0.411765
0.113725 0.686275 0.407843
0.270588 0.682353 0.400000
0.427451 0.674510 0.396078
0.584314 0.666667 0.388235
0.737255 0.662745 0.384314
0.890196 0.654902 0.376471
1.000000 0.650980 0.368627
1.000000 0.650980 0.368627
0.000000 0.831373 0.403922
0.101961 0.823529 0.396078
0.258824 0.819608 0.388235
0.415686 0.811765 0.384314
0.572549 0.803922 0.376471
0.725490 0.800000 0.372549
0.878431 0.792157 0.364706
1.000000 0.788235 0.360784
1.000000 0.788235 0.360784
0.000000 0.968627 0.392157
0.090196 0.960784 0.384314
0.247059 0.956863 0.380392
0.403922 0.949020 0.372549
0.560784 0.945098 0.364706
0.717647 0.937255 0.360784
0.866667 0.929412 0.352941
1.000000 0.925490 0.349020
1.000000 0.925490 0.349020
0.000000 1.000000 0.384314
0.086275 1.000000 0.376471
0.239216 1.000000 0.372549
0.396078 1.000000 0.364706
0.552941 1.000000 0.360784
0.709804 1.000000 0.352941
0.858824 1.000000 0.345098
1.000000 1.000000 0.341176
1.000000 1.000000 0.341176
0.023529 0.003922 0.596078
0.168627 0.000000 0.588235
0.325490 0.000000 0.584314
0.482353 0.000000 0.576471
0.639216 0.000000 0.568627
0.792157 0.000000 0.564706
0.945098 0.000000 0.556863
1.000000 0.000000 0.552941
1.000000 0.000000 0.552941
0.011765 0.137255 0.584314
0.156863 0.133333 0.576471
0.313725 0.125490 0.572549
0.470588 0.117647 0.564706
0.627451 0.113725 0.560784
0.784314 0.105882 0.552941
0.933333 0.101961 0.545098
1.000000 0.094118 0.541176
1.000000 0.094118 0.541176
0.000000 0.274510 0.572549
0.149020 0.270588 0.564706
0.301961 0.262745 0.560784
0.458824 0.254902 0.552941
0.615686 0.250980 0.549020
0.772549 0.243137 0.541176
0.921569 0.239216 0.533333
1.000000 0.231373 0.529412
1.000000 0.231373 0.529412
0.000000 0.411765 0.560784
0.137255 0.407843 0.556863
0.290196 0.400000 0.549020
0.447059 0.392157 0.541176
0.603922 0.388235 0.537255
0.760784 0.380392 0.529412
0.909804 0.376471 0.525490
1.000000 0.368627 0.517647
1.000000 0.368627 0.517647
0.000000 0.552941 0.549020
0.125490 0.549020 0.545098
0.278431 0.541176 0.537255
0.435294 0.537255 0.529412
0.592157 0.529412 0.525490
0.749020 0.521569 0.517647
0.898039 0.517647 0.513725
1.000000 0.509804 0.505882
1.000000 0.509804 0.505882
0.000000 0.690196 0.537255
0.113725 0.686275 0.533333
0.270588 0.678431 0.525490
0.423529 0.674510 0.517647
0.580392 0.666667 0.513725
0.737255 0.658824 0.505882
0.890196 0.654902 0.501961
1.000000 0.647059 0.494118
1.000000 0.647059 0.494118
0.000000 0.827451 0.525490
0.101961 0.823529 0.521569
0.258824 0.815686 0.513725
0.411765 0.811765 0.509804
0.568627 0.803922 0.501961
0.725490 0.796078 0.494118
0.878431 0.792157 0.490196
1.000000 0.784314 0.482353
1.000000 0.784314 0.482353
0.000000 0.964706 0.513725
0.090196 0.960784 0.509804
0.247059 0.952941 0.501961
0.400000 0.949020 0.498039
0.556863 0.941176 0.490196
0.713725 0.933333 0.482353
0.866667 0.929412 0.478431
1.000000 0.921569 0.470588
1.000000 0.921569 0.470588
0.000000 1.000000 0.509804
0.082353 1.000000 0.501961
0.239216 1.000000 0.494118
0.396078 1.000000 0.490196
0.552941 1.000000 0.482353
0.705882 1.000000 0.478431
0.858824 1.000000 0.470588
1.000000 1.000000 0.466667
1.000000 1.000000 0.466667
0.019608 0.003922 0.713725
0.168627 0.000000 0.709804
0.325490 0.000000 0.701961
0.478431 0.000000 0.698039
0.635294 0.000000 0.690196
0.792157 0.000000 0.682353
0.945098 0.000000 0.678431
1.000000 0.000000 0.670588
1.000000 0.000000 0.670588
0.007843 0.137255 0.705882
0.156863 0.129412 0.698039
0.313725 0.121569 0.690196
0.470588 0.117647 0.686275
0.623529 0.109804 0.678431
0.780392 0.105882 0.674510
0.933333 0.098039 0.666667
1.000000 0.094118 0.658824
1.000000 0.094118 0.658824
0.000000 0.274510 0.694118
0.145098 0.266667 0.686275
0.301961 0.262745 0.678431
0.458824 0.254902 0.674510
0.611765 0.247059 0.666667
0.768627 0.243137 0.662745
0.921569 0.235294 0.654902
1.000000 0.231373 0.650980
1.000000 0.231373 0.650980
0.000000 0.411765 0.682353
0.133333 0.403922 0.674510
0.290196 0.400000 0.670588
0.447059 0.392157 0.662745
0.603922 0.384314 0.654902
0.756863 0.380392 0.650980
0.909804 0.372549 0.643137
1.000000 0.368627 0.639216
1.000000 0.368627 0.639216
0.000000 0.552941 0.670588
0.121569 0.545098 0.662745
0.278431 0.541176 0.658824
0.435294 0.533333 0.650980
0.592157 0.525490 0.643137
0.745098 0.521569 0.639216
0.898039 0.513725 0.631373
1.000000 0.509804 0.627451
1.000000 0.509804 0.627451
0.000000 0.690196 0.658824
0.109804 0.682353 0.650980
0.266667 0.678431 0.647059
0.423529 0.670588 0.639216
0.580392 0.662745 0.631373
0.733333 0.658824 0.627451
0.886275 0.650980 0.619608
1.000000 0.647059 0.615686
1.000000 0.647059 0.615686
0.000000 0.827451 0.647059
0.098039 0.819608 0.639216
0.254902 0.815686 0.635294
0.411765 0.807843 0.627451
0.568627 0.803922 0.623529
0.725490 0.796078 0.615686
0.874510 0.788235 0.607843
1.000000 0.784314 0.603922
1.000000 0.784314 0.603922
0.000000 0.964706 0.635294
0.086275 0.956863 0.627451
0.243137 0.952941 0.623529
0.400000 0.945098 0.615686
0.556863 0.941176 0.611765
0.713725 0.933333 0.603922
0.862745 0.925490 0.596078
1.000000 0.921569 0.592157
1.000000 0.921569 0.592157
0.000000 1.000000 0.627451
0.082353 1.000000 0.623529
0.235294 1.000000 0.615686
0.392157 1.000000 0.607843
0.549020 1.000000 0.603922
0.705882 1.000000 0.596078
0.858824 1.000000 0.592157
1.000000 1.000000 0.584314
1.000000 1.000000 0.584314
0.019608 0.000000 0.835294
0.164706 0.000000 0.827451
0.321569 0.000000 0.823529
0.478431 0.000000 0.815686
0.635294 0.000000 0.811765
0.788235 0.000000 0.803922
0.941176 0.000000 0.796078
1.000000 0.000000 0.792157
1.000000 0.000000 0.792157
0.007843 0.133333 0.823529
0.156863 0.129412 0.819608
0.309804 0.121569 0.811765
0.466667 0.113725 0.803922
0.623529 0.109804 0.800000
0.780392 0.101961 0.792157
0.929412 0.098039 0.788235
1.000000 0.090196 0.780392
1.000000 0.090196 0.780392
0.000000 0.270588 0.811765
0.145098 0.266667 0.807843
0.298039 0.258824 0.800000
0.454902 0.250980 0.792157
0.611765 0.247059 0.788235
0.768627 0.239216 0.780392
0.917647 0.235294 0.776471
1.000000 0.227451 0.768627
1.000000 0.227451 0.768627
0.000000 0.407843 0.800000
0.133333 0.403922 0.796078
0.286275 0.396078 0.788235
0.443137 0.388235 0.784314
0.600000 0.384314 0.776471
0.756863 0.376471 0.768627
0.909804 0.372549 0.764706
1.000000 0.364706 0.756863
1.000000 0.364706 0.756863
0.000000 0.549020 0.788235
0.121569 0.545098 0.784314
0.274510 0.537255 0.776471
0.431373 0.533333 0.772549
0.588235 0.525490 0.764706
0.745098 0.517647 0.756863
0.898039 0.513725 0.752941
1.000000 0.505882 0.745098
1.000000 0.505882 0.745098
0.000000 0.686275 0.776471
0.109804 0.682353 0.772549
0.266667 0.674510 0.764706
0.419608 0.670588 0.760784
0.576471 0.662745 0.752941
0.733333 0.654902 0.745098
0.886275 0.650980 0.741176
1.000000 0.643137 0.733333
1.000000 0.643137 0.733333
0.000000 0.823529 0.764706
0.098039 0.819608 0.760784
0.254902 0.811765 0.752941
0.407843 0.807843 0.749020
0.564706 0.800000 0.741176
0.721569 0.792157 0.733333
0.874510 0.788235 0.729412
1.000000 0.780392 0.721569
1.000000 0.780392 0.721569
0.000000 0.960784 0.756863
0.086275 0.956863 0.749020
0.243137 0.949020 0.741176
0.400000 0.945098 0.737255
0.552941 0.937255 0.729412
0.709804 0.929412 0.725490
0.862745 0.925490 0.717647
1.000000 0.917647 0.709804
1.000000 0.917647 0.709804
0.000000 1.000000 0.749020
0.078431 1.000000 0.741176
0.235294 1.000000 0.737255
0.392157 1.000000 0.729412
0.549020 1.000000 0.721569
0.701961 1.000000 0.717647
0.854902 1.000000 0.709804
1.000000 1.000000 0.705882
1.000000 1.000000 0.705882
0.015686 0.000000 0.952941
0.164706 0.000000 0.949020
0.321569 0.000000 0.941176
0.474510 0.000000 0.937255
0.631373 0.000000 0.929412
0.788235 0.000000 0.925490
0.941176 0.000000 0.917647
1.000000 0.000000 0.909804
1.000000 0.000000 0.909804
0.003922 0.133333 0.945098
0.152941 0.125490 0.937255
0.309804 0.121569 0.933333
0.466667 0.113725 0.925490
0.619608 0.105882 0.917647
0.776471 0.101961 0.913725
0.929412 0.094118 0.905882
1.000000 0.090196 0.901961
1.000000 0.090196 0.901961
0.000000 0.270588 0.933333
0.141176 0.262745 0.925490
0.298039 0.258824 0.921569
0.454902 0.250980 0.913725
0.611765 0.243137 0.905882
0.764706 0.239216 0.901961
0.917647 0.231373 0.894118
1.000000 0.227451 0.890196
1.000000 0.227451 0.890196
0.000000 0.407843 0.921569
0.129412 0.400000 0.913725
0.286275 0.396078 0.909804
0.443137 0.388235 0.901961
0.600000 0.380392 0.898039
0.752941 0.376471 0.890196
0.905882 0.368627 0.882353
1.000000 0.364706 0.878431
1.000000 0.364706 0.878431
0.000000 0.549020 0.909804
0.117647 0.541176 0.901961
0.274510 0.537255 0.898039
0.431373 0.529412 0.890196
0.588235 0.525490 0.886275
0.741176 0.517647 0.878431
0.894118 0.509804 0.870588
1.000000 0.505882 0.866667
1.000000 0.505882 0.866667
0.000000 0.686275 0.898039
0.105882 0.678431 0.890196
0.262745 0.674510 0.886275
0.419608 0.666667 0.878431
0.576471 0.662745 0.874510
0.729412 0.654902 0.866667
0.882353 0.647059 0.858824
1.000000 0.643137 0.854902
1.000000 0.643137 0.854902
0.000000 0.823529 0.886275
0.094118 0.815686 0.882353
0.250980 0.811765 0.874510
0.407843 0.803922 0.866667
0.564706 0.800000 0.862745
0.721569 0.792157 0.854902
0.870588 0.784314 0.850980
1.000000 0.780392 0.843137
1.000000 0.780392 0.843137
0.000000 0.960784 0.874510
0.086275 0.952941 0.870588
0.239216 0.949020 0.862745
0.396078 0.941176 0.854902
0.552941 0.937255 0.850980
0.709804 0.929412 0.843137
0.858824 0.921569 0.839216
1.000000 0.917647 0.831373
1.000000 0.917647 0.831373
0.000000 1.000000 0.866667
0.078431 1.000000 0.862745
0.235294 1.000000 0.854902
0.388235 1.000000 0.850980
0.545098 1.000000 0.843137
0.701961 1.000000 0.835294
0.854902 1.000000 0.831373
1.000000 1.000000 0.823529
1.000000 1.000000 0.823529
