booth/assets/luts/party_pop.cube
TITLE "Party Pop"
LUT_3D_SIZE 33
0.082353 0.047059 0.098039
0.090196 0.043137 0.094118
0.109804 0.043137 0.094118
0.125490 0.043137 0.094118
0.149020 0.039216 0.090196
0.172549 0.039216 0.090196
0.196078 0.035294 0.086275
0.227451 0.035294 0.086275
0.262745 0.031373 0.082353
0.298039 0.027451 0.078431
0.337255 0.027451 0.078431
0.384314 0.023529 0.074510
0.431373 0.019608 0.070588
0.486275 0.015686 0.066667
0.541176 0.011765 0.062745
0.600000 0.007843 0.058824
0.654902 0.003922 0.054902
0.713725 0.000000 0.050980
0.768627 0.000000 0.047059
0.819608 0.000000 0.043137
0.874510 0.000000 0.039216
0.925490 0.000000 0.035294
0.972549 0.000000 0.031373
1.000000 0.000000 0.027451
1.000000 0.000000 0.023529
1.000000 0.000000 0.023529
1.000000 0.000000 0.019608
1.000000 0.000000 0.015686
1.000000 0.000000 0.015686
1.000000 0.000000 0.015686
1.000000 0.000000 0.011765
1.000000 0.000000 0.011765
1.000000 0.000000 0.011765
0.078431 0.054902 0.094118
0.090196 0.054902 0.094118
0.109804 0.050980 0.094118
0.121569 0.050980 0.090196
0.145098 0.050980 0.090196
0.168627 0.047059 0.086275
0.192157 0.047059 0.086275
0.227451 0.043137 0.082353
0.258824 0.039216 0.082353
0.298039 0.039216 0.078431
0.337255 0.035294 0.074510
0.384314 0.031373 0.070588
0.431373 0.027451 0.070588
0.482353 0.023529 0.066667
0.541176 0.019608 0.058824
0.596078 0.015686 0.054902
0.654902 0.011765 0.050980
0.709804 0.007843 0.047059
0.768627 0.003922 0.043137
0.819608 0.000000 0.039216
0.870588 0.000000 0.035294
0.925490 0.000000 0.031373
0.972549 0.000000 0.027451
1.000000 0.000000 0.027451
1.000000 0.000000 0.023529
1.000000 0.000000 0.019608
1.000000 0.000000 0.019608
1.000000 0.000000 0.015686
1.000000 0.000000 0.015686
1.000000 0.000000 0.011765
1.000000 0.000000 0.011765
1.000000 0.000000 0.011765
1.000000 0.000000 0.011765
0.078431 0.066667 0.094118
0.086275 0.066667 0.090196
0.105882 0.066667 0.090196
0.121569 0.062745 0.090196
0.145098 0.062745 0.086275
0.168627 0.058824 0.086275
0.192157 0.058824 0.082353
0.223529 0.054902 0.082353
0.258824 0.054902 0.078431
0.294118 0.050980 0.078431
0.333333 0.047059 0.074510
0.380392 0.043137 0.070588
0.427451 0.043137 0.066667
0.482353 0.039216 0.062745
0.537255 0.031373 0.058824
0.596078 0.027451 0.054902
0.650980 0.023529 0.050980
0.709804 0.019608 0.047059
0.764706 0.015686 0.043137
0.819608 0.011765 0.039216
0.870588 0.007843 0.035294
0.921569 0.003922 0.031373
0.968627 0.000000 0.027451
1.000000 0.000000 0.023529
1.000000 0.000000 0.019608
1.000000 0.000000 0.019608
1.000000 0.000000 0.015686
1.000000 0.000000 0.011765
1.000000 0.000000 0.011765
1.000000 0.000000 0.011765
1.000000 0.000000 0.011765
1.000000 0.000000 0.011765
1.000000 0.000000 0.011765
0.074510 0.082353 0.090196
0.086275 0.078431 0.090196
0.101961 0.078431 0.090196
0.117647 0.078431 0.086275
0.141176 0.074510 0.086275
0.164706 0.074510 0.082353
0.188235 0.070588 0.082353
0.223529 0.070588 0.078431
0.254902 0.066667 0.078431
0.294118 0.062745 0.074510
0.333333 0.062745 0.070588
0.380392 0.058824 0.066667
0.427451 0.054902 0.062745
0.478431 0.050980 0.058824
0.537255 0.047059 0.054902
0.592157 0.043137 0.050980
0.650980 0.039216 0.047059
0.705882 0.035294 0.043137
0.764706 0.031373 0.039216
0.815686 0.027451 0.035294
0.866667 0.023529 0.031373
0.921569 0.019608 0.027451
0.968627 0.015686 0.023529
1.000000 0.011765 0.019608
1.000000 0.007843 0.019608
1.000000 0.007843 0.015686
1.000000 0.003922 0.011765
1.000000 0.000000 0.011765
1.000000 0.000000 0.007843
1.000000 0.000000 0.007843
1.000000 0.000000 0.007843
1.000000 0.000000 0.007843
1.000000 0.000000 0.007843
0.074510 0.098039 0.086275
0.082353 0.098039 0.086275
0.101961 0.094118 0.086275
0.113725 0.094118 0.086275
0.137255 0.094118 0.082353
0.164706 0.090196 0.082353
0.188235 0.090196 0.078431
0.219608 0.086275 0.078431
0.254902 0.086275 0.074510
0.290196 0.082353 0.070588
0.329412 0.078431 0.070588
0.376471 0.074510 0.066667
0.423529 0.070588 0.062745
0.474510 0.066667 0.058824
0.533333 0.062745 0.054902
0.588235 0.058824 0.050980
0.647059 0.054902 0.047059
0.701961 0.050980 0.039216
0.760784 0.047059 0.035294
0.811765 0.043137 0.031373
0.866667 0.039216 0.027451
0.917647 0.035294 0.023529
0.964706 0.031373 0.023529
1.000000 0.027451 0.019608
1.000000 0.027451 0.015686
1.000000 0.023529 0.011765
1.000000 0.019608 0.011765
1.000000 0.019608 0.007843
1.000000 0.015686 0.007843
1.000000 0.015686 0.003922
1.000000 0.015686 0.003922
1.000000 0.015686 0.003922
1.000000 0.015686 0.003922
0.070588 0.117647 0.086275
0.078431 0.113725 0.086275
0.098039 0.113725 0.082353
0.113725 0.113725 0.082353
0.137255 0.109804 0.078431
0.160784 0.109804 0.078431
0.184314 0.105882 0.078431
0.215686 0.105882 0.074510
0.250980 0.101961 0.070588
0.286275 0.098039 0.070588
0.325490 0.098039 0.066667
0.372549 0.094118 0.062745
0.419608 0.090196 0.058824
0.474510 0.086275 0.054902
0.529412 0.082353 0.050980
0.588235 0.078431 0.047059
0.643137 0.074510 0.043137
0.701961 0.070588 0.039216
0.756863 0.066667 0.035294
0.811765 0.062745 0.031373
0.862745 0.058824 0.027451
0.913725 0.054902 0.023529
0.960784 0.050980 0.019608
1.000000 0.047059 0.015686
1.000000 0.043137 0.011765
1.000000 0.043137 0.011765
1.000000 0.039216 0.007843
1.000000 0.035294 0.007843
1.000000 0.035294 0.003922
1.000000 0.035294 0.003922
1.000000 0.031373 0.003922
1.000000 0.031373 0.003922
1.000000 0.031373 0.003922
0.066667 0.137255 0.082353
0.074510 0.137255 0.082353
0.094118 0.137255 0.078431
0.109804 0.133333 0.078431
0.133333 0.133333 0.078431
0.156863 0.129412 0.074510
0.180392 0.129412 0.074510
0.211765 0.125490 0.070588
0.247059 0.125490 0.066667
0.286275 0.121569 0.066667
0.321569 0.117647 0.062745
0.368627 0.113725 0.058824
0.415686 0.109804 0.054902
0.470588 0.109804 0.050980
0.525490 0.101961 0.047059
0.584314 0.098039 0.043137
0.639216 0.094118 0.039216
0.698039 0.090196 0.035294
0.752941 0.086275 0.031373
0.807843 0.082353 0.027451
0.858824 0.078431 0.023529
0.909804 0.074510 0.019608
0.956863 0.070588 0.015686
1.000000 0.066667 0.011765
1.000000 0.066667 0.007843
1.000000 0.062745 0.007843
1.000000 0.058824 0.003922
1.000000 0.058824 0.003922
1.000000 0.058824 0.000000
1.000000 0.054902 0.000000
1.000000 0.054902 0.000000
1.000000 0.054902 0.000000
1.000000 0.054902 0.000000
0.062745 0.164706 0.078431
0.070588 0.164706 0.078431
0.090196 0.160784 0.074510
0.105882 0.160784 0.074510
0.129412 0.160784 0.074510
0.152941 0.156863 0.070588
0.176471 0.156863 0.070588
0.207843 0.152941 0.066667
0.243137 0.149020 0.062745
0.282353 0.149020 0.062745
0.317647 0.145098 0.058824
0.364706 0.141176 0.054902
0.411765 0.137255 0.050980
0.466667 0.133333 0.047059
0.521569 0.129412 0.043137
0.580392 0.125490 0.039216
0.635294 0.121569 0.035294
0.694118 0.117647 0.031373
0.749020 0.113725 0.027451
0.803922 0.109804 0.023529
0.854902 0.105882 0.019608
0.905882 0.101961 0.015686
0.952941 0.098039 0.011765
0.996078 0.094118 0.007843
1.000000 0.090196 0.003922
1.000000 0.090196 0.003922
1.000000 0.086275 0.000000
1.000000 0.086275 0.000000
1.000000 0.082353 0.000000
1.000000 0.082353 0.000000
1.000000 0.082353 0.000000
1.000000 0.082353 0.000000
1.000000 0.082353 0.000000
0.058824 0.192157 0.074510
0.066667 0.188235 0.074510
0.086275 0.188235 0.070588
0.101961 0.188235 0.070588
0.125490 0.184314 0.066667
0.149020 0.184314 0.066667
0.172549 0.180392 0.066667
0.203922 0.180392 0.062745
0.239216 0.176471 0.058824
0.274510 0.172549 0.058824
0.313725 0.172549 0.054902
0.360784 0.168627 0.050980
0.407843 0.164706 0.047059
0.462745 0.160784 0.043137
0.517647 0.156863 0.039216
0.576471 0.152941 0.035294
0.631373 0.149020 0.031373
0.690196 0.145098 0.027451
0.745098 0.141176 0.023529
0.800000 0.137255 0.019608
0.850980 0.133333 0.015686
0.901961 0.129412 0.011765
0.949020 0.125490 0.007843
0.992157 0.121569 0.003922
1.000000 0.117647 0.000000
1.000000 0.117647 0.000000
1.000000 0.113725 0.000000
1.000000 0.109804 0.000000
1.000000 0.109804 0.000000
1.000000 0.109804 0.000000
1.000000 0.109804 0.000000
1.000000 0.109804 0.000000
1.000000 0.109804 0.000000
0.054902 0.219608 0.066667
0.062745 0.219608 0.066667
0.082353 0.219608 0.066667
0.094118 0.219608 0.066667
0.121569 0.215686 0.062745
0.145098 0.215686 0.062745
0.168627 0.211765 0.058824
0.200000 0.211765 0.058824
0.235294 0.207843 0.054902
0.270588 0.203922 0.050980
0.309804 0.203922 0.050980
0.356863 0.200000 0.047059
0.403922 0.196078 0.043137
0.454902 0.192157 0.039216
0.513725 0.188235 0.035294
0.572549 0.184314 0.031373
0.627451 0.180392 0.027451
0.686275 0.176471 0.023529
0.741176 0.168627 0.015686
0.792157 0.164706 0.011765
0.847059 0.164706 0.011765
0.898039 0.160784 0.007843
0.945098 0.156863 0.003922
0.988235 0.152941 0.000000
1.000000 0.149020 0.000000
1.000000 0.145098 0.000000
1.000000 0.145098 0.000000
1.000000 0.141176 0.000000
1.000000 0.141176 0.000000
1.000000 0.141176 0.000000
1.000000 0.137255 0.000000
1.000000 0.137255 0.000000
1.000000 0.137255 0.000000
0.047059 0.254902 0.062745
0.058824 0.254902 0.062745
0.074510 0.254902 0.062745
0.090196 0.254902 0.058824
0.113725 0.250980 0.058824
0.137255 0.250980 0.054902
0.160784 0.247059 0.054902
0.196078 0.247059 0.050980
0.227451 0.243137 0.050980
0.266667 0.239216 0.047059
0.305882 0.239216 0.043137
0.352941 0.235294 0.039216
0.400000 0.231373 0.035294
0.450980 0.227451 0.031373
0.509804 0.223529 0.027451
0.564706 0.219608 0.023529
0.623529 0.215686 0.019608
0.678431 0.211765 0.015686
0.737255 0.203922 0.011765
0.788235 0.200000 0.007843
0.839216 0.200000 0.003922
0.894118 0.196078 0.000000
0.941176 0.192157 0.000000
0.984314 0.188235 0.000000
1.000000 0.184314 0.000000
1.000000 0.180392 0.000000
1.000000 0.180392 0.000000
1.000000 0.176471 0.000000
1.000000 0.176471 0.000000
1.000000 0.172549 0.000000
1.000000 0.172549 0.000000
1.000000 0.172549 0.000000
1.000000 0.172549 0.000000
0.043137 0.290196 0.058824
0.050980 0.290196 0.054902
0.070588 0.290196 0.054902
0.086275 0.290196 0.054902
0.109804 0.286275 0.050980
0.133333 0.286275 0.050980
0.156863 0.282353 0.050980
0.188235 0.282353 0.047059
0.223529 0.278431 0.043137
0.258824 0.274510 0.043137
0.298039 0.274510 0.039216
0.345098 0.270588 0.035294
0.392157 0.266667 0.031373
0.447059 0.262745 0.027451
0.501961 0.258824 0.023529
0.560784 0.254902 0.019608
0.615686 0.250980 0.015686
0.674510 0.247059 0.011765
0.729412 0.239216 0.007843
0.784314 0.235294 0.003922
0.835294 0.231373 0.000000
0.886275 0.231373 0.000000
0.933333 0.227451 0.000000
0.976471 0.223529 0.000000
1.000000 0.219608 0.000000
1.000000 0.215686 0.000000
1.000000 0.215686 0.000000
1.000000 0.211765 0.000000
1.000000 0.211765 0.000000
1.000000 0.207843 0.000000
1.000000 0.207843 0.000000
1.000000 0.207843 0.000000
1.000000 0.207843 0.000000
0.035294 0.333333 0.050980
0.047059 0.329412 0.050980
0.062745 0.329412 0.050980
0.078431 0.329412 0.047059
0.101961 0.325490 0.047059
0.125490 0.325490 0.043137
0.149020 0.321569 0.043137
0.184314 0.321569 0.039216
0.215686 0.317647 0.039216
0.254902 0.313725 0.035294
0.294118 0.313725 0.031373
0.341176 0.309804 0.027451
0.388235 0.305882 0.023529
0.439216 0.301961 0.019608
0.498039 0.298039 0.015686
0.552941 0.294118 0.011765
0.611765 0.290196 0.007843
0.666667 0.286275 0.003922
0.725490 0.282353 0.000000
0.776471 0.278431 0.000000
0.827451 0.274510 0.000000
0.882353 0.270588 0.000000
0.929412 0.266667 0.000000
0.972549 0.262745 0.000000
1.000000 0.258824 0.000000
1.000000 0.258824 0.000000
1.000000 0.254902 0.000000
1.000000 0.250980 0.000000
1.000000 0.250980 0.000000
1.000000 0.250980 0.000000
1.000000 0.250980 0.000000
1.000000 0.250980 0.000000
1.000000 0.250980 0.000000
0.027451 0.376471 0.043137
0.039216 0.376471 0.043137
0.058824 0.372549 0.043137
0.070588 0.372549 0.043137
0.094118 0.372549 0.039216
0.117647 0.368627 0.039216
0.141176 0.368627 0.035294
0.176471 0.364706 0.035294
0.207843 0.360784 0.031373
0.247059 0.360784 0.027451
0.286275 0.356863 0.023529
0.333333 0.352941 0.023529
0.380392 0.349020 0.019608
0.431373 0.345098 0.015686
0.490196 0.341176 0.011765
0.545098 0.337255 0.007843
0.603922 0.333333 0.000000
0.658824 0.329412 0.000000
0.717647 0.325490 0.000000
0.768627 0.321569 0.000000
0.823529 0.317647 0.000000
0.874510 0.313725 0.000000
0.921569 0.309804 0.000000
0.964706 0.305882 0.000000
1.000000 0.301961 0.000000
1.000000 0.301961 0.000000
1.000000 0.298039 0.000000
1.000000 0.298039 0.000000
1.000000 0.294118 0.000000
1.000000 0.294118 0.000000
1.000000 0.294118 0.000000
1.000000 0.294118 0.000000
1.000000 0.294118 0.000000
0.023529 0.419608 0.039216
0.031373 0.419608 0.035294
0.050980 0.419608 0.035294
0.066667 0.415686 0.035294
0.090196 0.415686 0.031373
0.113725 0.411765 0.031373
0.137255 0.411765 0.027451
0.168627 0.407843 0.027451
0.203922 0.407843 0.023529
0.239216 0.403922 0.019608
0.278431 0.400000 0.019608
0.325490 0.396078 0.015686
0.372549 0.392157 0.011765
0.427451 0.388235 0.007843
0.482353 0.384314 0.003922
0.541176 0.380392 0.000000
0.596078 0.376471 0.000000
0.654902 0.372549 0.000000
0.709804 0.368627 0.000000
0.760784 0.364706 0.000000
0.815686 0.360784 0.000000
0.866667 0.356863 0.000000
0.913725 0.352941 0.000000
0.956863 0.349020 0.000000
0.996078 0.349020 0.000000
1.000000 0.345098 0.000000
1.000000 0.341176 0.000000
1.000000 0.341176 0.000000
1.000000 0.337255 0.000000
1.000000 0.337255 0.000000
1.000000 0.337255 0.000000
1.000000 0.337255 0.000000
1.000000 0.337255 0.000000
0.015686 0.466667 0.031373
0.023529 0.466667 0.027451
0.043137 0.466667 0.027451
0.058824 0.466667 0.027451
0.082353 0.462745 0.023529
0.105882 0.462745 0.023529
0.129412 0.458824 0.019608
0.160784 0.458824 0.019608
0.196078 0.454902 0.015686
0.231373 0.450980 0.015686
0.270588 0.450980 0.011765
0.317647 0.447059 0.007843
0.364706 0.443137 0.003922
0.419608 0.439216 0.000000
0.474510 0.435294 0.000000
0.533333 0.431373 0.000000
0.588235 0.427451 0.000000
0.647059 0.419608 0.000000
0.701961 0.415686 0.000000
0.756863 0.411765 0.000000
0.807843 0.407843 0.000000
0.858824 0.403922 0.000000
0.905882 0.403922 0.000000
0.949020 0.400000 0.000000
0.988235 0.396078 0.000000
1.000000 0.392157 0.000000
1.000000 0.392157 0.000000
1.000000 0.388235 0.000000
1.000000 0.388235 0.000000
1.000000 0.384314 0.000000
1.000000 0.384314 0.000000
1.000000 0.384314 0.000000
1.000000 0.384314 0.000000
0.007843 0.513725 0.023529
0.015686 0.509804 0.023529
0.035294 0.509804 0.019608
0.050980 0.509804 0.019608
0.074510 0.505882 0.019608
0.098039 0.505882 0.015686
0.121569 0.505882 0.015686
0.152941 0.501961 0.011765
0.188235 0.498039 0.007843
0.227451 0.498039 0.007843
0.262745 0.494118 0.003922
0.309804 0.490196 0.000000
0.360784 0.486275 0.000000
0.411765 0.482353 0.000000
0.466667 0.478431 0.000000
0.525490 0.474510 0.000000
0.580392 0.470588 0.000000
0.639216 0.466667 0.000000
0.694118 0.462745 0.000000
0.749020 0.458824 0.000000
0.800000 0.454902 0.000000
0.850980 0.450980 0.000000
0.901961 0.447059 0.000000
0.941176 0.443137 0.000000
0.980392 0.439216 0.000000
1.000000 0.439216 0.000000
1.000000 0.435294 0.000000
1.000000 0.431373 0.000000
1.000000 0.431373 0.000000
1.000000 0.431373 0.000000
1.000000 0.431373 0.000000
1.000000 0.431373 0.000000
1.000000 0.431373 0.000000
0.000000 0.560784 0.015686
0.007843 0.560784 0.015686
0.027451 0.556863 0.011765
0.043137 0.556863 0.011765
0.066667 0.556863 0.011765
0.090196 0.552941 0.007843
0.113725 0.552941 0.007843
0.149020 0.549020 0.003922
0.180392 0.549020 0.003922
0.219608 0.545098 0.000000
0.254902 0.541176 0.000000
0.301961 0.537255 0.000000
0.352941 0.533333 0.000000
0.403922 0.529412 0.000000
0.458824 0.525490 0.000000
0.517647 0.521569 0.000000
0.572549 0.517647 0.000000
0.631373 0.513725 0.000000
0.690196 0.509804 0.000000
0.741176 0.505882 0.000000
0.792157 0.501961 0.000000
0.843137 0.498039 0.000000
0.894118 0.494118 0.000000
0.933333 0.490196 0.000000
0.972549 0.490196 0.000000
1.000000 0.486275 0.000000
1.000000 0.482353 0.000000
1.000000 0.482353 0.000000
1.000000 0.478431 0.000000
1.000000 0.478431 0.000000
1.000000 0.478431 0.000000
1.000000 0.478431 0.000000
1.000000 0.478431 0.000000
0.000000 0.603922 0.007843
0.003922 0.603922 0.007843
0.023529 0.603922 0.007843
0.035294 0.600000 0.003922
0.058824 0.600000 0.003922
0.082353 0.600000 0.000000
0.105882 0.596078 0.000000
0.141176 0.592157 0.000000
0.172549 0.592157 0.000000
0.211765 0.588235 0.000000
0.250980 0.584314 0.000000
0.298039 0.584314 0.000000
0.345098 0.580392 0.000000
0.396078 0.576471 0.000000
0.454902 0.572549 0.000000
0.509804 0.564706 0.000000
0.568627 0.560784 0.000000
0.623529 0.556863 0.000000
0.682353 0.552941 0.000000
0.733333 0.549020 0.000000
0.784314 0.545098 0.000000
0.839216 0.541176 0.000000
0.886275 0.537255 0.000000
0.929412 0.537255 0.000000
0.964706 0.533333 0.000000
1.000000 0.529412 0.000000
1.000000 0.529412 0.000000
1.000000 0.525490 0.000000
1.000000 0.525490 0.000000
1.000000 0.521569 0.000000
1.000000 0.521569 0.000000
1.000000 0.521569 0.000000
1.000000 0.521569 0.000000
0.000000 0.654902 0.000000
0.000000 0.650980 0.000000
0.015686 0.650980 0.000000
0.027451 0.650980 0.000000
0.050980 0.647059 0.000000
0.074510 0.647059 0.000000
0.098039 0.643137 0.000000
0.133333 0.643137 0.000000
0.164706 0.639216 0.000000
0.203922 0.639216 0.000000
0.243137 0.635294 0.000000
0.290196 0.631373 0.000000
0.337255 0.627451 0.000000
0.388235 0.623529 0.000000
0.447059 0.619608 0.000000
0.501961 0.615686 0.000000
0.560784 0.611765 0.000000
0.615686 0.607843 0.000000
0.674510 0.603922 0.000000
0.725490 0.600000 0.000000
0.776471 0.596078 0.000000
0.831373 0.592157 0.000000
0.878431 0.588235 0.000000
0.921569 0.584314 0.000000
0.956863 0.580392 0.000000
0.992157 0.580392 0.000000
1.000000 0.576471 0.000000
1.000000 0.572549 0.000000
1.000000 0.572549 0.000000
1.000000 0.572549 0.000000
1.000000 0.572549 0.000000
1.000000 0.572549 0.000000
1.000000 0.572549 0.000000
0.000000 0.694118 0.000000
0.000000 0.694118 0.000000
0.007843 0.690196 0.000000
0.023529 0.690196 0.000000
0.047059 0.686275 0.000000
0.070588 0.686275 0.000000
0.094118 0.686275 0.000000
0.125490 0.682353 0.000000
0.160784 0.678431 0.000000
0.196078 0.678431 0.000000
0.235294 0.674510 0.000000
0.282353 0.670588 0.000000
0.329412 0.666667 0.000000
0.384314 0.662745 0.000000
0.439216 0.658824 0.000000
0.498039 0.654902 0.000000
0.552941 0.650980 0.000000
0.611765 0.647059 0.000000
0.666667 0.643137 0.000000
0.721569 0.639216 0.000000
0.772549 0.635294 0.000000
0.823529 0.631373 0.000000
0.870588 0.627451 0.000000
0.913725 0.623529 0.000000
0.952941 0.619608 0.000000
0.984314 0.619608 0.000000
1.000000 0.615686 0.000000
1.000000 0.615686 0.000000
1.000000 0.611765 0.000000
1.000000 0.611765 0.000000
1.000000 0.611765 0.000000
1.000000 0.611765 0.000000
1.000000 0.611765 0.000000
0.000000 0.737255 0.000000
0.000000 0.737255 0.000000
0.000000 0.733333 0.000000
0.015686 0.733333 0.000000
0.039216 0.733333 0.000000
0.062745 0.729412 0.000000
0.086275 0.729412 0.000000
0.121569 0.725490 0.000000
0.152941 0.725490 0.000000
0.192157 0.721569 0.000000
0.227451 0.717647 0.000000
0.274510 0.713725 0.000000
0.325490 0.709804 0.000000
0.376471 0.705882 0.000000
0.431373 0.701961 0.000000
0.490196 0.698039 0.000000
0.545098 0.694118 0.000000
0.603922 0.690196 0.000000
0.658824 0.686275 0.000000
0.713725 0.682353 0.000000
0.764706 0.678431 0.000000
0.815686 0.674510 0.000000
0.866667 0.670588 0.000000
0.905882 0.666667 0.000000
0.945098 0.666667 0.000000
0.980392 0.662745 0.000000
1.000000 0.658824 0.000000
1.000000 0.658824 0.000000
1.000000 0.654902 0.000000
1.000000 0.654902 0.000000
1.000000 0.654902 0.000000
1.000000 0.654902 0.000000
1.000000 0.654902 0.000000
0.000000 0.772549 0.000000
0.000000 0.772549 0.000000
0.000000 0.768627 0.000000
0.007843 0.768627 0.000000
0.035294 0.768627 0.000000
0.058824 0.764706 0.000000
0.082353 0.764706 0.000000
0.113725 0.760784 0.000000
0.149020 0.760784 0.000000
0.184314 0.756863 0.000000
0.223529 0.752941 0.000000
0.270588 0.749020 0.000000
0.317647 0.745098 0.000000
0.368627 0.741176 0.000000
0.427451 0.737255 0.000000
0.486275 0.733333 0.000000
0.541176 0.729412 0.000000
0.600000 0.725490 0.000000
0.654902 0.721569 0.000000
0.705882 0.717647 0.000000
0.760784 0.713725 0.000000
0.811765 0.709804 0.000000
0.858824 0.705882 0.000000
0.901961 0.701961 0.000000
0.941176 0.701961 0.000000
0.972549 0.698039 0.000000
1.000000 0.694118 0.000000
1.000000 0.694118 0.000000
1.000000 0.690196 0.000000
1.000000 0.690196 0.000000
1.000000 0.690196 0.000000
1.000000 0.690196 0.000000
1.000000 0.690196 0.000000
0.000000 0.807843 0.000000
0.000000 0.807843 0.000000
0.000000 0.803922 0.000000
0.003922 0.803922 0.000000
0.027451 0.803922 0.000000
0.050980 0.800000 0.000000
0.074510 0.800000 0.000000
0.109804 0.796078 0.000000
0.141176 0.796078 0.000000
0.180392 0.792157 0.000000
0.219608 0.788235 0.000000
0.266667 0.784314 0.000000
0.313725 0.780392 0.000000
0.364706 0.776471 0.000000
0.423529 0.772549 0.000000
0.478431 0.768627 0.000000
0.537255 0.764706 0.000000
0.592157 0.760784 0.000000
0.650980 0.756863 0.000000
0.701961 0.752941 0.000000
0.752941 0.749020 0.000000
0.807843 0.745098 0.000000
0.854902 0.741176 0.000000
0.898039 0.737255 0.000000
0.933333 0.737255 0.000000
0.968627 0.733333 0.000000
1.000000 0.729412 0.000000
1.000000 0.729412 0.000000
1.000000 0.725490 0.000000
1.000000 0.725490 0.000000
1.000000 0.725490 0.000000
1.000000 0.725490 0.000000
1.000000 0.725490 0.000000
0.000000 0.839216 0.000000
0.000000 0.839216 0.000000
0.000000 0.835294 0.000000
0.000000 0.835294 0.000000
0.023529 0.835294 0.000000
0.047059 0.831373 0.000000
0.070588 0.831373 0.000000
0.101961 0.827451 0.000000
0.137255 0.823529 0.000000
0.176471 0.823529 0.000000
0.211765 0.819608 0.000000
0.258824 0.815686 0.000000
0.305882 0.811765 0.000000
0.360784 0.807843 0.000000
0.415686 0.803922 0.000000
0.474510 0.800000 0.000000
0.529412 0.796078 0.000000
0.588235 0.792157 0.000000
0.643137 0.788235 0.000000
0.698039 0.784314 0.000000
0.749020 0.780392 0.000000
0.800000 0.776471 0.000000
0.847059 0.772549 0.000000
0.890196 0.768627 0.000000
0.929412 0.764706 0.000000
0.964706 0.764706 0.000000
0.996078 0.760784 0.000000
1.000000 0.760784 0.000000
1.000000 0.756863 0.000000
1.000000 0.756863 0.000000
1.000000 0.756863 0.000000
1.000000 0.756863 0.000000
1.000000 0.756863 0.000000
0.000000 0.870588 0.000000
0.000000 0.870588 0.000000
0.000000 0.866667 0.000000
0.000000 0.866667 0.000000
0.019608 0.862745 0.000000
0.043137 0.862745 0.000000
0.066667 0.862745 0.000000
0.098039 0.858824 0.000000
0.133333 0.854902 0.000000
0.168627 0.854902 0.000000
0.207843 0.850980 0.000000
0.254902 0.847059 0.000000
0.301961 0.843137 0.000000
0.356863 0.839216 0.000000
0.411765 0.835294 0.000000
0.470588 0.831373 0.000000
0.525490 0.827451 0.000000
0.584314 0.823529 0.000000
0.639216 0.819608 0.000000
0.694118 0.815686 0.000000
0.745098 0.811765 0.000000
0.796078 0.807843 0.000000
0.843137 0.803922 0.000000
0.886275 0.800000 0.000000
0.925490 0.796078 0.000000
0.956863 0.796078 0.000000
0.992157 0.792157 0.000000
1.000000 0.792157 0.000000
1.000000 0.788235 0.000000
1.000000 0.788235 0.000000
1.000000 0.788235 0.000000
1.000000 0.788235 0.000000
1.000000 0.788235 0.000000
0.000000 0.894118 0.000000
0.000000 0.894118 0.000000
0.000000 0.894118 0.000000
0.000000 0.894118 0.000000
0.015686 0.890196 0.000000
0.039216 0.890196 0.000000
0.062745 0.886275 0.000000
0.094118 0.886275 0.000000
0.129412 0.882353 0.000000
0.164706 0.878431 0.000000
0.203922 0.878431 0.000000
0.250980 0.874510 0.000000
0.298039 0.870588 0.000000
0.352941 0.866667 0.000000
0.407843 0.862745 0.000000
0.466667 0.858824 0.000000
0.521569 0.854902 0.000000
0.580392 0.850980 0.000000
0.635294 0.843137 0.000000
0.686275 0.839216 0.000000
0.741176 0.835294 0.000000
0.792157 0.831373 0.000000
0.839216 0.831373 0.000000
0.882353 0.827451 0.000000
0.921569 0.823529 0.000000
0.952941 0.819608 0.000000
0.988235 0.819608 0.000000
1.000000 0.815686 0.000000
1.000000 0.815686 0.000000
