booth/assets/luts/party_pop.cube
TITLE "Party Pop"
LUT_3D_SIZE 5
0.082353 0.047059 0.098039
0.262745 0.031373 0.082353
0.654902 0.003922 0.054902
1.000000 0.000000 0.023529
1.000000 0.000000 0.011765
0.058824 0.192157 0.074510
0.239216 0.176471 0.058824
0.631373 0.149020 0.031373
1.000000 0.117647 0.000000
1.000000 0.109804 0.000000
0.007843 0.513725 0.023529
0.188235 0.498039 0.007843
0.580392 0.470588 0.000000
0.980392 0.439216 0.000000
1.000000 0.431373 0.000000
0.000000 0.839216 0.000000
0.137255 0.823529 0.000000
0.529412 0.796078 0.000000
0.929412 0.764706 0.000000
1.000000 0.756863 0.000000
0.000000 0.992157 0.000000
0.113725 0.980392 0.000000
0.505882 0.949020 0.000000
0.905882 0.921569 0.000000
1.000000 0.909804 0.000000
0.074510 0.039216 0.274510
0.254902 0.027451 0.262745
0.650980 0.000000 0.231373
1.000000 0.000000 0.203922
1.000000 0.000000 0.192157
0.054902 0.184314 0.250980
0.235294 0.172549 0.239216
0.627451 0.145098 0.207843
1.000000 0.113725 0.180392
1.000000 0.101961 0.168627
0.003922 0.505882 0.200000
0.184314 0.494118 0.188235
0.576471 0.466667 0.160784
0.976471 0.435294 0.129412
1.000000 0.423529 0.117647
0.000000 0.835294 0.149020
0.133333 0.819608 0.137255
0.525490 0.792157 0.109804
0.925490 0.760784 0.078431
1.000000 0.752941 0.066667
0.000000 0.988235 0.125490
0.109804 0.976471 0.113725
0.501961 0.945098 0.082353
0.901961 0.917647 0.054902
1.000000 0.905882 0.043137
0.066667 0.031373 0.678431
0.247059 0.015686 0.662745
0.639216 0.000000 0.635294
1.000000 0.000000 0.603922
1.000000 0.000000 0.596078
0.043137 0.176471 0.654902
0.223529 0.160784 0.639216
0.615686 0.133333 0.611765
1.000000 0.101961 0.580392
1.000000 0.094118 0.572549
0.000000 0.498039 0.603922
0.172549 0.482353 0.592157
0.564706 0.454902 0.560784
0.964706 0.423529 0.533333
1.000000 0.415686 0.521569
0.000000 0.823529 0.552941
0.121569 0.807843 0.541176
0.513725 0.780392 0.509804
0.913725 0.749020 0.482353
1.000000 0.741176 0.470588
0.000000 0.976471 0.529412
0.098039 0.964706 0.513725
0.490196 0.933333 0.486275
0.890196 0.905882 0.454902
1.000000 0.894118 0.447059
0.054902 0.019608 1.000000
0.235294 0.003922 1.000000
0.627451 0.000000 1.000000
1.000000 0.000000 1.000000
1.000000 0.000000 1.000000
0.031373 0.164706 1.000000
0.211765 0.149020 1.000000
0.603922 0.121569 1.000000
1.000000 0.090196 0.988235
1.000000 0.082353 0.980392
0.000000 0.486275 1.000000
0.160784 0.470588 0.996078
0.556863 0.443137 0.968627
0.952941 0.411765 0.937255
1.000000 0.403922 0.929412
0.000000 0.811765 0.960784
0.109804 0.800000 0.945098
0.505882 0.768627 0.917647
0.901961 0.741176 0.886275
1.000000 0.729412 0.878431
0.000000 0.964706 0.937255
0.086275 0.952941 0.921569
0.478431 0.925490 0.894118
0.878431 0.894118 0.862745
1.000000 0.882353 0.850980
0.050980 0.015686 1.000000
0.231373 0.000000 1.000000
0.623529 0.000000 1.000000
1.000000 0.000000 1.000000
1.000000 0.000000 1.000000
0.027451 0.160784 1.000000
0.207843 0.145098 1.000000
0.600000 0.117647 1.000000
1.000000 0.086275 1.000000
1.000000 0.078431 1.000000
0.000000 0.482353 1.000000
0.156863 0.466667 1.000000
0.549020 0.439216 1.000000
0.949020 0.407843 1.000000
1.000000 0.400000 1.000000
0.000000 0.807843 1.000000
0.105882 0.792157 1.000000
0.498039 0.764706 1.000000
0.898039 0.737255 1.000000
1.000000 0.725490 1.000000
0.000000 0.960784 1.000000
0.082353 0.949020 1.000000
0.474510 0.917647 1.000000
0.874510 0.890196 1.000000
1.000000 0.878431 1.000000
