booth/assets/luts/party_pop.cube
TITLE "Party Pop"
LUT_3D_SIZE 9
0.082353 0.047059 0.098039
0.149020 0.039216 0.090196
0.262745 0.031373 0.082353
0.431373 0.019608 0.070588
0.654902 0.003922 0.054902
0.874510 0.000000 0.039216
1.000000 0.000000 0.023529
1.000000 0.000000 0.015686
1.000000 0.000000 0.011765
0.074510 0.098039 0.086275
0.137255 0.094118 0.082353
0.254902 0.086275 0.074510
0.423529 0.070588 0.062745
0.647059 0.054902 0.047059
0.866667 0.039216 0.027451
1.000000 0.027451 0.015686
1.000000 0.015686 0.007843
1.000000 0.015686 0.003922
0.058824 0.192157 0.074510
0.125490 0.184314 0.066667
0.239216 0.176471 0.058824
0.407843 0.164706 0.047059
0.631373 0.149020 0.031373
0.850980 0.133333 0.015686
1.000000 0.117647 0.000000
1.000000 0.109804 0.000000
1.000000 0.109804 0.000000
0.035294 0.333333 0.050980
0.101961 0.325490 0.047059
0.215686 0.317647 0.039216
0.388235 0.305882 0.023529
0.611765 0.290196 0.007843
0.827451 0.274510 0.000000
1.000000 0.258824 0.000000
1.000000 0.250980 0.000000
1.000000 0.250980 0.000000
0.007843 0.513725 0.023529
0.074510 0.505882 0.019608
0.188235 0.498039 0.007843
0.360784 0.486275 0.000000
0.580392 0.470588 0.000000
0.800000 0.454902 0.000000
0.980392 0.439216 0.000000
1.000000 0.431373 0.000000
1.000000 0.431373 0.000000
0.000000 0.694118 0.000000
0.047059 0.686275 0.000000
0.160784 0.678431 0.000000
0.329412 0.666667 0.000000
0.552941 0.650980 0.000000
0.772549 0.635294 0.000000
0.952941 0.619608 0.000000
1.000000 0.611765 0.000000
1.000000 0.611765 0.000000
0.000000 0.839216 0.000000
0.023529 0.835294 0.000000
0.137255 0.823529 0.000000
0.305882 0.811765 0.000000
0.529412 0.796078 0.000000
0.749020 0.780392 0.000000
0.929412 0.764706 0.000000
1.000000 0.756863 0.000000
1.000000 0.756863 0.000000
0.000000 0.937255 0.000000
0.007843 0.929412 0.000000
0.121569 0.921569 0.000000
0.294118 0.909804 0.000000
0.517647 0.894118 0.000000
0.733333 0.878431 0.000000
0.913725 0.862745 0.000000
1.000000 0.854902 0.000000
1.000000 0.850980 0.000000
0.000000 0.992157 0.000000
0.000000 0.988235 0.000000
0.113725 0.980392 0.000000
0.282353 0.968627 0.000000
0.505882 0.949020 0.000000
0.725490 0.933333 0.000000
0.905882 0.921569 0.000000
1.000000 0.913725 0.000000
1.000000 0.909804 0.000000
0.078431 0.043137 0.160784
0.145098 0.039216 0.156863
0.258824 0.031373 0.149020
0.431373 0.015686 0.133333
0.654902 0.000000 0.117647
0.870588 0.000000 0.101961
1.000000 0.000000 0.090196
1.000000 0.000000 0.078431
1.000000 0.000000 0.078431
0.070588 0.098039 0.152941
0.137255 0.090196 0.149020
0.250980 0.082353 0.137255
0.423529 0.070588 0.125490
0.647059 0.054902 0.109804
0.862745 0.039216 0.094118
1.000000 0.023529 0.078431
1.000000 0.015686 0.070588
1.000000 0.015686 0.070588
0.054902 0.188235 0.137255
0.121569 0.184314 0.133333
0.235294 0.176471 0.125490
0.407843 0.164706 0.113725
0.631373 0.145098 0.094118
0.847059 0.129412 0.078431
1.000000 0.117647 0.066667
1.000000 0.109804 0.058824
1.000000 0.105882 0.054902
0.035294 0.329412 0.117647
0.101961 0.325490 0.109804
0.215686 0.317647 0.101961
0.384314 0.305882 0.090196
0.607843 0.286275 0.074510
0.827451 0.270588 0.058824
1.000000 0.258824 0.043137
1.000000 0.250980 0.035294
1.000000 0.247059 0.031373
0.007843 0.509804 0.086275
0.070588 0.505882 0.082353
0.188235 0.498039 0.074510
0.356863 0.486275 0.062745
0.580392 0.466667 0.043137
0.800000 0.450980 0.027451
0.980392 0.439216 0.015686
1.000000 0.431373 0.007843
1.000000 0.427451 0.003922
0.000000 0.690196 0.058824
0.043137 0.686275 0.054902
0.156863 0.678431 0.047059
0.329412 0.666667 0.031373
0.552941 0.647059 0.015686
0.768627 0.631373 0.000000
0.949020 0.619608 0.000000
1.000000 0.611765 0.000000
1.000000 0.607843 0.000000
0.000000 0.835294 0.035294
0.019608 0.831373 0.031373
0.133333 0.823529 0.023529
0.305882 0.811765 0.011765
0.529412 0.796078 0.000000
0.749020 0.776471 0.000000
0.929412 0.764706 0.000000
1.000000 0.756863 0.000000
1.000000 0.752941 0.000000
0.000000 0.933333 0.019608
0.007843 0.929412 0.015686
0.121569 0.921569 0.007843
0.290196 0.905882 0.000000
0.513725 0.890196 0.000000
0.733333 0.874510 0.000000
0.913725 0.862745 0.000000
1.000000 0.850980 0.000000
1.000000 0.850980 0.000000
0.000000 0.992157 0.011765
0.000000 0.984314 0.007843
0.109804 0.976471 0.000000
0.282353 0.964706 0.000000
0.505882 0.949020 0.000000
0.721569 0.933333 0.000000
0.901961 0.917647 0.000000
1.000000 0.909804 0.000000
1.000000 0.909804 0.000000
0.074510 0.039216 0.274510
0.141176 0.035294 0.270588
0.254902 0.027451 0.262745
0.427451 0.015686 0.247059
0.650980 0.000000 0.231373
0.870588 0.000000 0.215686
1.000000 0.000000 0.203922
1.000000 0.000000 0.192157
1.000000 0.000000 0.192157
0.066667 0.094118 0.266667
0.133333 0.090196 0.262745
0.247059 0.078431 0.254902
0.419608 0.066667 0.239216
0.643137 0.050980 0.223529
0.858824 0.035294 0.207843
1.000000 0.019608 0.196078
1.000000 0.011765 0.184314
1.000000 0.011765 0.184314
0.054902 0.184314 0.250980
0.121569 0.180392 0.247059
0.235294 0.172549 0.239216
0.403922 0.160784 0.227451
0.627451 0.145098 0.207843
0.847059 0.125490 0.192157
1.000000 0.113725 0.180392
1.000000 0.105882 0.172549
1.000000 0.101961 0.168627
0.031373 0.325490 0.231373
0.098039 0.321569 0.223529
0.211765 0.313725 0.215686
0.384314 0.301961 0.203922
0.603922 0.286275 0.188235
0.823529 0.266667 0.172549
1.000000 0.254902 0.156863
1.000000 0.247059 0.149020
1.000000 0.243137 0.149020
0.003922 0.505882 0.200000
0.070588 0.501961 0.196078
0.184314 0.494118 0.188235
0.352941 0.482353 0.176471
0.576471 0.466667 0.160784
0.796078 0.447059 0.141176
0.976471 0.435294 0.129412
1.000000 0.427451 0.121569
1.000000 0.423529 0.117647
0.000000 0.690196 0.172549
0.039216 0.682353 0.168627
0.156863 0.674510 0.160784
0.325490 0.662745 0.149020
0.549020 0.647059 0.129412
0.768627 0.631373 0.113725
0.949020 0.615686 0.101961
1.000000 0.607843 0.094118
1.000000 0.603922 0.090196
0.000000 0.835294 0.149020
0.019608 0.827451 0.145098
0.133333 0.819608 0.137255
0.301961 0.807843 0.125490
0.525490 0.792157 0.109804
0.745098 0.776471 0.090196
0.925490 0.760784 0.078431
1.000000 0.752941 0.070588
1.000000 0.752941 0.066667
0.000000 0.929412 0.137255
0.003922 0.925490 0.129412
0.117647 0.917647 0.121569
0.286275 0.905882 0.109804
0.509804 0.886275 0.094118
0.729412 0.870588 0.078431
0.909804 0.858824 0.062745
1.000000 0.850980 0.054902
1.000000 0.847059 0.050980
0.000000 0.988235 0.125490
0.000000 0.984314 0.121569
0.109804 0.976471 0.113725
0.278431 0.960784 0.101961
0.501961 0.945098 0.082353
0.721569 0.929412 0.066667
0.901961 0.917647 0.054902
1.000000 0.905882 0.047059
1.000000 0.905882 0.043137
0.070588 0.035294 0.454902
0.137255 0.031373 0.447059
0.250980 0.023529 0.439216
0.423529 0.007843 0.427451
0.647059 0.000000 0.411765
0.862745 0.000000 0.396078
1.000000 0.000000 0.380392
1.000000 0.000000 0.372549
1.000000 0.000000 0.372549
0.062745 0.090196 0.447059
0.129412 0.082353 0.439216
0.243137 0.074510 0.431373
0.415686 0.062745 0.419608
0.639216 0.047059 0.403922
0.854902 0.031373 0.388235
1.000000 0.015686 0.372549
1.000000 0.007843 0.364706
1.000000 0.003922 0.360784
0.047059 0.180392 0.431373
0.113725 0.176471 0.427451
0.227451 0.168627 0.415686
0.400000 0.156863 0.403922
0.623529 0.137255 0.388235
0.839216 0.121569 0.372549
1.000000 0.109804 0.356863
1.000000 0.101961 0.349020
1.000000 0.098039 0.349020
0.027451 0.321569 0.407843
0.094118 0.317647 0.403922
0.207843 0.309804 0.396078
0.376471 0.294118 0.384314
0.600000 0.278431 0.364706
0.819608 0.262745 0.349020
1.000000 0.250980 0.337255
1.000000 0.239216 0.329412
1.000000 0.239216 0.325490
0.000000 0.501961 0.380392
0.062745 0.498039 0.376471
0.176471 0.490196 0.368627
0.349020 0.478431 0.352941
0.572549 0.458824 0.337255
0.792157 0.443137 0.321569
0.972549 0.431373 0.309804
1.000000 0.423529 0.298039
1.000000 0.419608 0.298039
0.000000 0.682353 0.352941
0.035294 0.678431 0.349020
0.149020 0.670588 0.337255
0.321569 0.658824 0.325490
0.545098 0.639216 0.309804
0.760784 0.623529 0.294118
0.941176 0.611765 0.278431
1.000000 0.603922 0.270588
1.000000 0.600000 0.270588
0.000000 0.827451 0.329412
0.011765 0.823529 0.325490
0.125490 0.815686 0.317647
0.298039 0.803922 0.301961
0.521569 0.788235 0.286275
0.741176 0.768627 0.270588
0.921569 0.756863 0.258824
1.000000 0.749020 0.247059
1.000000 0.745098 0.247059
0.000000 0.925490 0.313725
0.000000 0.921569 0.309804
0.113725 0.913725 0.301961
0.282353 0.898039 0.286275
0.505882 0.882353 0.270588
0.725490 0.866667 0.254902
0.905882 0.854902 0.243137
1.000000 0.843137 0.231373
1.000000 0.843137 0.231373
0.000000 0.984314 0.305882
0.000000 0.976471 0.301961
0.101961 0.968627 0.290196
0.274510 0.956863 0.278431
0.498039 0.941176 0.262745
0.713725 0.925490 0.247059
0.894118 0.909804 0.231373
1.000000 0.901961 0.223529
1.000000 0.901961 0.223529
0.066667 0.031373 0.678431
0.133333 0.023529 0.670588
0.247059 0.015686 0.662745
0.415686 0.003922 0.650980
0.639216 0.000000 0.635294
0.858824 0.000000 0.619608
1.000000 0.000000 0.603922
1.000000 0.000000 0.596078
1.000000 0.000000 0.596078
0.058824 0.082353 0.670588
0.121569 0.078431 0.662745
0.239216 0.070588 0.654902
0.407843 0.054902 0.643137
0.631373 0.039216 0.627451
0.850980 0.023529 0.611765
1.000000 0.011765 0.596078
1.000000 0.000000 0.588235
1.000000 0.000000 0.584314
0.043137 0.176471 0.654902
0.109804 0.168627 0.650980
0.223529 0.160784 0.639216
0.392157 0.149020 0.627451
0.615686 0.133333 0.611765
0.835294 0.117647 0.596078
1.000000 0.101961 0.580392
1.000000 0.094118 0.572549
1.000000 0.094118 0.572549
0.019608 0.317647 0.631373
0.086275 0.309804 0.627451
0.200000 0.301961 0.619608
0.372549 0.290196 0.607843
0.596078 0.274510 0.588235
0.811765 0.258824 0.572549
0.992157 0.243137 0.560784
1.000000 0.235294 0.552941
1.000000 0.235294 0.549020
0.000000 0.498039 0.603922
0.058824 0.490196 0.600000
0.172549 0.482353 0.592157
0.345098 0.470588 0.576471
0.564706 0.454902 0.560784
0.784314 0.439216 0.545098
0.964706 0.423529 0.533333
1.000000 0.415686 0.521569
1.000000 0.415686 0.521569
0.000000 0.678431 0.576471
0.031373 0.670588 0.568627
0.145098 0.662745 0.560784
0.313725 0.650980 0.549020
0.537255 0.635294 0.533333
0.756863 0.619608 0.517647
0.937255 0.603922 0.501961
1.000000 0.596078 0.494118
1.000000 0.596078 0.494118
0.000000 0.823529 0.552941
0.007843 0.819608 0.549020
0.121569 0.807843 0.541176
0.290196 0.796078 0.525490
0.513725 0.780392 0.509804
0.733333 0.764706 0.494118
0.913725 0.749020 0.482353
1.000000 0.741176 0.470588
1.000000 0.741176 0.470588
0.000000 0.921569 0.537255
0.000000 0.913725 0.533333
0.105882 0.905882 0.525490
0.278431 0.894118 0.509804
0.501961 0.878431 0.494118
0.717647 0.862745 0.478431
0.898039 0.847059 0.466667
1.000000 0.839216 0.454902
1.000000 0.835294 0.454902
0.000000 0.976471 0.529412
0.000000 0.972549 0.525490
0.098039 0.964706 0.513725
0.266667 0.952941 0.501961
0.490196 0.933333 0.486275
0.709804 0.917647 0.470588
0.890196 0.905882 0.454902
1.000000 0.898039 0.447059
1.000000 0.894118 0.447059
0.058824 0.023529 0.901961
0.125490 0.019608 0.894118
0.239216 0.011765 0.886275
0.411765 0.000000 0.874510
0.635294 0.000000 0.858824
0.850980 0.000000 0.843137
1.000000 0.000000 0.827451
1.000000 0.000000 0.819608
1.000000 0.000000 0.819608
0.050980 0.074510 0.890196
0.117647 0.070588 0.886275
0.231373 0.062745 0.878431
0.403922 0.050980 0.866667
0.623529 0.035294 0.850980
0.843137 0.019608 0.835294
1.000000 0.003922 0.819608
1.000000 0.000000 0.811765
1.000000 0.000000 0.807843
0.035294 0.168627 0.878431
0.101961 0.164706 0.874510
0.215686 0.156863 0.862745
0.388235 0.141176 0.850980
0.611765 0.125490 0.835294
0.827451 0.109804 0.819608
1.000000 0.098039 0.803922
1.000000 0.086275 0.796078
1.000000 0.086275 0.796078
0.015686 0.309804 0.854902
0.082353 0.305882 0.850980
0.196078 0.298039 0.843137
0.364706 0.282353 0.831373
0.588235 0.266667 0.811765
0.807843 0.250980 0.796078
0.988235 0.239216 0.784314
1.000000 0.227451 0.776471
1.000000 0.227451 0.772549
0.000000 0.490196 0.827451
0.050980 0.486275 0.823529
0.164706 0.478431 0.815686
0.337255 0.462745 0.800000
0.560784 0.447059 0.784314
0.780392 0.431373 0.768627
0.960784 0.419608 0.756863
1.000000 0.407843 0.745098
1.000000 0.407843 0.745098
0.000000 0.670588 0.800000
0.023529 0.666667 0.792157
0.137255 0.658824 0.784314
0.309804 0.647059 0.772549
0.533333 0.627451 0.756863
0.749020 0.611765 0.741176
0.929412 0.600000 0.725490
1.000000 0.592157 0.717647
1.000000 0.588235 0.717647
0.000000 0.815686 0.776471
0.000000 0.811765 0.772549
0.113725 0.803922 0.760784
0.286275 0.792157 0.749020
0.509804 0.772549 0.733333
0.729412 0.756863 0.717647
0.909804 0.745098 0.705882
1.000000 0.737255 0.694118
1.000000 0.733333 0.694118
0.000000 0.913725 0.760784
0.000000 0.909804 0.756863
0.101961 0.901961 0.749020
0.270588 0.886275 0.733333
0.494118 0.870588 0.717647
0.713725 0.854902 0.701961
0.894118 0.843137 0.690196
1.000000 0.831373 0.678431
1.000000 0.831373 0.678431
0.000000 0.972549 0.752941
0.000000 0.964706 0.745098
0.090196 0.956863 0.737255
0.262745 0.945098 0.725490
0.486275 0.929412 0.709804
0.701961 0.913725 0.694118
0.882353 0.898039 0.678431
1.000000 0.890196 0.670588
1.000000 0.890196 0.670588
0.054902 0.019608 1.000000
0.121569 0.011765 1.000000
0.235294 0.003922 1.000000
0.403922 0.000000 1.000000
0.627451 0.000000 1.000000
0.847059 0.000000 1.000000
1.000000 0.000000 1.000000
1.000000 0.000000 1.000000
1.000000 0.000000 1.000000
0.047059 0.070588 1.000000
0.113725 0.066667 1.000000
0.227451 0.058824 1.000000
0.396078 0.047059 1.000000
0.619608 0.027451 1.000000
0.839216 0.011765 1.000000
1.000000 0.000000 1.000000
1.000000 0.000000 0.996078
1.000000 0.000000 0.992157
0.031373 0.164706 1.000000
0.098039 0.160784 1.000000
0.211765 0.149020 1.000000
0.384314 0.137255 1.000000
0.603922 0.121569 1.000000
0.823529 0.105882 1.000000
1.000000 0.090196 0.988235
1.000000 0.082353 0.980392
1.000000 0.082353 0.980392
0.007843 0.305882 1.000000
0.074510 0.301961 1.000000
0.188235 0.290196 1.000000
0.360784 0.278431 1.000000
0.584314 0.262745 0.996078
0.803922 0.247059 0.980392
0.980392 0.231373 0.968627
1.000000 0.223529 0.956863
1.000000 0.223529 0.956863
0.000000 0.486275 1.000000
0.047059 0.482353 1.000000
0.160784 0.470588 0.996078
0.333333 0.458824 0.984314
0.556863 0.443137 0.968627
0.772549 0.427451 0.952941
0.952941 0.411765 0.937255
1.000000 0.403922 0.929412
1.000000 0.403922 0.929412
0.000000 0.666667 0.984314
0.019608 0.662745 0.976471
0.133333 0.654902 0.968627
0.305882 0.639216 0.956863
0.525490 0.623529 0.941176
0.745098 0.607843 0.925490
0.925490 0.596078 0.909804
1.000000 0.584314 0.901961
1.000000 0.584314 0.898039
0.000000 0.811765 0.960784
0.000000 0.807843 0.952941
0.109804 0.800000 0.945098
0.282353 0.784314 0.933333
0.505882 0.768627 0.917647
0.721569 0.752941 0.901961
0.901961 0.741176 0.886275
1.000000 0.729412 0.878431
1.000000 0.729412 0.878431
0.000000 0.909804 0.945098
0.000000 0.901961 0.941176
0.094118 0.894118 0.929412
0.266667 0.882353 0.917647
0.490196 0.866667 0.901961
0.705882 0.850980 0.886275
0.886275 0.835294 0.870588
1.000000 0.827451 0.862745
1.000000 0.827451 0.862745
0.000000 0.964706 0.937255
0.000000 0.960784 0.929412
0.086275 0.952941 0.921569
0.258824 0.941176 0.909804
0.478431 0.925490 0.894118
0.698039 0.905882 0.878431
0.878431 0.894118 0.862745
0.996078 0.886275 0.854902
1.000000 0.882353 0.850980
0.050980 0.015686 1.000000
0.117647 0.011765 1.000000
0.231373 0.000000 1.000000
0.403922 0.000000 1.000000
0.623529 0.000000 1.000000
0.843137 0.000000 1.000000
1.000000 0.000000 1.000000
1.000000 0.000000 1.000000
1.000000 0.000000 1.000000
0.043137 0.066667 1.000000
0.109804 0.062745 1.000000
0.223529 0.054902 1.000000
0.392157 0.043137 1.000000
0.615686 0.027451 1.000000
0.835294 0.007843 1.000000
1.000000 0.000000 1.000000
1.000000 0.000000 1.000000
1.000000 0.000000 1.000000
0.027451 0.160784 1.000000
0.094118 0.156863 1.000000
0.207843 0.149020 1.000000
0.380392 0.133333 1.000000
0.603922 0.117647 1.000000
0.819608 0.101961 1.000000
1.000000 0.090196 1.000000
1.000000 0.078431 1.000000
1.000000 0.078431 1.000000
0.007843 0.301961 1.000000
0.074510 0.298039 1.000000
0.188235 0.290196 1.000000
0.356863 0.274510 1.000000
0.580392 0.258824 1.000000
0.800000 0.243137 1.000000
0.980392 0.231373 1.000000
1.000000 0.219608 1.000000
1.000000 0.219608 1.000000
0.000000 0.482353 1.000000
0.043137 0.478431 1.000000
0.156863 0.470588 1.000000
0.329412 0.454902 1.000000
0.552941 0.439216 1.000000
0.768627 0.423529 1.000000
0.949020 0.411765 1.000000
1.000000 0.400000 1.000000
1.000000 0.400000 1.000000
0.000000 0.662745 1.000000
0.015686 0.658824 1.000000
0.129412 0.650980 1.000000
0.301961 0.635294 1.000000
0.525490 0.619608 1.000000
0.741176 0.603922 1.000000
0.921569 0.592157 1.000000
1.000000 0.580392 1.000000
1.000000 0.580392 1.000000
0.000000 0.807843 1.000000
0.000000 0.803922 1.000000
0.105882 0.796078 1.000000
0.278431 0.784314 1.000000
0.501961 0.764706 1.000000
0.717647 0.749020 1.000000
0.898039 0.737255 1.000000
1.000000 0.729412 0.996078
1.000000 0.725490 0.996078
0.000000 0.905882 1.000000
0.000000 0.901961 1.000000
0.090196 0.894118 1.000000
0.262745 0.878431 1.000000
0.486275 0.862745 1.000000
0.705882 0.847059 1.000000
0.886275 0.835294 0.992157
1.000000 0.823529 0.984314
1.000000 0.823529 0.980392
0.000000 0.964706 1.000000
0.000000 0.956863 1.000000
0.082353 0.949020 1.000000
0.254902 0.937255 1.000000
0.478431 0.921569 1.000000
0.694118 0.905882 0.996078
0.874510 0.890196 0.984314
0.996078 0.882353 0.972549
1.000000 0.878431 0.972549
0.050980 0.015686 1.000000
0.117647 0.007843 1.000000
0.231373 0.000000 1.000000
0.400000 0.000000 1.000000
0.623529 0.000000 1.000000
0.843137 0.000000 1.000000
1.000000 0.000000 1.000000
1.000000 0.000000 1.000000
1.000000 0.000000 1.000000
0.043137 0.066667 1.000000
0.109804 0.062745 1.000000
0.223529 0.054902 1.000000
0.392157 0.039216 1.000000
0.615686 0.023529 1.000000
0.835294 0.007843 1.000000
1.000000 0.000000 1.000000
1.000000 0.000000 1.000000
1.000000 0.000000 1.000000
0.027451 0.160784 1.000000
0.094118 0.152941 1.000000
0.207843 0.145098 1.000000
0.376471 0.133333 1.000000
0.600000 0.117647 1.000000
0.819608 0.101961 1.000000
1.000000 0.086275 1.000000
1.000000 0.078431 1.000000
1.000000 0.078431 1.000000
0.003922 0.301961 1.000000
0.070588 0.294118 1.000000
0.184314 0.286275 1.000000
0.356863 0.274510 1.000000
0.580392 0.258824 1.000000
0.796078 0.243137 1.000000
0.976471 0.227451 1.000000
1.000000 0.219608 1.000000
1.000000 0.219608 1.000000
0.000000 0.482353 1.000000
0.043137 0.474510 1.000000
0.156863 0.466667 1.000000
0.329412 0.454902 1.000000
0.549020 0.439216 1.000000
0.768627 0.423529 1.000000
0.949020 0.407843 1.000000
1.000000 0.400000 1.000000
1.000000 0.400000 1.000000
0.000000 0.662745 1.000000
0.015686 0.658824 1.000000
0.129412 0.647059 1.000000
0.298039 0.635294 1.000000
0.521569 0.619608 1.000000
0.741176 0.603922 1.000000
0.921569 0.588235 1.000000
1.000000 0.580392 1.000000
1.000000 0.580392 1.000000
0.000000 0.807843 1.000000
0.000000 0.803922 1.000000
0.105882 0.792157 1.000000
0.278431 0.780392 1.000000
0.498039 0.764706 1.000000
0.717647 0.749020 1.000000
0.898039 0.737255 1.000000
1.000000 0.725490 1.000000
1.000000 0.725490 1.000000
0.000000 0.905882 1.000000
0.000000 0.898039 1.000000
0.090196 0.890196 1.000000
0.262745 0.878431 1.000000
0.486275 0.862745 1.000000
0.701961 0.847059 1.000000
0.882353 0.831373 1.000000
1.000000 0.823529 1.000000
1.000000 0.823529 1.000000
0.000000 0.960784 1.000000
0.000000 0.956863 1.000000
0.082353 0.949020 1.000000
0.250980 0.937255 1.000000
0.474510 0.917647 1.000000
0.694118 0.901961 1.000000
0.874510 0.890196 1.000000
0.992157 0.882353 1.000000
1.000000 0.878431 1.000000
