booth/assets/luts/vintage_love.cube
TITLE "Vintage Love"
LUT_3D_SIZE 9
0.094118 0.094118 0.094118
0.184314 0.105882 0.105882
0.278431 0.113725 0.113725
0.368627 0.121569 0.121569
0.458824 0.129412 0.129412
0.552941 0.137255 0.137255
0.643137 0.145098 0.145098
0.737255 0.152941 0.152941
0.827451 0.160784 0.160784
0.109804 0.184314 0.109804
0.196078 0.192157 0.117647
0.290196 0.200000 0.125490
0.380392 0.207843 0.133333
0.474510 0.215686 0.145098
0.564706 0.223529 0.152941
0.658824 0.235294 0.160784
0.749020 0.243137 0.168627
0.843137 0.250980 0.176471
0.125490 0.274510 0.125490
0.211765 0.282353 0.133333
0.305882 0.290196 0.141176
0.396078 0.301961 0.149020
0.486275 0.309804 0.156863
0.580392 0.317647 0.168627
0.670588 0.325490 0.176471
0.764706 0.333333 0.184314
0.854902 0.341176 0.192157
0.141176 0.368627 0.141176
0.227451 0.376471 0.149020
0.321569 0.384314 0.156863
0.411765 0.392157 0.164706
0.501961 0.400000 0.172549
0.596078 0.407843 0.180392
0.686275 0.415686 0.188235
0.780392 0.423529 0.200000
0.870588 0.431373 0.207843
0.156863 0.458824 0.156863
0.243137 0.466667 0.164706
0.337255 0.474510 0.172549
0.427451 0.482353 0.180392
0.517647 0.490196 0.188235
0.611765 0.498039 0.196078
0.701961 0.505882 0.203922
0.796078 0.517647 0.211765
0.886275 0.525490 0.223529
0.168627 0.549020 0.168627
0.258824 0.556863 0.176471
0.352941 0.564706 0.188235
0.443137 0.572549 0.196078
0.533333 0.584314 0.203922
0.627451 0.592157 0.211765
0.717647 0.600000 0.219608
0.811765 0.607843 0.227451
0.901961 0.615686 0.235294
0.184314 0.639216 0.184314
0.274510 0.650980 0.192157
0.364706 0.658824 0.200000
0.458824 0.666667 0.211765
0.549020 0.674510 0.219608
0.643137 0.682353 0.227451
0.733333 0.690196 0.235294
0.827451 0.698039 0.243137
0.917647 0.705882 0.250980
0.200000 0.733333 0.200000
0.286275 0.741176 0.207843
0.380392 0.749020 0.215686
0.470588 0.756863 0.223529
0.560784 0.764706 0.231373
0.654902 0.772549 0.243137
0.745098 0.780392 0.250980
0.839216 0.792157 0.258824
0.929412 0.800000 0.266667
0.215686 0.823529 0.215686
0.301961 0.831373 0.223529
0.396078 0.839216 0.231373
0.486275 0.847059 0.239216
0.576471 0.854902 0.247059
0.670588 0.866667 0.254902
0.760784 0.874510 0.266667
0.854902 0.882353 0.274510
0.945098 0.890196 0.282353
0.098039 0.098039 0.160784
0.184314 0.105882 0.168627
0.278431 0.113725 0.176471
0.368627 0.121569 0.184314
0.458824 0.129412 0.192157
0.552941 0.141176 0.200000
0.643137 0.149020 0.207843
0.737255 0.156863 0.219608
0.827451 0.164706 0.227451
0.113725 0.188235 0.176471
0.200000 0.196078 0.184314
0.294118 0.203922 0.192157
0.384314 0.211765 0.200000
0.474510 0.219608 0.207843
0.568627 0.227451 0.215686
0.658824 0.235294 0.223529
0.752941 0.243137 0.231373
0.843137 0.250980 0.239216
0.129412 0.278431 0.188235
0.215686 0.286275 0.196078
0.309804 0.294118 0.207843
0.400000 0.301961 0.215686
0.490196 0.309804 0.223529
0.584314 0.317647 0.231373
0.674510 0.325490 0.239216
0.768627 0.337255 0.247059
0.858824 0.345098 0.254902
0.141176 0.368627 0.203922
0.231373 0.376471 0.211765
0.325490 0.384314 0.219608
0.415686 0.392157 0.227451
0.505882 0.403922 0.239216
0.600000 0.411765 0.247059
0.690196 0.419608 0.254902
0.784314 0.427451 0.262745
0.874510 0.435294 0.270588
0.156863 0.458824 0.219608
0.243137 0.466667 0.227451
0.337255 0.478431 0.235294
0.427451 0.486275 0.243137
0.521569 0.494118 0.250980
0.611765 0.501961 0.258824
0.705882 0.509804 0.270588
0.800000 0.517647 0.278431
0.890196 0.525490 0.286275
0.172549 0.552941 0.235294
0.258824 0.560784 0.243137
0.352941 0.568627 0.250980
0.443137 0.576471 0.258824
0.533333 0.584314 0.266667
0.627451 0.592157 0.274510
0.717647 0.600000 0.282353
0.811765 0.611765 0.294118
0.901961 0.619608 0.301961
0.188235 0.643137 0.250980
0.274510 0.650980 0.258824
0.368627 0.658824 0.266667
0.458824 0.666667 0.274510
0.549020 0.674510 0.282353
0.643137 0.686275 0.290196
0.733333 0.694118 0.298039
0.827451 0.701961 0.305882
0.917647 0.709804 0.313725
0.203922 0.733333 0.262745
0.290196 0.741176 0.270588
0.384314 0.752941 0.282353
0.474510 0.760784 0.290196
0.564706 0.768627 0.298039
0.658824 0.776471 0.305882
0.749020 0.784314 0.313725
0.843137 0.792157 0.321569
0.933333 0.800000 0.329412
0.215686 0.827451 0.278431
0.305882 0.835294 0.286275
0.400000 0.843137 0.294118
0.490196 0.850980 0.305882
0.580392 0.858824 0.313725
0.674510 0.866667 0.321569
0.764706 0.874510 0.329412
0.858824 0.886275 0.337255
0.949020 0.894118 0.345098
0.101961 0.101961 0.227451
0.188235 0.109804 0.235294
0.282353 0.117647 0.243137
0.372549 0.125490 0.250980
0.462745 0.133333 0.258824
0.556863 0.141176 0.270588
0.647059 0.149020 0.278431
0.741176 0.160784 0.286275
0.831373 0.168627 0.294118
0.113725 0.188235 0.243137
0.203922 0.196078 0.250980
0.298039 0.203922 0.258824
0.388235 0.211765 0.266667
0.478431 0.223529 0.274510
0.572549 0.231373 0.282353
0.662745 0.239216 0.290196
0.756863 0.247059 0.298039
0.847059 0.254902 0.309804
0.129412 0.278431 0.254902
0.215686 0.286275 0.262745
0.309804 0.298039 0.274510
0.400000 0.305882 0.282353
0.494118 0.313725 0.290196
0.584314 0.321569 0.298039
0.678431 0.329412 0.305882
0.772549 0.337255 0.313725
0.862745 0.345098 0.321569
0.145098 0.372549 0.270588
0.231373 0.380392 0.278431
0.325490 0.388235 0.286275
0.415686 0.396078 0.298039
0.505882 0.403922 0.305882
0.600000 0.411765 0.313725
0.690196 0.419608 0.321569
0.784314 0.431373 0.329412
0.874510 0.439216 0.337255
0.160784 0.462745 0.286275
0.247059 0.470588 0.294118
0.341176 0.478431 0.301961
0.431373 0.486275 0.309804
0.521569 0.494118 0.317647
0.615686 0.505882 0.329412
0.705882 0.513725 0.337255
0.800000 0.521569 0.345098
0.890196 0.529412 0.352941
0.176471 0.552941 0.301961
0.262745 0.560784 0.309804
0.356863 0.572549 0.317647
0.447059 0.580392 0.325490
0.537255 0.588235 0.333333
0.631373 0.596078 0.341176
0.721569 0.603922 0.352941
0.815686 0.611765 0.360784
0.905882 0.619608 0.368627
0.188235 0.647059 0.317647
0.278431 0.654902 0.325490
0.372549 0.662745 0.333333
0.462745 0.670588 0.341176
0.552941 0.678431 0.349020
0.647059 0.686275 0.356863
0.737255 0.694118 0.364706
0.831373 0.705882 0.376471
0.921569 0.713725 0.384314
0.203922 0.737255 0.333333
0.294118 0.745098 0.341176
0.384314 0.752941 0.349020
0.478431 0.760784 0.356863
0.568627 0.768627 0.364706
0.662745 0.780392 0.372549
0.752941 0.788235 0.380392
0.847059 0.796078 0.388235
0.937255 0.803922 0.396078
0.219608 0.827451 0.345098
0.305882 0.835294 0.352941
0.400000 0.847059 0.364706
0.490196 0.854902 0.372549
0.580392 0.862745 0.380392
0.674510 0.870588 0.388235
0.764706 0.878431 0.396078
0.858824 0.886275 0.403922
0.949020 0.894118 0.411765
0.101961 0.101961 0.294118
0.192157 0.109804 0.301961
0.286275 0.121569 0.309804
0.376471 0.129412 0.317647
0.466667 0.137255 0.325490
0.560784 0.145098 0.337255
0.650980 0.152941 0.345098
0.745098 0.160784 0.352941
0.835294 0.168627 0.360784
0.117647 0.192157 0.309804
0.203922 0.200000 0.317647
0.298039 0.207843 0.325490
0.388235 0.215686 0.333333
0.478431 0.223529 0.341176
0.572549 0.231373 0.349020
0.662745 0.239216 0.356863
0.756863 0.250980 0.368627
0.847059 0.258824 0.376471
0.133333 0.282353 0.325490
0.219608 0.290196 0.333333
0.313725 0.298039 0.341176
0.403922 0.305882 0.349020
0.494118 0.313725 0.356863
0.588235 0.325490 0.364706
0.678431 0.333333 0.372549
0.772549 0.341176 0.380392
0.862745 0.349020 0.388235
0.149020 0.372549 0.337255
0.235294 0.380392 0.345098
0.329412 0.392157 0.356863
0.419608 0.400000 0.364706
0.509804 0.407843 0.372549
0.603922 0.415686 0.380392
0.694118 0.423529 0.388235
0.788235 0.431373 0.396078
0.878431 0.439216 0.403922
0.160784 0.466667 0.352941
0.250980 0.474510 0.360784
0.345098 0.482353 0.368627
0.435294 0.490196 0.376471
0.525490 0.498039 0.388235
0.619608 0.505882 0.396078
0.709804 0.513725 0.403922
0.803922 0.525490 0.411765
0.894118 0.533333 0.419608
0.176471 0.556863 0.368627
0.266667 0.564706 0.376471
0.356863 0.572549 0.384314
0.450980 0.580392 0.392157
0.541176 0.588235 0.400000
0.635294 0.600000 0.411765
0.725490 0.607843 0.419608
0.819608 0.615686 0.427451
0.909804 0.623529 0.435294
0.192157 0.647059 0.384314
0.278431 0.654902 0.392157
0.372549 0.666667 0.400000
0.462745 0.674510 0.407843
0.552941 0.682353 0.415686
0.647059 0.690196 0.423529
0.737255 0.698039 0.431373
0.831373 0.705882 0.443137
0.921569 0.713725 0.450980
0.207843 0.741176 0.400000
0.294118 0.749020 0.407843
0.388235 0.756863 0.415686
0.478431 0.764706 0.423529
0.568627 0.772549 0.431373
0.662745 0.780392 0.439216
0.752941 0.788235 0.447059
0.847059 0.796078 0.454902
0.937255 0.807843 0.466667
0.223529 0.831373 0.411765
0.309804 0.839216 0.419608
0.403922 0.847059 0.431373
0.494118 0.854902 0.439216
0.584314 0.862745 0.447059
0.678431 0.874510 0.454902
0.768627 0.882353 0.462745
0.862745 0.890196 0.470588
0.952941 0.898039 0.478431
0.105882 0.105882 0.360784
0.192157 0.113725 0.368627
0.286275 0.121569 0.376471
0.376471 0.129412 0.388235
0.466667 0.137255 0.396078
0.560784 0.149020 0.403922
0.650980 0.156863 0.411765
0.745098 0.164706 0.419608
0.835294 0.172549 0.427451
0.121569 0.192157 0.376471
0.207843 0.200000 0.384314
0.301961 0.211765 0.392157
0.392157 0.219608 0.400000
0.482353 0.227451 0.407843
0.576471 0.235294 0.415686
0.666667 0.243137 0.427451
0.760784 0.250980 0.435294
0.850980 0.258824 0.443137
0.133333 0.286275 0.392157
0.223529 0.294118 0.400000
0.317647 0.301961 0.407843
0.407843 0.309804 0.415686
0.498039 0.317647 0.423529
0.592157 0.325490 0.431373
0.682353 0.333333 0.439216
0.776471 0.345098 0.450980
0.866667 0.352941 0.458824
0.149020 0.376471 0.407843
0.239216 0.384314 0.415686
0.329412 0.392157 0.423529
0.423529 0.400000 0.431373
0.513725 0.407843 0.439216
0.607843 0.419608 0.447059
0.698039 0.427451 0.454902
0.792157 0.435294 0.462745
0.882353 0.443137 0.470588
0.164706 0.466667 0.419608
0.250980 0.474510 0.427451
0.345098 0.486275 0.439216
0.435294 0.494118 0.447059
0.525490 0.501961 0.454902
0.619608 0.509804 0.462745
0.709804 0.517647 0.470588
0.803922 0.525490 0.478431
0.894118 0.533333 0.486275
0.180392 0.560784 0.435294
0.266667 0.568627 0.443137
0.360784 0.576471 0.450980
0.450980 0.584314 0.458824
0.541176 0.592157 0.470588
0.635294 0.600000 0.478431
0.725490 0.607843 0.486275
0.819608 0.615686 0.494118
0.909804 0.627451 0.501961
0.196078 0.650980 0.450980
0.282353 0.658824 0.458824
0.376471 0.666667 0.466667
0.466667 0.674510 0.474510
0.556863 0.682353 0.482353
0.650980 0.694118 0.494118
0.741176 0.701961 0.501961
0.835294 0.709804 0.509804
0.925490 0.717647 0.517647
0.211765 0.741176 0.466667
0.298039 0.749020 0.474510
0.392157 0.756863 0.482353
0.482353 0.768627 0.490196
0.572549 0.776471 0.498039
0.666667 0.784314 0.505882
0.756863 0.792157 0.513725
0.850980 0.800000 0.525490
0.941176 0.807843 0.533333
0.223529 0.835294 0.482353
0.313725 0.843137 0.490196
0.407843 0.850980 0.498039
0.498039 0.858824 0.505882
0.588235 0.866667 0.513725
0.682353 0.874510 0.521569
0.772549 0.882353 0.529412
0.866667 0.890196 0.537255
0.956863 0.898039 0.545098
0.109804 0.109804 0.427451
0.196078 0.117647 0.435294
0.290196 0.125490 0.443137
0.380392 0.133333 0.450980
0.470588 0.141176 0.458824
0.564706 0.149020 0.466667
0.654902 0.156863 0.474510
0.749020 0.164706 0.482353
0.839216 0.172549 0.490196
0.121569 0.196078 0.439216
0.211765 0.203922 0.447059
0.301961 0.211765 0.454902
0.396078 0.219608 0.466667
0.486275 0.227451 0.474510
0.580392 0.239216 0.482353
0.670588 0.247059 0.490196
0.764706 0.254902 0.498039
0.854902 0.262745 0.505882
0.137255 0.286275 0.454902
0.223529 0.294118 0.462745
0.317647 0.301961 0.470588
0.407843 0.313725 0.478431
0.498039 0.321569 0.486275
0.592157 0.329412 0.498039
0.682353 0.337255 0.505882
0.776471 0.345098 0.513725
0.866667 0.352941 0.521569
0.152941 0.380392 0.470588
0.239216 0.388235 0.478431
0.333333 0.396078 0.486275
0.423529 0.403922 0.494118
0.513725 0.411765 0.501961
0.607843 0.419608 0.509804
0.698039 0.427451 0.521569
0.792157 0.435294 0.529412
0.882353 0.447059 0.537255
0.168627 0.470588 0.486275
0.254902 0.478431 0.494118
0.349020 0.486275 0.501961
0.439216 0.494118 0.509804
0.529412 0.501961 0.517647
0.623529 0.509804 0.525490
0.713725 0.521569 0.533333
0.807843 0.529412 0.541176
0.898039 0.537255 0.552941
0.184314 0.560784 0.501961
0.270588 0.568627 0.509804
0.364706 0.576471 0.517647
0.454902 0.588235 0.525490
0.545098 0.596078 0.533333
0.639216 0.603922 0.541176
0.729412 0.611765 0.549020
0.823529 0.619608 0.556863
0.913725 0.627451 0.564706
0.196078 0.654902 0.513725
0.286275 0.662745 0.521569
0.380392 0.670588 0.533333
0.470588 0.678431 0.541176
0.560784 0.686275 0.549020
0.654902 0.694118 0.556863
0.745098 0.701961 0.564706
0.839216 0.709804 0.572549
0.929412 0.717647 0.580392
0.211765 0.745098 0.529412
0.298039 0.752941 0.537255
0.392157 0.760784 0.545098
0.482353 0.768627 0.552941
0.576471 0.776471 0.564706
0.666667 0.784314 0.572549
0.760784 0.796078 0.580392
0.850980 0.803922 0.588235
0.945098 0.811765 0.596078
0.227451 0.835294 0.545098
0.313725 0.843137 0.552941
0.407843 0.850980 0.560784
0.498039 0.858824 0.568627
0.588235 0.870588 0.576471
0.682353 0.878431 0.584314
0.772549 0.886275 0.596078
0.866667 0.894118 0.603922
0.956863 0.901961 0.611765
0.109804 0.109804 0.494118
0.196078 0.117647 0.501961
0.290196 0.125490 0.509804
0.380392 0.133333 0.517647
0.474510 0.145098 0.525490
0.564706 0.152941 0.533333
0.658824 0.160784 0.541176
0.749020 0.168627 0.549020
0.843137 0.176471 0.560784
0.125490 0.200000 0.505882
0.211765 0.207843 0.513725
0.305882 0.215686 0.525490
0.396078 0.223529 0.533333
0.486275 0.231373 0.541176
0.580392 0.239216 0.549020
0.670588 0.247059 0.556863
0.764706 0.254902 0.564706
0.854902 0.266667 0.572549
0.141176 0.290196 0.521569
0.227451 0.298039 0.529412
0.321569 0.305882 0.537255
0.411765 0.313725 0.545098
0.501961 0.321569 0.556863
0.596078 0.329412 0.564706
0.686275 0.341176 0.572549
0.780392 0.349020 0.580392
0.870588 0.356863 0.588235
0.156863 0.380392 0.537255
0.243137 0.388235 0.545098
0.337255 0.396078 0.552941
0.427451 0.407843 0.560784
0.517647 0.415686 0.568627
0.611765 0.423529 0.580392
0.701961 0.431373 0.588235
0.796078 0.439216 0.596078
0.886275 0.447059 0.603922
0.168627 0.474510 0.552941
0.258824 0.482353 0.560784
0.352941 0.490196 0.568627
0.443137 0.498039 0.576471
0.533333 0.505882 0.584314
0.627451 0.513725 0.592157
0.717647 0.521569 0.600000
0.811765 0.529412 0.611765
0.901961 0.537255 0.619608
0.184314 0.564706 0.568627
0.270588 0.572549 0.576471
0.364706 0.580392 0.584314
0.454902 0.588235 0.592157
0.549020 0.596078 0.600000
0.639216 0.603922 0.607843
0.733333 0.615686 0.615686
0.823529 0.623529 0.623529
0.917647 0.631373 0.635294
0.200000 0.654902 0.580392
0.286275 0.662745 0.588235
0.380392 0.670588 0.600000
0.470588 0.678431 0.607843
0.560784 0.690196 0.615686
0.654902 0.698039 0.623529
0.745098 0.705882 0.631373
0.839216 0.713725 0.639216
0.929412 0.721569 0.647059
0.215686 0.749020 0.596078
0.301961 0.756863 0.603922
0.396078 0.764706 0.611765
0.486275 0.772549 0.623529
0.576471 0.780392 0.631373
0.670588 0.788235 0.639216
0.760784 0.796078 0.647059
0.854902 0.803922 0.654902
0.945098 0.811765 0.662745
0.231373 0.839216 0.611765
0.317647 0.847059 0.619608
0.411765 0.854902 0.627451
0.501961 0.862745 0.635294
0.592157 0.870588 0.643137
0.686275 0.878431 0.654902
0.776471 0.886275 0.662745
0.870588 0.898039 0.670588
0.960784 0.905882 0.678431
0.113725 0.113725 0.560784
0.200000 0.121569 0.568627
0.294118 0.129412 0.576471
0.384314 0.137255 0.584314
0.474510 0.145098 0.592157
0.568627 0.152941 0.600000
0.658824 0.160784 0.607843
0.752941 0.172549 0.619608
0.843137 0.180392 0.627451
0.129412 0.200000 0.576471
0.215686 0.207843 0.584314
0.309804 0.215686 0.592157
0.400000 0.227451 0.600000
0.490196 0.235294 0.607843
0.584314 0.243137 0.615686
0.674510 0.250980 0.623529
0.768627 0.258824 0.631373
0.858824 0.266667 0.639216
0.141176 0.294118 0.588235
0.231373 0.301961 0.596078
0.325490 0.309804 0.607843
0.415686 0.317647 0.615686
0.505882 0.325490 0.623529
0.600000 0.333333 0.631373
0.690196 0.341176 0.639216
0.784314 0.349020 0.647059
0.874510 0.356863 0.654902
0.156863 0.384314 0.603922
0.243137 0.392157 0.611765
0.337255 0.400000 0.619608
0.427451 0.407843 0.627451
0.521569 0.415686 0.639216
0.611765 0.423529 0.647059
0.705882 0.435294 0.654902
0.796078 0.443137 0.662745
0.890196 0.450980 0.670588
0.172549 0.474510 0.619608
0.258824 0.482353 0.627451
0.352941 0.490196 0.635294
0.443137 0.498039 0.643137
0.533333 0.509804 0.650980
0.627451 0.517647 0.658824
0.717647 0.525490 0.670588
0.811765 0.533333 0.678431
0.901961 0.541176 0.686275
0.188235 0.568627 0.635294
0.274510 0.576471 0.643137
0.368627 0.584314 0.650980
0.458824 0.592157 0.658824
0.549020 0.600000 0.666667
0.643137 0.607843 0.674510
0.733333 0.615686 0.682353
0.827451 0.623529 0.694118
0.917647 0.631373 0.701961
0.203922 0.658824 0.650980
0.290196 0.666667 0.658824
0.384314 0.674510 0.666667
0.474510 0.682353 0.674510
0.564706 0.690196 0.682353
0.658824 0.698039 0.690196
0.749020 0.705882 0.698039
0.843137 0.717647 0.705882
0.933333 0.725490 0.713725
0.215686 0.749020 0.662745
0.305882 0.756863 0.670588
0.400000 0.764706 0.682353
0.490196 0.772549 0.690196
0.580392 0.784314 0.698039
0.674510 0.792157 0.705882
0.764706 0.800000 0.713725
0.858824 0.807843 0.721569
0.949020 0.815686 0.729412
0.231373 0.839216 0.678431
0.317647 0.847059 0.686275
0.411765 0.858824 0.694118
0.501961 0.866667 0.701961
0.596078 0.874510 0.713725
0.686275 0.882353 0.721569
0.780392 0.890196 0.729412
0.874510 0.898039 0.737255
0.964706 0.905882 0.745098
0.113725 0.113725 0.627451
0.203922 0.121569 0.635294
0.298039 0.133333 0.643137
0.388235 0.141176 0.650980
0.478431 0.149020 0.658824
0.572549 0.156863 0.666667
0.662745 0.164706 0.678431
0.756863 0.172549 0.686275
0.847059 0.180392 0.694118
0.129412 0.203922 0.643137
0.215686 0.211765 0.650980
0.309804 0.219608 0.658824
0.400000 0.227451 0.666667
0.490196 0.235294 0.674510
0.584314 0.243137 0.682353
0.678431 0.254902 0.690196
0.768627 0.262745 0.698039
0.862745 0.270588 0.709804
0.145098 0.294118 0.654902
0.231373 0.301961 0.662745
0.325490 0.309804 0.674510
0.415686 0.317647 0.682353
0.505882 0.329412 0.690196
0.600000 0.337255 0.698039
0.690196 0.345098 0.705882
0.784314 0.352941 0.713725
0.874510 0.360784 0.721569
0.160784 0.388235 0.670588
0.247059 0.396078 0.678431
0.341176 0.403922 0.686275
0.431373 0.411765 0.698039
0.521569 0.419608 0.705882
0.615686 0.427451 0.713725
0.705882 0.435294 0.721569
0.800000 0.443137 0.729412
0.890196 0.450980 0.737255
0.176471 0.478431 0.686275
0.262745 0.486275 0.694118
0.356863 0.494118 0.701961
0.447059 0.501961 0.709804
0.537255 0.509804 0.717647
0.631373 0.517647 0.729412
0.721569 0.525490 0.737255
0.815686 0.537255 0.745098
0.905882 0.545098 0.752941
0.188235 0.568627 0.701961
0.278431 0.576471 0.709804
0.372549 0.584314 0.717647
0.462745 0.592157 0.725490
0.552941 0.603922 0.733333
0.647059 0.611765 0.741176
0.737255 0.619608 0.752941
0.831373 0.627451 0.760784
0.921569 0.635294 0.768627
0.203922 0.658824 0.717647
0.290196 0.666667 0.725490
0.384314 0.678431 0.733333
0.474510 0.686275 0.741176
0.568627 0.694118 0.749020
0.658824 0.701961 0.756863
0.752941 0.709804 0.764706
0.847059 0.717647 0.776471
0.937255 0.725490 0.784314
0.219608 0.752941 0.733333
0.305882 0.760784 0.741176
0.400000 0.768627 0.749020
0.490196 0.776471 0.756863
0.580392 0.784314 0.764706
0.674510 0.792157 0.772549
0.764706 0.800000 0.780392
0.858824 0.811765 0.788235
0.949020 0.819608 0.796078
0.235294 0.843137 0.745098
0.321569 0.850980 0.752941
0.415686 0.858824 0.764706
0.505882 0.866667 0.772549
0.596078 0.874510 0.780392
0.690196 0.886275 0.788235
0.780392 0.894118 0.796078
0.874510 0.901961 0.803922
0.964706 0.909804 0.811765
