booth/assets/luts/vintage_love.cube
TITLE "Vintage Love"
LUT_3D_SIZE 5
0.094118 0.094118 0.094118
0.278431 0.113725 0.113725
0.458824 0.129412 0.129412
0.643137 0.145098 0.145098
0.827451 0.160784 0.160784
0.125490 0.274510 0.125490
0.305882 0.290196 0.141176
0.486275 0.309804 0.156863
0.670588 0.325490 0.176471
0.854902 0.341176 0.192157
0.156863 0.458824 0.156863
0.337255 0.474510 0.172549
0.517647 0.490196 0.188235
0.701961 0.505882 0.203922
0.886275 0.525490 0.223529
0.184314 0.639216 0.184314
0.364706 0.658824 0.200000
0.549020 0.674510 0.219608
0.733333 0.690196 0.235294
0.917647 0.705882 0.250980
0.215686 0.823529 0.215686
0.396078 0.839216 0.231373
0.576471 0.854902 0.247059
0.760784 0.874510 0.266667
0.945098 0.890196 0.282353
0.101961 0.101961 0.227451
0.282353 0.117647 0.243137
0.462745 0.133333 0.258824
0.647059 0.149020 0.278431
0.831373 0.168627 0.294118
0.129412 0.278431 0.254902
0.309804 0.298039 0.274510
0.494118 0.313725 0.290196
0.678431 0.329412 0.305882
0.862745 0.345098 0.321569
0.160784 0.462745 0.286275
0.341176 0.478431 0.301961
0.521569 0.494118 0.317647
0.705882 0.513725 0.337255
0.890196 0.529412 0.352941
0.188235 0.647059 0.317647
0.372549 0.662745 0.333333
0.552941 0.678431 0.349020
0.737255 0.694118 0.364706
0.921569 0.713725 0.384314
0.219608 0.827451 0.345098
0.400000 0.847059 0.364706
0.580392 0.862745 0.380392
0.764706 0.878431 0.396078
0.949020 0.894118 0.411765
0.105882 0.105882 0.360784
0.286275 0.121569 0.376471
0.466667 0.137255 0.396078
0.650980 0.156863 0.411765
0.835294 0.172549 0.427451
0.133333 0.286275 0.392157
0.317647 0.301961 0.407843
0.498039 0.317647 0.423529
0.682353 0.333333 0.439216
0.866667 0.352941 0.458824
0.164706 0.466667 0.419608
0.345098 0.486275 0.439216
0.525490 0.501961 0.454902
0.709804 0.517647 0.470588
0.894118 0.533333 0.486275
0.196078 0.650980 0.450980
0.376471 0.666667 0.466667
0.556863 0.682353 0.482353
0.741176 0.701961 0.501961
0.925490 0.717647 0.517647
0.223529 0.835294 0.482353
0.407843 0.850980 0.498039
0.588235 0.866667 0.513725
0.772549 0.882353 0.529412
0.956863 0.898039 0.545098
0.109804 0.109804 0.494118
0.290196 0.125490 0.509804
0.474510 0.145098 0.525490
0.658824 0.160784 0.541176
0.843137 0.176471 0.560784
0.141176 0.290196 0.521569
0.321569 0.305882 0.537255
0.501961 0.321569 0.556863
0.686275 0.341176 0.572549
0.870588 0.356863 0.588235
0.168627 0.474510 0.552941
0.352941 0.490196 0.568627
0.533333 0.505882 0.584314
0.717647 0.521569 0.600000
0.901961 0.537255 0.619608
0.200000 0.654902 0.580392
0.380392 0.670588 0.600000
0.560784 0.690196 0.615686
0.745098 0.705882 0.631373
0.929412 0.721569 0.647059
0.231373 0.839216 0.611765
0.411765 0.854902 0.627451
0.592157 0.870588 0.643137
0.776471 0.886275 0.662745
0.960784 0.905882 0.678431
0.113725 0.113725 0.627451
0.298039 0.133333 0.643137
0.478431 0.149020 0.658824
0.662745 0.164706 0.678431
0.847059 0.180392 0.694118
0.145098 0.294118 0.654902
0.325490 0.309804 0.674510
0.505882 0.329412 0.690196
0.690196 0.345098 0.705882
0.874510 0.360784 0.721569
0.176471 0.478431 0.686275
0.356863 0.494118 0.701961
0.537255 0.509804 0.717647
0.721569 0.525490 0.737255
0.905882 0.545098 0.752941
0.203922 0.658824 0.717647
0.384314 0.678431 0.733333
0.568627 0.694118 0.749020
0.752941 0.709804 0.764706
0.937255 0.725490 0.784314
0.235294 0.843137 0.745098
0.415686 0.858824 0.764706
0.596078 0.874510 0.780392
0.780392 0.894118 0.796078
0.964706 0.909804 0.811765
