booth/assets/luts/vintage_love.cube
TITLE "Vintage Love"
LUT_3D_SIZE 33
0.094118 0.094118 0.094118
0.113725 0.098039 0.098039
0.137255 0.098039 0.098039
0.160784 0.101961 0.101961
0.184314 0.105882 0.105882
0.207843 0.105882 0.105882
0.227451 0.109804 0.109804
0.250980 0.109804 0.109804
0.278431 0.113725 0.113725
0.298039 0.113725 0.113725
0.321569 0.117647 0.117647
0.345098 0.117647 0.117647
0.368627 0.121569 0.121569
0.392157 0.121569 0.121569
0.411765 0.125490 0.125490
0.435294 0.125490 0.125490
0.458824 0.129412 0.129412
0.482353 0.129412 0.129412
0.505882 0.133333 0.133333
0.529412 0.137255 0.137255
0.552941 0.137255 0.137255
0.576471 0.141176 0.141176
0.596078 0.141176 0.141176
0.619608 0.145098 0.145098
0.643137 0.145098 0.145098
0.666667 0.149020 0.149020
0.690196 0.149020 0.149020
0.713725 0.152941 0.152941
0.737255 0.152941 0.152941
0.760784 0.156863 0.156863
0.780392 0.156863 0.156863
0.803922 0.160784 0.160784
0.827451 0.160784 0.160784
0.098039 0.113725 0.098039
0.117647 0.113725 0.101961
0.141176 0.117647 0.101961
0.164706 0.117647 0.105882
0.188235 0.121569 0.105882
0.207843 0.125490 0.109804
0.231373 0.125490 0.109804
0.254902 0.129412 0.113725
0.278431 0.129412 0.113725
0.301961 0.133333 0.117647
0.325490 0.133333 0.117647
0.349020 0.137255 0.121569
0.372549 0.137255 0.125490
0.392157 0.141176 0.125490
0.415686 0.141176 0.129412
0.439216 0.145098 0.129412
0.462745 0.145098 0.133333
0.486275 0.149020 0.133333
0.509804 0.149020 0.137255
0.533333 0.152941 0.137255
0.556863 0.156863 0.141176
0.576471 0.156863 0.141176
0.600000 0.160784 0.145098
0.623529 0.160784 0.145098
0.647059 0.164706 0.149020
0.666667 0.164706 0.149020
0.694118 0.168627 0.152941
0.717647 0.168627 0.156863
0.741176 0.172549 0.156863
0.760784 0.172549 0.160784
0.784314 0.176471 0.160784
0.807843 0.176471 0.164706
0.831373 0.180392 0.164706
0.101961 0.137255 0.101961
0.121569 0.141176 0.105882
0.145098 0.141176 0.105882
0.168627 0.145098 0.109804
0.192157 0.145098 0.109804
0.211765 0.149020 0.113725
0.235294 0.149020 0.113725
0.258824 0.152941 0.117647
0.282353 0.152941 0.117647
0.305882 0.156863 0.121569
0.329412 0.156863 0.121569
0.352941 0.160784 0.125490
0.376471 0.164706 0.129412
0.396078 0.164706 0.129412
0.419608 0.168627 0.133333
0.443137 0.168627 0.133333
0.466667 0.172549 0.137255
0.490196 0.172549 0.137255
0.513725 0.176471 0.141176
0.537255 0.176471 0.141176
0.560784 0.180392 0.145098
0.580392 0.180392 0.145098
0.603922 0.184314 0.149020
0.627451 0.184314 0.149020
0.650980 0.188235 0.152941
0.670588 0.188235 0.152941
0.698039 0.192157 0.156863
0.721569 0.196078 0.160784
0.745098 0.196078 0.160784
0.764706 0.200000 0.164706
0.788235 0.200000 0.164706
0.811765 0.203922 0.168627
0.835294 0.203922 0.168627
0.105882 0.160784 0.105882
0.125490 0.160784 0.109804
0.149020 0.164706 0.109804
0.172549 0.164706 0.113725
0.192157 0.168627 0.113725
0.215686 0.168627 0.117647
0.239216 0.172549 0.117647
0.262745 0.172549 0.121569
0.286275 0.176471 0.121569
0.309804 0.176471 0.125490
0.333333 0.180392 0.125490
0.356863 0.180392 0.129412
0.376471 0.184314 0.129412
0.400000 0.184314 0.133333
0.423529 0.188235 0.133333
0.447059 0.188235 0.137255
0.470588 0.192157 0.141176
0.494118 0.196078 0.141176
0.517647 0.196078 0.145098
0.541176 0.200000 0.145098
0.560784 0.200000 0.149020
0.584314 0.203922 0.149020
0.607843 0.203922 0.152941
0.631373 0.207843 0.152941
0.654902 0.207843 0.156863
0.674510 0.211765 0.156863
0.701961 0.211765 0.160784
0.725490 0.215686 0.160784
0.745098 0.215686 0.164706
0.768627 0.219608 0.164706
0.792157 0.219608 0.168627
0.815686 0.223529 0.172549
0.839216 0.227451 0.172549
0.109804 0.184314 0.109804
0.129412 0.184314 0.113725
0.152941 0.188235 0.113725
0.176471 0.188235 0.117647
0.196078 0.192157 0.117647
0.219608 0.192157 0.121569
0.243137 0.196078 0.121569
0.266667 0.200000 0.125490
0.290196 0.200000 0.125490
0.313725 0.203922 0.129412
0.337255 0.203922 0.129412
0.360784 0.207843 0.133333
0.380392 0.207843 0.133333
0.403922 0.211765 0.137255
0.427451 0.211765 0.137255
0.450980 0.215686 0.141176
0.474510 0.215686 0.145098
0.498039 0.219608 0.145098
0.521569 0.219608 0.149020
0.545098 0.223529 0.149020
0.564706 0.223529 0.152941
0.588235 0.227451 0.152941
0.611765 0.231373 0.156863
0.635294 0.231373 0.156863
0.658824 0.235294 0.160784
0.678431 0.235294 0.160784
0.705882 0.239216 0.164706
0.729412 0.239216 0.164706
0.749020 0.243137 0.168627
0.772549 0.243137 0.168627
0.796078 0.247059 0.172549
0.819608 0.247059 0.176471
0.843137 0.250980 0.176471
0.113725 0.203922 0.113725
0.133333 0.207843 0.113725
0.156863 0.207843 0.117647
0.180392 0.211765 0.121569
0.200000 0.211765 0.121569
0.223529 0.215686 0.125490
0.247059 0.215686 0.125490
0.270588 0.219608 0.129412
0.294118 0.219608 0.129412
0.317647 0.223529 0.133333
0.341176 0.227451 0.133333
0.364706 0.227451 0.137255
0.384314 0.231373 0.137255
0.407843 0.231373 0.141176
0.431373 0.235294 0.141176
0.454902 0.235294 0.145098
0.474510 0.239216 0.145098
0.501961 0.239216 0.149020
0.525490 0.243137 0.152941
0.549020 0.243137 0.152941
0.568627 0.247059 0.156863
0.592157 0.247059 0.156863
0.615686 0.250980 0.160784
0.639216 0.250980 0.160784
0.658824 0.254902 0.164706
0.682353 0.254902 0.164706
0.709804 0.258824 0.168627
0.733333 0.262745 0.168627
0.752941 0.262745 0.172549
0.776471 0.266667 0.172549
0.800000 0.266667 0.176471
0.823529 0.270588 0.176471
0.843137 0.270588 0.180392
0.117647 0.231373 0.117647
0.137255 0.231373 0.121569
0.160784 0.235294 0.121569
0.184314 0.235294 0.125490
0.203922 0.239216 0.125490
0.227451 0.239216 0.129412
0.250980 0.243137 0.129412
0.274510 0.243137 0.133333
0.298039 0.247059 0.133333
0.321569 0.247059 0.137255
0.345098 0.250980 0.137255
0.368627 0.250980 0.141176
0.388235 0.254902 0.141176
0.411765 0.254902 0.145098
0.435294 0.258824 0.145098
0.458824 0.258824 0.149020
0.478431 0.262745 0.149020
0.505882 0.266667 0.152941
0.529412 0.266667 0.156863
0.552941 0.270588 0.156863
0.572549 0.270588 0.160784
0.596078 0.274510 0.160784
0.619608 0.274510 0.164706
0.643137 0.278431 0.164706
0.662745 0.278431 0.168627
0.686275 0.282353 0.168627
0.713725 0.282353 0.172549
0.737255 0.286275 0.172549
0.756863 0.286275 0.176471
0.780392 0.290196 0.176471
0.803922 0.290196 0.180392
0.827451 0.294118 0.180392
0.847059 0.294118 0.184314
0.121569 0.250980 0.121569
0.141176 0.250980 0.121569
0.164706 0.254902 0.125490
0.184314 0.254902 0.125490
0.207843 0.258824 0.129412
0.231373 0.258824 0.129412
0.254902 0.262745 0.133333
0.278431 0.266667 0.137255
0.301961 0.266667 0.137255
0.325490 0.270588 0.141176
0.349020 0.270588 0.141176
0.368627 0.274510 0.145098
0.392157 0.274510 0.145098
0.415686 0.278431 0.149020
0.439216 0.278431 0.149020
0.462745 0.282353 0.152941
0.482353 0.282353 0.152941
0.509804 0.286275 0.156863
0.533333 0.286275 0.156863
0.552941 0.290196 0.160784
0.576471 0.290196 0.160784
0.600000 0.294118 0.164706
0.623529 0.298039 0.168627
0.647059 0.298039 0.168627
0.666667 0.301961 0.172549
0.690196 0.301961 0.172549
0.717647 0.305882 0.176471
0.737255 0.305882 0.176471
0.760784 0.309804 0.180392
0.784314 0.309804 0.180392
0.807843 0.313725 0.184314
0.831373 0.313725 0.184314
0.850980 0.317647 0.188235
0.125490 0.274510 0.125490
0.145098 0.278431 0.125490
0.168627 0.278431 0.129412
0.188235 0.282353 0.129412
0.211765 0.282353 0.133333
0.235294 0.286275 0.137255
0.258824 0.286275 0.137255
0.282353 0.290196 0.141176
0.305882 0.290196 0.141176
0.329412 0.294118 0.145098
0.352941 0.294118 0.145098
0.372549 0.298039 0.149020
0.396078 0.301961 0.149020
0.419608 0.301961 0.152941
0.443137 0.305882 0.152941
0.466667 0.305882 0.156863
0.486275 0.309804 0.156863
0.513725 0.309804 0.160784
0.537255 0.313725 0.160784
0.556863 0.313725 0.164706
0.580392 0.317647 0.168627
0.603922 0.317647 0.168627
0.627451 0.321569 0.172549
0.650980 0.321569 0.172549
0.670588 0.325490 0.176471
0.694118 0.325490 0.176471
0.721569 0.329412 0.180392
0.745098 0.333333 0.180392
0.764706 0.333333 0.184314
0.788235 0.337255 0.184314
0.811765 0.337255 0.188235
0.835294 0.341176 0.188235
0.854902 0.341176 0.192157
0.129412 0.298039 0.129412
0.149020 0.298039 0.129412
0.172549 0.301961 0.133333
0.192157 0.301961 0.133333
0.215686 0.305882 0.137255
0.239216 0.305882 0.137255
0.262745 0.309804 0.141176
0.282353 0.309804 0.141176
0.309804 0.313725 0.145098
0.333333 0.313725 0.149020
0.356863 0.317647 0.149020
0.376471 0.317647 0.152941
0.400000 0.321569 0.152941
0.423529 0.321569 0.156863
0.447059 0.325490 0.156863
0.466667 0.325490 0.160784
0.490196 0.329412 0.160784
0.517647 0.333333 0.164706
0.541176 0.333333 0.164706
0.560784 0.337255 0.168627
0.584314 0.337255 0.168627
0.607843 0.341176 0.172549
0.631373 0.341176 0.172549
0.650980 0.345098 0.176471
0.674510 0.345098 0.176471
0.698039 0.349020 0.180392
0.725490 0.349020 0.184314
0.745098 0.352941 0.184314
0.768627 0.352941 0.188235
0.792157 0.356863 0.188235
0.815686 0.356863 0.192157
0.835294 0.360784 0.192157
0.858824 0.364706 0.196078
0.133333 0.321569 0.133333
0.152941 0.321569 0.133333
0.176471 0.325490 0.137255
0.196078 0.325490 0.137255
0.219608 0.329412 0.141176
0.243137 0.329412 0.141176
0.266667 0.333333 0.145098
0.286275 0.333333 0.145098
0.313725 0.337255 0.149020
0.337255 0.341176 0.152941
0.360784 0.341176 0.152941
0.380392 0.345098 0.156863
0.403922 0.345098 0.156863
0.427451 0.349020 0.160784
0.450980 0.349020 0.160784
0.470588 0.352941 0.164706
0.494118 0.352941 0.164706
0.521569 0.356863 0.168627
0.545098 0.356863 0.168627
0.564706 0.360784 0.172549
0.588235 0.360784 0.172549
0.611765 0.364706 0.176471
0.635294 0.364706 0.176471
0.654902 0.368627 0.180392
0.678431 0.372549 0.184314
0.701961 0.372549 0.184314
0.729412 0.376471 0.188235
0.749020 0.376471 0.188235
0.772549 0.380392 0.192157
0.796078 0.380392 0.192157
0.819608 0.384314 0.196078
0.843137 0.384314 0.196078
0.862745 0.388235 0.200000
0.137255 0.341176 0.137255
0.156863 0.345098 0.137255
0.176471 0.345098 0.141176
0.200000 0.349020 0.141176
0.223529 0.349020 0.145098
0.247059 0.352941 0.145098
0.270588 0.352941 0.149020
0.290196 0.356863 0.149020
0.317647 0.356863 0.152941
0.341176 0.360784 0.152941
0.364706 0.364706 0.156863
0.384314 0.364706 0.160784
0.407843 0.368627 0.160784
0.431373 0.368627 0.164706
0.454902 0.372549 0.164706
0.474510 0.372549 0.168627
0.498039 0.376471 0.168627
0.525490 0.376471 0.172549
0.549020 0.380392 0.172549
0.568627 0.380392 0.176471
0.592157 0.384314 0.176471
0.615686 0.384314 0.180392
0.639216 0.388235 0.180392
0.658824 0.388235 0.184314
0.682353 0.392157 0.184314
0.705882 0.392157 0.188235
0.733333 0.396078 0.192157
0.752941 0.400000 0.192157
0.776471 0.400000 0.196078
0.800000 0.403922 0.196078
0.823529 0.403922 0.200000
0.843137 0.407843 0.200000
0.866667 0.407843 0.203922
0.141176 0.368627 0.141176
0.160784 0.368627 0.141176
0.184314 0.372549 0.145098
0.203922 0.372549 0.145098
0.227451 0.376471 0.149020
0.250980 0.376471 0.149020
0.274510 0.380392 0.152941
0.294118 0.380392 0.152941
0.321569 0.384314 0.156863
0.345098 0.384314 0.160784
0.368627 0.388235 0.160784
0.388235 0.388235 0.164706
0.411765 0.392157 0.164706
0.435294 0.392157 0.168627
0.458824 0.396078 0.168627
0.478431 0.396078 0.172549
0.501961 0.400000 0.172549
0.529412 0.403922 0.176471
0.552941 0.403922 0.176471
0.572549 0.407843 0.180392
0.596078 0.407843 0.180392
0.619608 0.411765 0.184314
0.643137 0.411765 0.184314
0.662745 0.415686 0.188235
0.686275 0.415686 0.188235
0.709804 0.419608 0.192157
0.737255 0.419608 0.196078
0.756863 0.423529 0.196078
0.780392 0.423529 0.200000
0.803922 0.427451 0.200000
0.827451 0.427451 0.203922
0.847059 0.431373 0.203922
0.870588 0.431373 0.207843
0.145098 0.388235 0.145098
0.164706 0.388235 0.145098
0.184314 0.392157 0.149020
0.207843 0.392157 0.149020
0.231373 0.396078 0.152941
0.254902 0.396078 0.152941
0.274510 0.400000 0.156863
0.298039 0.403922 0.156863
0.325490 0.403922 0.160784
0.349020 0.407843 0.160784
0.368627 0.407843 0.164706
0.392157 0.411765 0.164706
0.415686 0.411765 0.168627
0.439216 0.415686 0.168627
0.462745 0.415686 0.172549
0.482353 0.419608 0.176471
0.505882 0.419608 0.176471
0.533333 0.423529 0.180392
0.552941 0.423529 0.180392
0.576471 0.427451 0.184314
0.600000 0.427451 0.184314
0.623529 0.431373 0.188235
0.647059 0.435294 0.188235
0.666667 0.435294 0.192157
0.690196 0.439216 0.192157
0.713725 0.439216 0.196078
0.737255 0.443137 0.196078
0.760784 0.443137 0.200000
0.784314 0.447059 0.200000
0.807843 0.447059 0.203922
0.831373 0.450980 0.207843
0.850980 0.450980 0.207843
0.874510 0.454902 0.211765
0.149020 0.411765 0.149020
0.168627 0.415686 0.149020
0.188235 0.415686 0.152941
0.211765 0.419608 0.152941
0.235294 0.419608 0.156863
0.258824 0.423529 0.156863
0.282353 0.423529 0.160784
0.301961 0.427451 0.160784
0.329412 0.427451 0.164706
0.352941 0.431373 0.164706
0.372549 0.431373 0.168627
0.396078 0.435294 0.168627
0.419608 0.435294 0.172549
0.443137 0.439216 0.176471
0.466667 0.443137 0.176471
0.486275 0.443137 0.180392
0.509804 0.447059 0.180392
0.537255 0.447059 0.184314
0.556863 0.450980 0.184314
0.580392 0.450980 0.188235
0.603922 0.454902 0.188235
0.627451 0.454902 0.192157
0.650980 0.458824 0.192157
0.670588 0.458824 0.196078
0.694118 0.462745 0.196078
0.717647 0.462745 0.200000
0.741176 0.466667 0.200000
0.764706 0.466667 0.203922
0.788235 0.470588 0.207843
0.811765 0.474510 0.207843
0.835294 0.474510 0.211765
0.854902 0.478431 0.211765
0.878431 0.478431 0.215686
0.152941 0.435294 0.152941
0.172549 0.435294 0.152941
0.192157 0.439216 0.156863
0.215686 0.439216 0.156863
0.239216 0.443137 0.160784
0.262745 0.443137 0.160784
0.282353 0.447059 0.164706
0.305882 0.447059 0.164706
0.333333 0.450980 0.168627
0.356863 0.450980 0.168627
0.376471 0.454902 0.172549
0.400000 0.454902 0.172549
0.423529 0.458824 0.176471
0.447059 0.458824 0.176471
0.466667 0.462745 0.180392
0.490196 0.462745 0.180392
0.513725 0.466667 0.184314
0.541176 0.470588 0.188235
0.560784 0.470588 0.188235
0.584314 0.474510 0.192157
0.607843 0.474510 0.192157
0.631373 0.478431 0.196078
0.650980 0.478431 0.196078
0.674510 0.482353 0.200000
0.698039 0.482353 0.200000
0.721569 0.486275 0.203922
0.745098 0.486275 0.203922
0.768627 0.490196 0.207843
0.792157 0.490196 0.207843
0.815686 0.494118 0.211765
0.835294 0.494118 0.211765
0.858824 0.498039 0.215686
0.882353 0.498039 0.215686
0.156863 0.458824 0.156863
0.176471 0.458824 0.156863
0.196078 0.462745 0.160784
0.219608 0.462745 0.160784
0.243137 0.466667 0.164706
0.266667 0.466667 0.164706
0.286275 0.470588 0.168627
0.309804 0.470588 0.168627
0.337255 0.474510 0.172549
0.360784 0.478431 0.172549
0.380392 0.478431 0.176471
0.403922 0.482353 0.176471
0.427451 0.482353 0.180392
0.450980 0.486275 0.180392
0.470588 0.486275 0.184314
0.494118 0.490196 0.184314
0.517647 0.490196 0.188235
0.545098 0.494118 0.192157
0.564706 0.494118 0.192157
0.588235 0.498039 0.196078
0.611765 0.498039 0.196078
0.635294 0.501961 0.200000
0.654902 0.501961 0.200000
0.678431 0.505882 0.203922
0.701961 0.505882 0.203922
0.725490 0.509804 0.207843
0.749020 0.513725 0.207843
0.772549 0.513725 0.211765
0.796078 0.517647 0.211765
0.819608 0.517647 0.215686
0.839216 0.521569 0.215686
0.862745 0.521569 0.219608
0.886275 0.525490 0.223529
0.156863 0.478431 0.156863
0.176471 0.482353 0.160784
0.200000 0.482353 0.160784
0.223529 0.486275 0.164706
0.247059 0.486275 0.168627
0.270588 0.490196 0.168627
0.290196 0.490196 0.172549
0.313725 0.494118 0.172549
0.341176 0.494118 0.176471
0.360784 0.498039 0.176471
0.384314 0.498039 0.180392
0.407843 0.501961 0.180392
0.431373 0.505882 0.184314
0.454902 0.505882 0.184314
0.474510 0.509804 0.188235
0.498039 0.509804 0.188235
0.521569 0.513725 0.192157
0.545098 0.513725 0.192157
0.568627 0.517647 0.196078
0.592157 0.517647 0.200000
0.615686 0.521569 0.200000
0.639216 0.521569 0.203922
0.658824 0.525490 0.203922
0.682353 0.525490 0.207843
0.705882 0.529412 0.207843
0.729412 0.529412 0.211765
0.752941 0.533333 0.211765
0.776471 0.537255 0.215686
0.800000 0.537255 0.215686
0.823529 0.541176 0.219608
0.843137 0.541176 0.219608
0.866667 0.545098 0.223529
0.890196 0.545098 0.223529
0.164706 0.505882 0.164706
0.180392 0.505882 0.164706
0.203922 0.505882 0.164706
0.227451 0.509804 0.168627
0.250980 0.513725 0.172549
0.274510 0.513725 0.172549
0.294118 0.517647 0.176471
0.317647 0.517647 0.176471
0.345098 0.521569 0.180392
0.364706 0.521569 0.180392
0.388235 0.525490 0.184314
0.411765 0.525490 0.184314
0.435294 0.529412 0.188235
0.458824 0.529412 0.188235
0.478431 0.533333 0.192157
0.501961 0.533333 0.192157
0.525490 0.537255 0.196078
0.549020 0.537255 0.196078
0.572549 0.541176 0.200000
0.596078 0.545098 0.203922
0.619608 0.545098 0.203922
0.643137 0.549020 0.207843
0.662745 0.549020 0.207843
0.686275 0.552941 0.211765
0.709804 0.552941 0.211765
0.733333 0.556863 0.215686
0.756863 0.556863 0.215686
0.780392 0.560784 0.219608
0.803922 0.560784 0.219608
0.827451 0.564706 0.223529
0.847059 0.564706 0.223529
0.870588 0.568627 0.227451
0.894118 0.568627 0.227451
0.164706 0.525490 0.164706
0.184314 0.525490 0.168627
0.207843 0.529412 0.168627
0.231373 0.529412 0.172549
0.254902 0.533333 0.172549
0.274510 0.533333 0.176471
0.298039 0.537255 0.176471
0.321569 0.537255 0.180392
0.349020 0.541176 0.184314
0.368627 0.545098 0.184314
0.392157 0.545098 0.188235
0.415686 0.549020 0.188235
0.439216 0.549020 0.192157
0.458824 0.552941 0.192157
0.482353 0.552941 0.196078
0.505882 0.556863 0.196078
0.529412 0.556863 0.200000
0.552941 0.560784 0.200000
0.576471 0.560784 0.203922
0.600000 0.564706 0.203922
0.623529 0.564706 0.207843
0.643137 0.568627 0.207843
0.666667 0.568627 0.211765
0.690196 0.572549 0.215686
0.713725 0.576471 0.215686
0.737255 0.576471 0.219608
0.760784 0.580392 0.219608
0.784314 0.580392 0.223529
0.807843 0.584314 0.223529
0.827451 0.584314 0.227451
0.850980 0.588235 0.227451
0.874510 0.588235 0.231373
0.898039 0.592157 0.231373
0.168627 0.549020 0.168627
0.188235 0.552941 0.172549
0.211765 0.552941 0.172549
0.235294 0.556863 0.176471
0.258824 0.556863 0.176471
0.278431 0.560784 0.180392
0.301961 0.560784 0.180392
0.325490 0.564706 0.184314
0.352941 0.564706 0.188235
0.372549 0.568627 0.188235
0.396078 0.568627 0.192157
0.419608 0.572549 0.192157
0.443137 0.572549 0.196078
0.462745 0.576471 0.196078
0.486275 0.580392 0.200000
0.509804 0.580392 0.200000
0.533333 0.584314 0.203922
0.556863 0.584314 0.203922
0.580392 0.588235 0.207843
0.603922 0.588235 0.207843
0.627451 0.592157 0.211765
0.647059 0.592157 0.211765
0.670588 0.596078 0.215686
0.694118 0.596078 0.219608
0.717647 0.600000 0.219608
0.741176 0.600000 0.223529
0.764706 0.603922 0.223529
0.788235 0.603922 0.227451
0.811765 0.607843 0.227451
0.831373 0.607843 0.231373
0.854902 0.611765 0.231373
0.878431 0.615686 0.235294
0.901961 0.615686 0.235294
0.172549 0.572549 0.172549
0.192157 0.572549 0.176471
0.215686 0.576471 0.176471
0.239216 0.576471 0.180392
0.262745 0.580392 0.180392
0.282353 0.580392 0.184314
0.305882 0.584314 0.184314
0.329412 0.584314 0.188235
0.352941 0.588235 0.188235
0.376471 0.588235 0.192157
0.400000 0.592157 0.196078
0.423529 0.592157 0.196078
0.447059 0.596078 0.200000
0.466667 0.596078 0.200000
0.490196 0.600000 0.203922
0.513725 0.600000 0.203922
0.537255 0.603922 0.207843
0.560784 0.607843 0.207843
0.584314 0.607843 0.211765
0.607843 0.611765 0.211765
0.631373 0.611765 0.215686
0.650980 0.615686 0.215686
0.674510 0.615686 0.219608
0.698039 0.619608 0.219608
0.721569 0.619608 0.223529
0.741176 0.623529 0.223529
0.768627 0.623529 0.227451
0.792157 0.627451 0.231373
0.815686 0.627451 0.231373
0.835294 0.631373 0.235294
0.858824 0.631373 0.235294
0.882353 0.635294 0.239216
0.905882 0.635294 0.239216
0.176471 0.596078 0.176471
0.196078 0.596078 0.180392
0.219608 0.600000 0.180392
0.243137 0.600000 0.184314
0.266667 0.603922 0.184314
0.286275 0.603922 0.188235
0.309804 0.607843 0.188235
0.333333 0.607843 0.192157
0.360784 0.611765 0.196078
0.380392 0.615686 0.196078
0.403922 0.615686 0.200000
0.427451 0.619608 0.200000
0.450980 0.619608 0.203922
0.470588 0.623529 0.203922
0.494118 0.623529 0.207843
0.517647 0.627451 0.207843
0.541176 0.627451 0.211765
0.564706 0.631373 0.211765
0.588235 0.631373 0.215686
0.611765 0.635294 0.215686
0.635294 0.635294 0.219608
0.654902 0.639216 0.219608
0.678431 0.639216 0.223529
0.701961 0.643137 0.223529
0.725490 0.643137 0.227451
0.745098 0.647059 0.227451
0.772549 0.650980 0.231373
0.796078 0.650980 0.235294
0.819608 0.654902 0.235294
0.839216 0.654902 0.239216
0.862745 0.658824 0.239216
0.886275 0.658824 0.243137
0.909804 0.662745 0.243137
0.180392 0.615686 0.180392
0.200000 0.619608 0.184314
0.223529 0.619608 0.184314
0.247059 0.623529 0.188235
0.266667 0.623529 0.188235
0.290196 0.627451 0.192157
0.313725 0.627451 0.192157
0.337255 0.631373 0.196078
0.360784 0.631373 0.196078
0.384314 0.635294 0.200000
0.407843 0.635294 0.200000
0.431373 0.639216 0.203922
0.450980 0.639216 0.203922
0.474510 0.643137 0.207843
0.498039 0.647059 0.211765
0.521569 0.647059 0.211765
0.545098 0.650980 0.215686
0.568627 0.650980 0.215686
0.592157 0.654902 0.219608
0.615686 0.654902 0.219608
0.639216 0.658824 0.223529
0.658824 0.658824 0.223529
0.682353 0.662745 0.227451
0.705882 0.662745 0.227451
0.729412 0.666667 0.231373
0.749020 0.666667 0.231373
0.776471 0.670588 0.235294
0.800000 0.670588 0.235294
0.823529 0.674510 0.239216
0.843137 0.678431 0.243137
0.866667 0.678431 0.243137
0.890196 0.682353 0.247059
0.913725 0.682353 0.247059
0.184314 0.639216 0.184314
0.203922 0.643137 0.188235
0.227451 0.643137 0.188235
0.250980 0.647059 0.192157
0.274510 0.650980 0.192157
0.294118 0.650980 0.196078
0.317647 0.654902 0.196078
0.341176 0.654902 0.200000
0.364706 0.658824 0.200000
0.388235 0.658824 0.203922
0.411765 0.662745 0.203922
0.435294 0.662745 0.207843
0.458824 0.666667 0.211765
0.478431 0.666667 0.211765
0.501961 0.670588 0.215686
0.525490 0.670588 0.215686
0.549020 0.674510 0.219608
0.572549 0.674510 0.219608
0.596078 0.678431 0.223529
0.619608 0.682353 0.223529
0.643137 0.682353 0.227451
0.662745 0.686275 0.227451
0.686275 0.686275 0.231373
0.709804 0.690196 0.231373
0.733333 0.690196 0.235294
0.752941 0.694118 0.235294
0.780392 0.694118 0.239216
0.803922 0.698039 0.243137
0.827451 0.698039 0.243137
0.847059 0.701961 0.247059
0.870588 0.701961 0.247059
0.894118 0.705882 0.250980
0.917647 0.705882 0.250980
0.188235 0.662745 0.188235
0.207843 0.662745 0.192157
0.231373 0.666667 0.192157
0.254902 0.666667 0.196078
0.274510 0.670588 0.196078
0.298039 0.670588 0.200000
0.321569 0.674510 0.200000
0.345098 0.674510 0.203922
0.368627 0.678431 0.203922
0.392157 0.682353 0.207843
0.415686 0.682353 0.207843
0.439216 0.686275 0.211765
0.458824 0.686275 0.211765
0.482353 0.690196 0.215686
0.505882 0.690196 0.215686
0.529412 0.694118 0.219608
0.549020 0.694118 0.219608
0.576471 0.698039 0.223529
0.600000 0.698039 0.227451
0.623529 0.701961 0.227451
0.643137 0.701961 0.231373
0.666667 0.705882 0.231373
0.690196 0.705882 0.235294
0.713725 0.709804 0.235294
0.737255 0.713725 0.239216
0.756863 0.713725 0.239216
0.784314 0.717647 0.243137
0.807843 0.717647 0.243137
0.827451 0.721569 0.247059
0.850980 0.721569 0.247059
0.874510 0.725490 0.250980
0.898039 0.725490 0.250980
0.921569 0.729412 0.254902
0.192157 0.686275 0.192157
0.211765 0.690196 0.196078
0.235294 0.690196 0.196078
0.258824 0.694118 0.200000
0.278431 0.694118 0.200000
0.301961 0.698039 0.203922
0.325490 0.698039 0.203922
0.349020 0.701961 0.207843
0.372549 0.701961 0.207843
0.396078 0.705882 0.211765
0.419608 0.705882 0.211765
0.443137 0.709804 0.215686
0.462745 0.709804 0.215686
0.486275 0.713725 0.219608
0.509804 0.713725 0.219608
0.533333 0.717647 0.223529
0.556863 0.721569 0.227451
0.580392 0.721569 0.227451
0.603922 0.725490 0.231373
0.627451 0.725490 0.231373
0.647059 0.729412 0.235294
0.670588 0.729412 0.235294
0.694118 0.733333 0.239216
0.717647 0.733333 0.239216
0.741176 0.737255 0.243137
0.760784 0.737255 0.243137
0.788235 0.741176 0.247059
0.811765 0.741176 0.247059
0.831373 0.745098 0.250980
