apps/booth/assets/luts/film_noir.cube
TITLE "Film Noir"
LUT_3D_SIZE 5
0.017986 0.017986 0.018886
0.049979 0.023093 0.024247
0.131272 0.029605 0.031085
0.302665 0.037883 0.039777
0.554898 0.048360 0.050778
0.041417 0.087723 0.043488
0.110402 0.110402 0.055459
0.262790 0.138057 0.070494
0.505900 0.171306 0.089240
0.746252 0.210605 0.112398
0.092497 0.335476 0.097122
0.226462 0.394508 0.122066
0.456788 0.456788 0.152392
0.707203 0.520449 0.188719
0.874018 0.583452 0.231474
0.193835 0.726059 0.203527
0.408502 0.773791 0.248667
0.664845 0.815321 0.300268
0.850697 0.850697 0.357795
0.942416 0.880292 0.420168
0.361920 0.932953 0.380016
0.619654 0.947254 0.443778
0.823929 0.958640 0.510094
0.930753 0.967652 0.576889
0.974752 0.974752 0.642030
0.019582 0.019582 0.044687
0.054257 0.025130 0.056970
0.141472 0.032198 0.072385
0.321257 0.041170 0.091586
0.576182 0.052507 0.115280
0.044997 0.094909 0.099654
0.119203 0.119203 0.125163
0.279916 0.148694 0.156129
0.527532 0.183958 0.193156
0.762305 0.225370 0.236639
0.100031 0.355058 0.208227
0.241997 0.415382 0.254097
0.478354 0.478354 0.306394
0.724816 0.542021 0.364524
0.883253 0.604344 0.427345
0.207734 0.742950 0.386929
0.429591 0.788595 0.451071
0.683867 0.828012 0.517546
0.861371 0.861371 0.584260
0.946941 0.889126 0.649091
0.382158 0.938173 0.608188
0.639852 0.951419 0.671844
0.836148 0.961942 0.731137
0.936133 0.970257 0.784803
0.976799 0.976799 0.832128
0.021317 0.021317 0.102245
0.058878 0.027342 0.128328
0.152325 0.035010 0.159941
0.340434 0.044730 0.197672
0.597188 0.056988 0.241885
0.048870 0.102617 0.213009
0.128604 0.128604 0.259607
0.297707 0.159998 0.312593
0.549062 0.197321 0.371312
0.777646 0.240855 0.434561
0.108106 0.375137 0.393894
0.258243 0.436564 0.458392
0.500000 0.500000 0.525000
0.741757 0.563436 0.591608
0.891894 0.624863 0.656106
0.222354 0.759145 0.615439
0.450938 0.802679 0.678688
0.702293 0.840002 0.737407
0.871396 0.871396 0.790393
0.951130 0.897383 0.836991
0.402812 0.943012 0.808115
0.659566 0.955270 0.852328
0.847675 0.964990 0.890059
0.941122 0.972658 0.921672
0.978683 0.978683 0.947755
0.023201 0.023201 0.217872
0.063867 0.029743 0.265197
0.163852 0.038058 0.318863
0.360148 0.048581 0.378156
0.617842 0.061827 0.441812
0.053059 0.110874 0.400909
0.138629 0.138629 0.465740
0.316133 0.171988 0.532454
0.570409 0.211405 0.598929
0.792266 0.257050 0.663071
0.116747 0.395656 0.622655
0.275184 0.457979 0.685476
0.521646 0.521646 0.743606
0.758003 0.584618 0.795903
0.899969 0.644942 0.841773
0.237695 0.774630 0.813361
0.472468 0.816042 0.856844
0.720084 0.851306 0.893871
0.880797 0.880797 0.924837
0.955003 0.905091 0.950346
0.423818 0.947493 0.934720
0.678743 0.958830 0.958414
0.858528 0.967802 0.977615
0.945743 0.974870 0.993030
0.980418 0.980418 1.000000
0.025248 0.025248 0.407970
0.069247 0.032348 0.473111
0.176071 0.041360 0.539906
0.380346 0.052746 0.606222
0.638080 0.067047 0.669984
0.057584 0.119708 0.629832
0.149303 0.149303 0.692205
0.335155 0.184679 0.749732
0.591498 0.226209 0.801333
0.806165 0.273941 0.846473
0.125982 0.416548 0.818526
0.292797 0.479551 0.861281
0.543212 0.543212 0.897608
0.773538 0.605492 0.927934
0.907503 0.664524 0.952878
0.253748 0.789395 0.937602
0.494100 0.828694 0.960760
0.737210 0.861943 0.979506
0.889598 0.889598 0.994541
0.958583 0.912277 1.000000
0.445102 0.951640 0.999222
0.697335 0.962117 1.000000
0.868728 0.970395 1.000000
0.950021 0.976907 1.000000
0.982014 0.982014 1.000000
