apps/booth/assets/luts/film_noir.cube
TITLE "Film Noir"
LUT_3D_SIZE 17
0.017986 0.017986 0.018886
0.023289 0.019148 0.020105
0.030107 0.020383 0.021403
0.038841 0.021697 0.022782
0.049979 0.023093 0.024247
0.064098 0.024576 0.025805
0.081861 0.026152 0.027460
0.104001 0.027827 0.029218
0.131272 0.029605 0.031085
0.164382 0.031493 0.033068
0.203883 0.033498 0.035173
0.250036 0.035625 0.037407
0.302665 0.037883 0.039777
0.361038 0.040277 0.042291
0.423828 0.042816 0.044957
0.489177 0.045508 0.047783
0.554898 0.048360 0.050778
0.022195 0.026977 0.023305
0.028702 0.028702 0.024803
0.037045 0.030535 0.026396
0.047693 0.032480 0.028088
0.061208 0.034546 0.029885
0.078237 0.036737 0.031793
0.099503 0.039062 0.033820
0.125760 0.041528 0.035971
0.157732 0.044142 0.038253
0.196010 0.046913 0.040675
0.240920 0.049848 0.043244
0.292379 0.052957 0.045967
0.349763 0.056249 0.048853
0.411856 0.059732 0.051912
0.476886 0.063416 0.055151
0.542711 0.067312 0.058580
0.607077 0.071428 0.062210
0.027361 0.040276 0.028729
0.035328 0.042815 0.030566
0.045507 0.045507 0.032517
0.058440 0.048359 0.034588
0.074761 0.051380 0.036786
0.095179 0.054579 0.039119
0.120447 0.057965 0.041593
0.151303 0.061548 0.044217
0.188369 0.065336 0.046998
0.232034 0.069341 0.049946
0.282300 0.073571 0.053069
0.338654 0.078039 0.056377
0.399987 0.082753 0.059878
0.464624 0.087725 0.063583
0.530472 0.092965 0.067501
0.595276 0.098484 0.071643
0.656920 0.104294 0.076020
0.033689 0.059731 0.035373
0.043416 0.063415 0.037619
0.055790 0.067310 0.040003
0.071427 0.071427 0.042530
0.091024 0.075774 0.045211
0.115330 0.080363 0.048052
0.145090 0.085205 0.051063
0.180960 0.090310 0.054252
0.223379 0.095688 0.057629
0.272436 0.101351 0.061203
0.327719 0.107310 0.064984
0.388234 0.113574 0.068982
0.452405 0.120155 0.073209
0.518197 0.127063 0.077673
0.583364 0.134307 0.082387
0.645743 0.141897 0.087362
0.703529 0.149842 0.092608
0.041417 0.087723 0.043488
0.053253 0.092963 0.046226
0.068230 0.098483 0.049128
0.087032 0.104292 0.052202
0.110402 0.110402 0.055459
0.139091 0.116824 0.058906
0.173779 0.123567 0.062555
0.214957 0.130641 0.066414
0.262790 0.138057 0.070494
0.316968 0.145824 0.074806
0.376611 0.153949 0.079360
0.440242 0.162441 0.084168
0.505900 0.171306 0.089240
0.571355 0.180551 0.094587
0.634405 0.190180 0.100222
0.693161 0.200198 0.106155
0.746252 0.210605 0.112398
0.050825 0.127061 0.053366
0.065167 0.134305 0.056691
0.083200 0.141895 0.060211
0.105660 0.149840 0.063935
0.133301 0.158147 0.067873
0.166825 0.166825 0.072036
0.206768 0.175879 0.076435
0.253366 0.185316 0.081080
0.306409 0.195139 0.085983
0.365127 0.205351 0.091154
0.428151 0.215954 0.096605
0.493595 0.226949 0.102347
0.559260 0.238333 0.108391
0.622915 0.250104 0.114750
0.682594 0.262255 0.121433
0.736819 0.274781 0.128452
0.784702 0.287671 0.135817
0.062232 0.180548 0.065343
0.079522 0.190177 0.069362
0.101098 0.200194 0.073610
0.127717 0.210602 0.078097
0.160095 0.221401 0.082835
0.198811 0.232591 0.087834
0.244168 0.244168 0.093105
0.296050 0.256130 0.098661
0.353795 0.268470 0.104512
0.416145 0.281179 0.110669
0.481299 0.294248 0.117145
0.547095 0.307665 0.123949
0.611286 0.321414 0.131093
0.671836 0.335481 0.138587
0.727164 0.349845 0.146441
0.776270 0.364487 0.154665
0.818741 0.379385 0.163267
0.075993 0.250100 0.079793
0.096712 0.262251 0.084624
0.122333 0.274777 0.089721
0.153587 0.287667 0.095095
0.191087 0.300912 0.100756
0.235200 0.314497 0.106718
0.285896 0.328407 0.112989
0.342625 0.342625 0.119583
0.404237 0.357131 0.126510
0.469025 0.371903 0.133780
0.534873 0.386919 0.141404
0.599528 0.402154 0.149392
0.660894 0.417579 0.157752
0.717290 0.433167 0.166494
0.767606 0.448889 0.175625
0.811322 0.464714 0.185151
0.848438 0.480610 0.195080
0.092497 0.335476 0.097122
0.117146 0.349841 0.102891
0.147297 0.364483 0.108964
0.183595 0.379380 0.115352
0.226462 0.394508 0.122066
0.275954 0.409842 0.129116
0.331626 0.425352 0.136514
0.392442 0.441011 0.144269
0.456788 0.456788 0.152392
0.522610 0.472652 0.160890
0.587655 0.488572 0.169773
0.649777 0.504515 0.179047
0.707203 0.520449 0.188719
0.758710 0.536341 0.198795
0.803671 0.552160 0.209278
0.841999 0.567873 0.220170
0.874018 0.583452 0.231474
0.112151 0.433162 0.117758
0.141222 0.448884 0.124593
0.176332 0.464709 0.131769
0.217956 0.480605 0.139296
0.266229 0.496540 0.147183
0.320808 0.512482 0.155442
0.380770 0.528399 0.164079
0.444603 0.544259 0.173103
0.510319 0.560029 0.182522
0.575679 0.575679 0.192340
0.638495 0.591179 0.202564
0.696909 0.606499 0.213196
0.749585 0.621613 0.224238
0.795789 0.636494 0.235691
0.835341 0.651119 0.247553
0.868498 0.665464 0.259822
0.895811 0.679510 0.272493
0.135357 0.536336 0.142125
0.169297 0.552155 0.150147
0.209683 0.567869 0.158542
0.256725 0.583447 0.167319
0.310180 0.598861 0.176486
0.369235 0.614081 0.186050
0.432485 0.629082 0.196015
0.498015 0.643838 0.206387
0.563613 0.658325 0.217168
0.627059 0.672523 0.228360
0.686412 0.686412 0.239962
0.740233 0.699975 0.251973
0.787674 0.713197 0.264389
0.828458 0.726063 0.277204
0.862774 0.738564 0.290411
0.891127 0.750691 0.304000
0.914204 0.762436 0.317958
0.162487 0.636490 0.170611
0.201643 0.651114 0.179922
0.247446 0.665460 0.189631
0.299748 0.679505 0.199744
0.357847 0.693233 0.210265
0.420447 0.706627 0.221195
0.485714 0.719673 0.232536
0.551472 0.732358 0.244288
0.615478 0.744673 0.256447
0.675722 0.756609 0.269009
0.730657 0.768162 0.281968
0.779325 0.779325 0.295315
0.821350 0.790099 0.309039
0.856841 0.800480 0.323128
0.886258 0.810472 0.337567
0.910264 0.820076 0.352339
0.929605 0.829295 0.367423
0.193835 0.726059 0.203527
0.238395 0.738560 0.214196
0.289519 0.750687 0.225276
0.346618 0.762432 0.236767
0.408502 0.773791 0.248667
0.473430 0.784759 0.260974
0.539269 0.795337 0.273681
0.603766 0.805523 0.286782
0.664845 0.815321 0.300268
0.720862 0.824732 0.314127
0.770745 0.833761 0.328346
0.814013 0.842414 0.342908
0.850697 0.850697 0.357795
0.881202 0.858618 0.372989
0.906161 0.866185 0.388465
0.926315 0.873407 0.404200
0.942416 0.880292 0.420168
0.229574 0.800477 0.241052
0.279501 0.810469 0.253101
0.335556 0.820073 0.265554
0.396665 0.829292 0.278406
0.461178 0.838133 0.291648
0.527019 0.846600 0.305271
0.591932 0.854701 0.319263
0.653790 0.862444 0.333608
0.710851 0.869837 0.348291
0.761932 0.876890 0.363293
0.806446 0.883611 0.378591
0.844337 0.890012 0.394165
0.875952 0.896102 0.409988
0.901891 0.901891 0.426033
0.922885 0.907392 0.442273
0.939686 0.912614 0.458676
0.953013 0.917569 0.475212
0.269697 0.858616 0.283182
0.324673 0.866183 0.296564
0.384948 0.873404 0.310323
0.448973 0.880290 0.324445
0.514736 0.886850 0.338916
0.579992 0.893094 0.353717
0.642566 0.899032 0.368829
0.700630 0.904676 0.384231
0.752889 0.910036 0.399898
0.798647 0.915123 0.415805
0.837758 0.919948 0.431924
0.870504 0.924521 0.448227
0.897449 0.928853 0.464683
0.919308 0.932954 0.481259
0.936835 0.936835 0.497924
0.950759 0.940506 0.514643
0.961739 0.943976 0.531384
0.313975 0.901890 0.329674
0.373362 0.907390 0.344267
0.436829 0.912613 0.359184
0.502435 0.917567 0.374404
0.567957 0.922264 0.389905
0.631184 0.926716 0.405663
0.690205 0.930931 0.421650
0.743618 0.934921 0.437840
0.790616 0.938696 0.454202
0.830956 0.942265 0.470705
0.864853 0.945638 0.487317
0.892830 0.948825 0.504006
0.915581 0.951835 0.520737
0.933859 0.954676 0.537477
0.948403 0.957357 0.554191
0.959886 0.959886 0.570847
0.968898 0.962271 0.587410
0.361920 0.932953 0.380016
0.424761 0.936834 0.395614
0.490131 0.940505 0.411458
0.555841 0.943975 0.427523
0.619654 0.947254 0.443778
0.679584 0.950351 0.460195
0.734122 0.953276 0.476742
0.782351 0.956036 0.493386
0.823929 0.958640 0.510094
0.858996 0.961096 0.526832
0.888029 0.963412 0.543567
0.911698 0.965595 0.560264
0.930753 0.967652 0.576889
0.945941 0.969590 0.593410
0.957948 0.971415 0.609794
0.967380 0.973134 0.626011
0.974752 0.974752 0.642030
0.018373 0.018373 0.023467
0.023787 0.019559 0.024976
0.030746 0.020820 0.026579
0.039658 0.022161 0.028282
0.051018 0.023586 0.030092
0.065410 0.025101 0.032013
0.083504 0.026710 0.034053
0.106037 0.028419 0.036218
0.133762 0.030234 0.038516
0.167379 0.032161 0.040954
0.207421 0.034206 0.043539
0.254120 0.036377 0.046280
0.307256 0.038680 0.049185
0.366050 0.041123 0.052263
0.429125 0.043713 0.055523
0.494590 0.046458 0.058974
0.560241 0.049366 0.062626
0.022670 0.027551 0.028929
0.029312 0.029312 0.030778
0.037825 0.031182 0.032742
0.048687 0.033168 0.034826
0.062464 0.035275 0.037039
0.079814 0.037511 0.039387
0.101461 0.039883 0.041877
0.128161 0.042398 0.044518
0.160631 0.045065 0.047318
0.199446 0.047891 0.050285
0.244904 0.050884 0.053428
0.296880 0.054054 0.056757
0.354705 0.057410 0.060280
0.417112 0.060960 0.064008
0.482292 0.064715 0.067951
0.548081 0.068684 0.072118
0.612231 0.072878 0.076522
0.027944 0.041122 0.035617
0.036074 0.043712 0.037878
0.046457 0.046457 0.040277
0.059643 0.049365 0.042821
0.076273 0.052446 0.045519
0.097061 0.055708 0.048378
0.122761 0.059159 0.051409
0.154105 0.062811 0.054618
0.191703 0.066671 0.058016
0.235916 0.070752 0.061613
0.286709 0.075061 0.065418
0.343522 0.079611 0.069441
0.405196 0.084412 0.073694
0.470016 0.089474 0.078186
0.535863 0.094807 0.082928
0.600483 0.100424 0.087932
0.661785 0.106335 0.093209
0.034401 0.060959 0.043785
0.044325 0.064714 0.046541
0.056942 0.068683 0.049461
0.072877 0.072877 0.052556
0.092832 0.077305 0.055833
0.117558 0.081979 0.059302
0.147798 0.086909 0.062974
0.184192 0.092105 0.066857
0.227160 0.097579 0.070962
0.276750 0.103341 0.075301
0.332509 0.109402 0.079883
0.393391 0.115773 0.084719
0.457776 0.122464 0.089821
0.523602 0.129485 0.095200
0.588619 0.136846 0.100868
0.650682 0.144555 0.106835
0.708027 0.152622 0.113113
0.042286 0.089472 0.053727
0.054356 0.094806 0.057073
0.069620 0.100422 0.060615
0.088769 0.106333 0.064362
0.112547 0.112547 0.068325
0.141705 0.119077 0.072514
0.176911 0.125932 0.076940
0.218635 0.133121 0.081613
0.267007 0.140655 0.086545
0.321676 0.148542 0.091747
0.381709 0.156791 0.097229
0.445586 0.165409 0.103005
0.511313 0.174403 0.109084
0.576651 0.183778 0.115477
0.639414 0.193538 0.122198
0.697749 0.203688 0.129255
0.750331 0.214229 0.136659
0.051880 0.129483 0.065780
0.066499 0.136843 0.069824
0.084867 0.144553 0.074098
0.107724 0.152620 0.078612
0.135824 0.161052 0.083378
0.169857 0.169857 0.088407
0.210343 0.179041 0.093710
0.257485 0.188608 0.099298
0.311032 0.198563 0.105182
0.370162 0.208908 0.111374
0.433462 0.219644 0.117886
0.499010 0.230772 0.124727
0.564592 0.242287 0.131909
0.627989 0.254188 0.139443
0.687268 0.266467 0.147338
0.740998 0.279118 0.155603
0.788339 0.292130 0.164248
0.063508 0.183775 0.080318
0.081122 0.193535 0.085178
0.103084 0.203685 0.090305
0.130149 0.214226 0.095710
0.163029 0.225157 0.101405
0.202284 0.236479 0.107400
0.248188 0.248188 0.113707
0.300584 0.260279 0.120338
0.358762 0.272745 0.127302
0.421417 0.285578 0.134611
0.486708 0.298766 0.142275
0.552456 0.312298 0.150304
0.616420 0.326157 0.158706
0.676593 0.340326 0.167491
0.731440 0.354788 0.176666
0.780009 0.369519 0.186237
0.821933 0.384498 0.196210
0.077528 0.254184 0.097750
0.098621 0.266464 0.103552
0.124678 0.279114 0.109660
0.156424 0.292126 0.116083
0.194458 0.305488 0.122834
0.239118 0.319185 0.129922
0.290339 0.333202 0.137360
0.347520 0.347520 0.145155
0.409464 0.362119 0.153319
0.474422 0.376977 0.161860
0.540258 0.392070 0.170786
0.604717 0.407372 0.180104
0.665731 0.422856 0.189821
0.721662 0.438493 0.199942
0.771447 0.454253 0.210470
0.814615 0.470106 0.221408
0.851202 0.486019 0.232757
0.094331 0.340322 0.118502
0.119405 0.354783 0.125375
0.150038 0.369515 0.132589
0.186864 0.384493 0.140156
0.230278 0.399694 0.148084
0.280303 0.415091 0.156384
0.336444 0.430655 0.165064
0.397618 0.446357 0.174132
0.462167 0.462167 0.183595
0.528011 0.478054 0.193458
0.592894 0.493985 0.203727
0.654690 0.509929 0.214405
0.711668 0.525852 0.225492
0.762653 0.541723 0.236991
0.807066 0.557509 0.248899
0.844860 0.573181 0.261213
0.876384 0.588706 0.273928
0.114325 0.438488 0.143000
0.143869 0.454248 0.151062
0.179500 0.470101 0.159500
0.221670 0.486014 0.168320
0.270482 0.501955 0.177531
0.325546 0.517892 0.187139
0.385890 0.533793 0.197150
0.449958 0.549626 0.207567
0.515730 0.565359 0.218394
0.580961 0.580961 0.229631
0.643480 0.596403 0.241279
0.701464 0.611656 0.253335
0.753629 0.626694 0.265796
0.799286 0.641491 0.278655
0.838298 0.656023 0.291905
0.870952 0.670269 0.305535
0.897815 0.684208 0.319534
0.137912 0.541718 0.171628
0.172365 0.557504 0.180983
0.213295 0.573176 0.190737
0.260880 0.588701 0.200895
0.314833 0.604053 0.211461
0.374294 0.619201 0.222437
0.437809 0.634122 0.233824
0.503430 0.648789 0.245621
0.568933 0.663180 0.257825
0.632110 0.677276 0.270432
0.691056 0.691056 0.283434
0.744376 0.704504 0.296824
0.791274 0.717607 0.310590
0.831515 0.730350 0.324719
0.865318 0.742725 0.339196
0.893210 0.754723 0.354003
0.915888 0.766337 0.369121
0.165456 0.641486 0.204694
0.205152 0.656018 0.215410
0.251502 0.670264 0.226535
0.304314 0.684204 0.238072
0.362840 0.697820 0.250017
0.425734 0.711097 0.262369
0.491126 0.724022 0.275120
0.556823 0.736582 0.288265
0.620592 0.748769 0.301793
0.680450 0.760576 0.315692
0.734899 0.771997 0.329950
0.783028 0.783028 0.344549
0.824506 0.793668 0.359472
0.859478 0.803917 0.374698
0.888424 0.813777 0.390204
0.912017 0.823249 0.405967
0.931009 0.832340 0.421958
0.197242 0.730346 0.242373
0.242350 0.742721 0.254467
0.293995 0.754719 0.266965
0.351539 0.766333 0.279861
0.413746 0.777559 0.293146
0.478833 0.788395 0.306811
0.544646 0.798840 0.320842
0.608936 0.808894 0.335226
0.669654 0.818560 0.349946
0.725199 0.827841 0.364981
0.774549 0.836741 0.380312
0.817270 0.845268 0.395914
0.853427 0.853427 0.411763
0.883451 0.861227 0.427832
0.907987 0.868676 0.444091
0.927780 0.875782 0.460511
0.943580 0.882556 0.477060
0.233427 0.803914 0.284653
0.283883 0.813774 0.298077
0.340403 0.823247 0.311877
0.401860 0.832337 0.326039
0.466565 0.841050 0.340547
0.532414 0.849392 0.355384
0.597154 0.857371 0.370530
0.658676 0.864994 0.385962
0.715282 0.872270 0.401657
0.765838 0.879209 0.417589
0.809804 0.885820 0.433731
0.847163 0.892114 0.450052
0.878286 0.898101 0.466522
0.903791 0.903791 0.483110
0.924412 0.909196 0.499783
0.940902 0.914326 0.516506
0.953974 0.919192 0.533247
0.273984 0.861225 0.331282
0.329440 0.868673 0.345912
0.390089 0.875780 0.360863
0.454338 0.882554 0.376116
0.520144 0.889005 0.391647
0.585259 0.895144 0.407432
0.647526 0.900982 0.423443
0.705153 0.906528 0.439653
0.756897 0.911794 0.456033
0.802108 0.916791 0.472550
0.840680 0.921529 0.489172
0.872926 0.926019 0.505867
0.899426 0.930271 0.522601
0.920900 0.934296 0.539339
0.938105 0.938105 0.556049
0.951763 0.941706 0.572696
0.962528 0.945111 0.589246
0.318659 0.903790 0.381739
0.378444 0.909195 0.397366
0.442165 0.914325 0.413236
0.507849 0.919191 0.429323
0.573264 0.923803 0.445599
0.636212 0.928173 0.462032
0.694818 0.932311 0.478591
0.747726 0.936227 0.495243
0.794179 0.939930 0.511956
0.833977 0.943432 0.528696
0.867365 0.946741 0.545428
0.894885 0.949867 0.562118
0.917240 0.952818 0.578734
0.935185 0.955604 0.595241
0.949453 0.958233 0.611608
0.960712 0.960712 0.627804
0.969544 0.963050 0.643799
0.366937 0.934295 0.435228
0.430062 0.938104 0.451565
0.495545 0.941705 0.468047
0.561182 0.945109 0.484644
0.624746 0.948326 0.501323
0.684282 0.951363 0.518049
0.738329 0.954231 0.534790
0.786017 0.956937 0.551511
0.827050 0.959490 0.568178
0.861600 0.961898 0.584758
0.890164 0.964168 0.601218
0.913426 0.966307 0.617526
0.932136 0.968323 0.633652
0.947038 0.970222 0.649567
0.958812 0.972011 0.665243
0.968056 0.973695 0.680654
0.975280 0.975280 0.695776
0.018768 0.018768 0.029129
0.024295 0.019979 0.030991
0.031398 0.021267 0.032968
0.040491 0.022636 0.035066
0.052077 0.024090 0.037294
0.066746 0.025636 0.039657
0.085177 0.027278 0.042164
0.108107 0.029023 0.044822
0.136291 0.030875 0.047640
0.170419 0.032842 0.050626
0.211005 0.034929 0.053790
0.258247 0.037144 0.057139
0.311885 0.039494 0.060685
0.371091 0.041985 0.064436
0.434440 0.044627 0.068403
0.500005 0.047427 0.072597
0.565570 0.050393 0.077027
0.023155 0.028137 0.035862
0.029935 0.029935 0.038138
0.038621 0.031844 0.040553
0.049700 0.033870 0.043114
0.063745 0.036020 0.045829
0.081419 0.038301 0.048707
0.103452 0.040721 0.051757
0.130600 0.043287 0.054987
0.163573 0.046006 0.058407
0.202927 0.048888 0.062026
0.248931 0.051940 0.065855
0.301421 0.055172 0.069903
0.359678 0.058593 0.074182
0.422388 0.062212 0.078701
0.487702 0.066038 0.083472
0.553440 0.070083 0.088506
0.617361 0.074355 0.093814
0.028538 0.041985 0.044084
0.036835 0.044626 0.046858
0.047426 0.047426 0.049797
0.060870 0.050392 0.052911
0.077813 0.053533 0.056210
0.098976 0.056858 0.059701
0.125113 0.060376 0.063395
0.156950 0.064098 0.067303
0.195082 0.068032 0.071434
0.239843 0.072189 0.075798
0.291159 0.076579 0.080408
0.348423 0.081213 0.085274
0.410427 0.086101 0.090406
0.475415 0.091254 0.095817
0.541246 0.096683 0.101517
0.605668 0.102398 0.107518
0.666616 0.108411 0.113831
0.035128 0.062211 0.054090
0.045251 0.066037 0.057458
0.058116 0.070081 0.061022
0.074354 0.074354 0.064793
0.094672 0.078864 0.068780
0.119824 0.083624 0.072995
0.150547 0.088643 0.077448
0.187469 0.093932 0.082149
0.230985 0.099503 0.087111
0.281106 0.105365 0.092343
0.337333 0.111531 0.097858
0.398572 0.118009 0.103666
0.463157 0.124811 0.109780
0.529002 0.131946 0.116209
0.593854 0.139424 0.122966
0.655589 0.147254 0.130061
0.712484 0.155445 0.137505
0.043172 0.091252 0.066219
0.055480 0.096681 0.070288
0.071036 0.102396 0.074588
0.090537 0.108409 0.079130
0.114729 0.114729 0.083925
0.144360 0.121368 0.088984
0.180087 0.128335 0.094317
0.222358 0.135641 0.099938
0.271268 0.143294 0.105856
0.326420 0.151303 0.112083
0.386834 0.159676 0.118631
0.450943 0.168421 0.125510
0.516724 0.177543 0.132731
0.581930 0.187049 0.140304
0.644392 0.196942 0.148239
0.702297 0.207224 0.156547
0.754367 0.217898 0.165234
0.052956 0.131944 0.080846
0.067856 0.139422 0.085735
0.086565 0.147252 0.090893
0.109824 0.155442 0.096330
0.138386 0.164000 0.102057
0.172933 0.172933 0.108087
0.213963 0.182247 0.114429
0.261648 0.191945 0.121096
0.315692 0.202032 0.128098
0.375226 0.212510 0.135446
0.438789 0.223379 0.143150
0.504425 0.234639 0.151220
0.569909 0.246286 0.159665
0.633035 0.258316 0.168493
0.691905 0.270723 0.177711
0.745133 0.283497 0.187327
0.791930 0.296629 0.197345
0.064808 0.187046 0.098381
0.082751 0.196938 0.104217
0.105104 0.207221 0.110359
0.132621 0.217894 0.116818
0.166006 0.228959 0.123606
0.205802 0.240412 0.130733
0.252252 0.252252 0.138209
0.305157 0.264471 0.146046
0.363760 0.277062 0.154251
0.426707 0.290017 0.162834
0.492121 0.303324 0.171803
0.557805 0.316968 0.181166
0.621528 0.330935 0.190927
0.681315 0.345206 0.201093
0.735673 0.359761 0.211667
0.783703 0.374580 0.222651
0.825081 0.389637 0.234046
0.079091 0.258312 0.119251
0.100563 0.270719 0.126161
0.127061 0.283493 0.133414
0.159303 0.296625 0.141020
0.197873 0.310103 0.148990
0.243081 0.323910 0.157332
0.294822 0.338031 0.166054
0.352447 0.352447 0.175166
0.414712 0.367137 0.184673
0.479826 0.382077 0.194581
0.545633 0.397244 0.204896
0.609883 0.412611 0.215619
0.670534 0.428151 0.226752
0.725992 0.443833 0.238296
0.775244 0.459628 0.250250
0.817864 0.475505 0.262609
0.853925 0.491431 0.275368
0.096198 0.345201 0.143879
0.121701 0.359757 0.151983
0.152822 0.374575 0.160463
0.190177 0.389632 0.169326
0.234140 0.404902 0.178581
0.284693 0.420359 0.188234
0.341297 0.435973 0.198289
0.402817 0.451716 0.208752
0.467556 0.467556 0.219624
0.533405 0.483461 0.230907
0.598111 0.499400 0.242601
0.659570 0.515340 0.254703
0.716092 0.531249 0.267208
0.766551 0.547095 0.280111
0.810417 0.562846 0.293404
0.847677 0.578471 0.307076
0.878711 0.593941 0.321114
0.116537 0.443828 0.172650
0.146558 0.459623 0.182049
0.182712 0.475500 0.191848
0.225430 0.491426 0.202051
0.274777 0.507369 0.212663
0.330320 0.523298 0.223685
0.391036 0.539180 0.235117
0.455324 0.554982 0.246960
0.521137 0.570674 0.259209
0.586225 0.586225 0.271860
0.648433 0.601606 0.284906
0.705980 0.616789 0.298338
0.757628 0.631747 0.312145
0.802739 0.646457 0.326313
0.841213 0.660894 0.340828
0.873367 0.675038 0.355671
0.899785 0.688870 0.370822
0.140508 0.547090 0.205867
0.175477 0.562841 0.216628
0.216952 0.578466 0.227799
0.265078 0.593936 0.239381
0.319524 0.609221 0.251372
0.379380 0.624295 0.263768
0.443147 0.639132 0.276564
0.508844 0.653708 0.289752
0.574237 0.668002 0.303322
0.637133 0.681992 0.317262
0.695661 0.695661 0.331559
0.748476 0.708993 0.346195
0.794828 0.721975 0.361152
0.834527 0.734595 0.376411
0.867822 0.746842 0.391947
0.895259 0.758710 0.407736
0.917541 0.770193 0.423752
0.168469 0.646452 0.243700
0.208706 0.660889 0.255839
0.255601 0.675033 0.268381
0.308919 0.688865 0.281320
0.367862 0.702368 0.294649
0.431037 0.715527 0.308355
0.496540 0.728329 0.322426
0.562162 0.740763 0.336849
0.625678 0.752822 0.351604
0.685141 0.764498 0.366674
0.739097 0.775787 0.382036
0.786685 0.786685 0.397667
0.827618 0.797193 0.413542
0.862074 0.807309 0.429633
0.890553 0.817037 0.445912
0.913740 0.826379 0.462347
0.932388 0.835341 0.478908
0.200694 0.734591 0.286128
0.246349 0.746838 0.299595
0.298511 0.758706 0.313436
0.356493 0.770189 0.327637
0.419010 0.781283 0.342183
0.484240 0.791986 0.357055
0.550012 0.802298 0.372234
0.614081 0.812220 0.387697
0.674428 0.821755 0.403420
0.729495 0.830906 0.419376
0.778309 0.839679 0.435539
0.820483 0.848080 0.451879
0.856116 0.856116 0.468364
0.885662 0.863796 0.484963
0.909781 0.871127 0.501642
0.929218 0.878119 0.518370
0.944722 0.884782 0.535110
0.237325 0.807306 0.332894
0.288307 0.817034 0.347561
0.345283 0.826376 0.362547
0.407078 0.835338 0.377832
0.471959 0.843924 0.393392
0.537803 0.852142 0.409203
0.602353 0.859999 0.425238
0.663529 0.867503 0.441469
0.719673 0.874664 0.457865
0.769700 0.881490 0.474395
0.813118 0.887993 0.491028
0.849946 0.894181 0.507728
0.880583 0.900066 0.524465
0.905658 0.905658 0.541202
0.925912 0.910969 0.557906
0.942095 0.916008 0.574543
0.954915 0.920786 0.591081
0.278314 0.863793 0.383466
0.334242 0.871125 0.399121
0.395254 0.878117 0.415017
0.459713 0.884780 0.431126
0.525548 0.891125 0.447421
0.590507 0.897160 0.463869
0.652453 0.902897 0.480440
0.709637 0.908347 0.497102
0.760860 0.913521 0.513819
0.805523 0.918428 0.530560
0.843560 0.923081 0.547289
0.875309 0.927489 0.563972
0.901368 0.931663 0.580577
0.922464 0.935614 0.597071
0.939351 0.939351 0.613420
0.952748 0.942884 0.629595
0.963302 0.946223 0.645566
0.323380 0.905657 0.437039
0.383552 0.910967 0.453393
0.447514 0.916006 0.469890
0.513262 0.920785 0.486498
0.578554 0.925314 0.503183
0.641210 0.929604 0.519913
0.699391 0.933665 0.536653
0.751790 0.937508 0.553370
0.797697 0.941142 0.570029
0.836954 0.944577 0.586597
0.869837 0.947823 0.603041
0.896905 0.950888 0.619331
0.918869 0.953783 0.635435
0.936485 0.956514 0.651324
0.950482 0.959091 0.666972
0.961522 0.961522 0.682352
0.970177 0.963813 0.697441
0.371983 0.935612 0.492565
0.435378 0.939350 0.509270
0.500960 0.942883 0.526008
0.566509 0.946222 0.542743
0.629810 0.949377 0.559443
0.688942 0.952356 0.576073
0.742492 0.955168 0.592600
0.789637 0.957821 0.608991
0.830126 0.960324 0.625217
0.864162 0.962684 0.641246
0.892264 0.964909 0.657051
0.915123 0.967005 0.672604
0.933494 0.968981 0.687880
0.948114 0.970842 0.702858
0.959659 0.972594 0.717515
0.968719 0.974244 0.731834
0.975797 0.975797 0.745797
0.019171 0.019171 0.036109
0.024814 0.020407 0.038400
0.032063 0.021722 0.040830
0.041341 0.023120 0.043408
0.053156 0.024605 0.046141
0.068108 0.026183 0.049038
0.086880 0.027859 0.052107
0.110214 0.029639 0.055358
0.138861 0.031530 0.058800
0.173503 0.033537 0.062442
0.214633 0.035667 0.066294
0.262418 0.037927 0.070368
0.316553 0.040324 0.074673
0.376160 0.042865 0.079219
0.439769 0.045560 0.084019
0.505420 0.048415 0.089083
0.570884 0.051439 0.094422
0.023650 0.028736 0.044385
0.030570 0.030570 0.047176
0.039434 0.032518 0.050135
