apps/booth/assets/luts/film_noir.cube
TITLE "Film Noir"
LUT_3D_SIZE 9
0.017986 0.017986 0.018886
0.030107 0.020383 0.021403
0.049979 0.023093 0.024247
0.081861 0.026152 0.027460
0.131272 0.029605 0.031085
0.203883 0.033498 0.035173
0.302665 0.037883 0.039777
0.423828 0.042816 0.044957
0.554898 0.048360 0.050778
0.027361 0.040276 0.028729
0.045507 0.045507 0.032517
0.074761 0.051380 0.036786
0.120447 0.057965 0.041593
0.188369 0.065336 0.046998
0.282300 0.073571 0.053069
0.399987 0.082753 0.059878
0.530472 0.092965 0.067501
0.656920 0.104294 0.076020
0.041417 0.087723 0.043488
0.068230 0.098483 0.049128
0.110402 0.110402 0.055459
0.173779 0.123567 0.062555
0.262790 0.138057 0.070494
0.376611 0.153949 0.079360
0.505900 0.171306 0.089240
0.634405 0.190180 0.100222
0.746252 0.210605 0.112398
0.062232 0.180548 0.065343
0.101098 0.200194 0.073610
0.160095 0.221401 0.082835
0.244168 0.244168 0.093105
0.353795 0.268470 0.104512
0.481299 0.294248 0.117145
0.611286 0.321414 0.131093
0.727164 0.349845 0.146441
0.818741 0.379385 0.163267
0.092497 0.335476 0.097122
0.147297 0.364483 0.108964
0.226462 0.394508 0.122066
0.331626 0.425352 0.136514
0.456788 0.456788 0.152392
0.587655 0.488572 0.169773
0.707203 0.520449 0.188719
0.803671 0.552160 0.209278
0.874018 0.583452 0.231474
0.135357 0.536336 0.142125
0.209683 0.567869 0.158542
0.310180 0.598861 0.176486
0.432485 0.629082 0.196015
0.563613 0.658325 0.217168
0.686412 0.686412 0.239962
0.787674 0.713197 0.264389
0.862774 0.738564 0.290411
0.914204 0.762436 0.317958
0.193835 0.726059 0.203527
0.289519 0.750687 0.225276
0.408502 0.773791 0.248667
0.539269 0.795337 0.273681
0.664845 0.815321 0.300268
0.770745 0.833761 0.328346
0.850697 0.850697 0.357795
0.906161 0.866185 0.388465
0.942416 0.880292 0.420168
0.269697 0.858616 0.283182
0.384948 0.873404 0.310323
0.514736 0.886850 0.338916
0.642566 0.899032 0.368829
0.752889 0.910036 0.399898
0.837758 0.919948 0.431924
0.897449 0.928853 0.464683
0.936835 0.936835 0.497924
0.961739 0.943976 0.531384
0.361920 0.932953 0.380016
0.490131 0.940505 0.411458
0.619654 0.947254 0.443778
0.734122 0.953276 0.476742
0.823929 0.958640 0.510094
0.888029 0.963412 0.543567
0.930753 0.967652 0.576889
0.957948 0.971415 0.609794
0.974752 0.974752 0.642030
0.018768 0.018768 0.029129
0.031398 0.021267 0.032968
0.052077 0.024090 0.037294
0.085177 0.027278 0.042164
0.136291 0.030875 0.047640
0.211005 0.034929 0.053790
0.311885 0.039494 0.060685
0.434440 0.044627 0.068403
0.565570 0.050393 0.077027
0.028538 0.041985 0.044084
0.047426 0.047426 0.049797
0.077813 0.053533 0.056210
0.125113 0.060376 0.063395
0.195082 0.068032 0.071434
0.291159 0.076579 0.080408
0.410427 0.086101 0.090406
0.541246 0.096683 0.101517
0.666616 0.108411 0.113831
0.043172 0.091252 0.066219
0.071036 0.102396 0.074588
0.114729 0.114729 0.083925
0.180087 0.128335 0.094317
0.271268 0.143294 0.105856
0.386834 0.159676 0.118631
0.516724 0.177543 0.132731
0.644392 0.196942 0.148239
0.754367 0.217898 0.165234
0.064808 0.187046 0.098381
0.105104 0.207221 0.110359
0.166006 0.228959 0.123606
0.252252 0.252252 0.138209
0.363760 0.277062 0.154251
0.492121 0.303324 0.171803
0.621528 0.330935 0.190927
0.735673 0.359761 0.211667
0.825081 0.389637 0.234046
0.096198 0.345201 0.143879
0.152822 0.374575 0.160463
0.234140 0.404902 0.178581
0.341297 0.435973 0.198289
0.467556 0.467556 0.219624
0.598111 0.499400 0.242601
0.716092 0.531249 0.267208
0.810417 0.562846 0.293404
0.878711 0.593941 0.321114
0.140508 0.547090 0.205867
0.216952 0.578466 0.227799
0.319524 0.609221 0.251372
0.443147 0.639132 0.276564
0.574237 0.668002 0.303322
0.695661 0.695661 0.331559
0.794828 0.721975 0.361152
0.867822 0.746842 0.391947
0.917541 0.770193 0.423752
0.200694 0.734591 0.286128
0.298511 0.758706 0.313436
0.419010 0.781283 0.342183
0.550012 0.802298 0.372234
0.674428 0.821755 0.403420
0.778309 0.839679 0.435539
0.856116 0.856116 0.468364
0.909781 0.871127 0.501642
0.944722 0.884782 0.535110
0.278314 0.863793 0.383466
0.395254 0.878117 0.415017
0.525548 0.891125 0.447421
0.652453 0.902897 0.480440
0.760860 0.913521 0.513819
0.843560 0.923081 0.547289
0.901368 0.931663 0.580577
0.939351 0.939351 0.613420
0.963302 0.946223 0.645566
0.371983 0.935612 0.492565
0.500960 0.942883 0.526008
0.629810 0.949377 0.559443
0.742492 0.955168 0.592600
0.830126 0.960324 0.625217
0.892264 0.964909 0.657051
0.933494 0.968981 0.687880
0.959659 0.972594 0.717515
0.975797 0.975797 0.745797
0.019582 0.019582 0.044687
0.032742 0.022187 0.050475
0.054257 0.025130 0.056970
0.088614 0.028452 0.064246
0.141472 0.032198 0.072385
0.218307 0.036419 0.081469
0.321257 0.041170 0.091586
0.445112 0.046511 0.102826
0.576182 0.052507 0.115280
0.029764 0.043762 0.067105
0.049422 0.049422 0.075578
0.080979 0.055771 0.085028
0.129932 0.062881 0.095544
0.201974 0.070831 0.107215
0.300180 0.079699 0.120133
0.420949 0.089571 0.134386
0.551981 0.100533 0.150057
0.676173 0.112669 0.167221
0.044997 0.094909 0.099654
0.073949 0.106447 0.111769
0.119203 0.119203 0.125163
0.186572 0.133260 0.139923
0.279916 0.148694 0.156129
0.397158 0.165575 0.173854
0.527532 0.183958 0.193156
0.654256 0.203883 0.214077
0.762305 0.225370 0.236639
0.067484 0.193723 0.145651
0.109249 0.214428 0.162403
0.172091 0.236696 0.180696
0.260510 0.260510 0.200583
0.373844 0.285823 0.222101
0.502950 0.312555 0.245260
0.631664 0.340596 0.270047
0.744011 0.369799 0.296415
0.831245 0.399987 0.324288
0.100031 0.355058 0.208227
0.158515 0.384777 0.230342
0.241997 0.415382 0.254097
0.351102 0.446654 0.279467
0.478354 0.478354 0.306394
0.608478 0.510229 0.334788
0.724816 0.542021 0.364524
0.816983 0.573474 0.395441
0.883253 0.604344 0.427345
0.145821 0.557800 0.289094
0.224401 0.588992 0.316567
0.329016 0.619484 0.345467
0.453862 0.649062 0.375653
0.584793 0.677538 0.406953
0.704754 0.704754 0.439163
0.801803 0.730586 0.472051
0.872713 0.754945 0.505364
0.920760 0.777770 0.538836
0.207734 0.742950 0.386929
0.307660 0.766548 0.418586
0.429591 0.788595 0.451071
0.560709 0.809079 0.484143
0.683867 0.828012 0.517546
0.785694 0.845425 0.551008
0.861371 0.861371 0.584260
0.913274 0.875913 0.617038
0.946941 0.889126 0.649091
0.287098 0.868810 0.496280
0.405654 0.882678 0.529735
0.536336 0.895257 0.563153
0.662210 0.906630 0.596262
0.768653 0.916882 0.628804
0.849192 0.926101 0.660536
0.905153 0.934370 0.691242
0.941772 0.941772 0.720733
0.964803 0.948386 0.748856
0.382158 0.938173 0.608188
0.511788 0.945172 0.640462
0.639852 0.951419 0.671844
0.750687 0.956987 0.702128
0.836148 0.961942 0.731137
0.896358 0.966346 0.758731
0.936133 0.970257 0.784803
0.961303 0.973725 0.809282
0.976799 0.976799 0.832128
0.020431 0.020431 0.068003
0.034142 0.023147 0.076580
0.056523 0.026213 0.086144
0.092175 0.029674 0.096784
0.146815 0.033576 0.108590
0.225790 0.037970 0.121652
0.330775 0.042915 0.136059
0.455835 0.048470 0.151892
0.586724 0.054704 0.169227
0.031041 0.045611 0.100942
0.051497 0.051497 0.113195
0.084262 0.058096 0.126737
0.134908 0.065483 0.141654
0.209047 0.073735 0.158026
0.309359 0.082935 0.175923
0.431543 0.093167 0.195404
0.562669 0.104518 0.216507
0.685585 0.117074 0.239252
0.046896 0.098696 0.147442
0.076970 0.110638 0.164362
0.123827 0.123827 0.182830
0.193236 0.138343 0.202898
0.288730 0.154262 0.224598
0.407575 0.171647 0.247939
0.538315 0.190550 0.272905
0.663989 0.211005 0.299445
0.770065 0.233023 0.327480
0.070261 0.200579 0.210608
0.113536 0.221815 0.232906
0.178351 0.244612 0.256842
0.268941 0.268941 0.282388
0.384039 0.294747 0.309484
0.513777 0.321938 0.338035
0.641684 0.350391 0.367911
0.752174 0.379950 0.398948
0.837235 0.410427 0.430948
0.103999 0.365039 0.292078
0.164379 0.395082 0.319716
0.250032 0.425939 0.348766
0.361034 0.457384 0.379085
0.489172 0.489172 0.410498
0.618749 0.521048 0.442795
0.733372 0.552753 0.475743
0.823372 0.584035 0.509087
0.887646 0.614655 0.542560
0.151300 0.568457 0.390405
0.232031 0.599437 0.422165
0.338649 0.629642 0.454728
0.464619 0.658865 0.487850
0.595271 0.686929 0.521273
0.713687 0.713687 0.554725
0.808597 0.739027 0.587937
0.877448 0.762870 0.620646
0.923864 0.785168 0.652605
0.214954 0.751136 0.499997
0.316964 0.774210 0.533462
0.440237 0.795727 0.566858
0.571350 0.815682 0.599917
0.693157 0.834093 0.632380
0.792897 0.851002 0.664009
0.866463 0.866463 0.694588
0.916644 0.880545 0.723934
0.949076 0.893325 0.751897
0.296046 0.873669 0.611818
0.416140 0.887090 0.644004
0.547090 0.899250 0.675273
0.671831 0.910233 0.705423
0.776266 0.920125 0.734281
0.854657 0.929011 0.761710
0.908807 0.936977 0.787608
0.944103 0.944103 0.811906
0.966245 0.950465 0.834570
0.392437 0.940639 0.716087
0.522605 0.947374 0.744439
0.649773 0.953382 0.771320
0.758706 0.958735 0.796642
0.841997 0.963496 0.820347
0.900314 0.967727 0.842413
0.938675 0.971482 0.862842
0.962882 0.974811 0.881663
0.977761 0.977761 0.898922
0.021317 0.021317 0.102245
0.035600 0.024147 0.114637
0.058878 0.027342 0.128328
0.095865 0.030947 0.143403
0.152325 0.035010 0.159941
0.233452 0.039585 0.178013
0.340434 0.044730 0.197672
0.466600 0.050508 0.218958
0.597188 0.056988 0.241885
0.032371 0.047534 0.149251
0.053655 0.053655 0.166340
0.087665 0.060513 0.184984
0.140045 0.068184 0.205232
0.216300 0.076749 0.227115
0.318690 0.086290 0.250639
0.442200 0.096892 0.275783
0.573298 0.108643 0.302494
0.694847 0.121626 0.330688
0.048870 0.102617 0.213009
0.080105 0.114973 0.235490
0.128604 0.128604 0.259607
0.200079 0.143588 0.285330
0.297707 0.159998 0.312593
0.418075 0.177894 0.341298
0.549062 0.197321 0.371312
0.673584 0.218307 0.402466
0.777646 0.240855 0.434561
0.073145 0.207615 0.295081
0.117970 0.229383 0.322882
0.184788 0.252704 0.352081
0.277543 0.277543 0.382532
0.394336 0.303831 0.414053
0.524590 0.331466 0.446435
0.651582 0.360314 0.479440
0.760161 0.390208 0.512812
0.843053 0.420949 0.546282
0.108106 0.375137 0.393894
0.170416 0.405481 0.425755
0.258243 0.436564 0.458392
0.371086 0.468153 0.491561
0.500000 0.500000 0.525000
0.628914 0.531847 0.558439
0.741757 0.563436 0.591608
0.829584 0.594519 0.624245
0.891894 0.624863 0.656106
0.156947 0.579051 0.503718
0.239839 0.609792 0.537188
0.348418 0.639686 0.570560
0.475410 0.668534 0.603565
0.605664 0.696169 0.635947
0.722457 0.722457 0.667468
0.815212 0.747296 0.697919
0.882030 0.770617 0.727118
0.926855 0.792385 0.754919
0.222354 0.759145 0.615439
0.326416 0.781693 0.647534
0.450938 0.802679 0.678688
0.581925 0.822106 0.708702
0.702293 0.840002 0.737407
0.799921 0.856412 0.764670
0.871396 0.871396 0.790393
0.919895 0.885027 0.814510
0.951130 0.897383 0.836991
0.305153 0.878374 0.719312
0.426702 0.891357 0.747506
0.557800 0.903108 0.774217
0.681310 0.913710 0.799361
0.783700 0.923251 0.822885
0.859955 0.931816 0.844768
0.912335 0.939487 0.865016
0.946345 0.946345 0.883660
0.967629 0.952466 0.900749
0.402812 0.943012 0.808115
0.533400 0.949492 0.831042
0.659566 0.955270 0.852328
0.766548 0.960415 0.871987
0.847675 0.964990 0.890059
0.904135 0.969053 0.906597
0.941122 0.972658 0.921672
0.964400 0.975853 0.935363
0.978683 0.978683 0.947755
0.022239 0.022239 0.151078
0.037118 0.025189 0.168337
0.061325 0.028518 0.187158
0.099686 0.032273 0.207587
0.158003 0.036504 0.229653
0.241294 0.041265 0.253358
0.350227 0.046618 0.278680
0.477395 0.052626 0.305561
0.607563 0.059361 0.333913
0.033755 0.049535 0.215430
0.055897 0.055897 0.238094
0.091193 0.063023 0.262392
0.145343 0.070989 0.288290
0.223734 0.079875 0.315719
0.328169 0.089767 0.344577
0.452910 0.100750 0.374727
0.583860 0.112910 0.405996
0.703954 0.126331 0.438182
0.050924 0.106675 0.298103
0.083356 0.119455 0.326066
0.133537 0.133537 0.355412
0.207103 0.148998 0.385991
0.306843 0.165907 0.417620
0.428650 0.184318 0.450083
0.559763 0.204273 0.483142
0.683036 0.225790 0.516538
0.785046 0.248864 0.550003
0.076136 0.214832 0.397395
0.122552 0.237130 0.429354
0.191403 0.260973 0.462063
0.286313 0.286313 0.495275
0.404729 0.313071 0.528727
0.535381 0.341135 0.562150
0.661351 0.370358 0.595272
0.767969 0.400563 0.627835
0.848700 0.431543 0.659595
0.112354 0.385345 0.507440
0.176628 0.415965 0.540913
0.266628 0.447247 0.574257
0.381251 0.478952 0.607205
0.510828 0.510828 0.639502
0.638966 0.542616 0.670915
0.749968 0.574061 0.701234
0.835621 0.604918 0.730284
0.896001 0.634961 0.757922
0.162765 0.589573 0.619052
0.247826 0.620050 0.651052
0.358316 0.649609 0.682089
0.486223 0.678062 0.711965
0.615961 0.705253 0.740516
0.731059 0.731059 0.767612
0.821649 0.755388 0.793158
0.886464 0.778185 0.817094
0.929739 0.799421 0.839392
0.229935 0.766977 0.722520
0.336011 0.788995 0.750555
0.461685 0.809450 0.777095
0.592425 0.828353 0.802061
0.711270 0.845738 0.825402
0.806764 0.861657 0.847102
0.876173 0.876173 0.867170
0.923030 0.889362 0.885638
0.953104 0.901304 0.902558
0.314415 0.882926 0.810748
0.437331 0.895482 0.833493
0.568457 0.906833 0.854596
0.690641 0.917065 0.874077
0.790953 0.926265 0.891974
0.865092 0.934517 0.908346
0.915738 0.941904 0.923263
0.948503 0.948503 0.936805
0.968959 0.954389 0.949058
0.413276 0.945296 0.880773
0.544165 0.951530 0.898108
0.669225 0.957085 0.913941
0.774210 0.962030 0.928348
0.853185 0.966424 0.941410
0.907825 0.970326 0.953216
0.943477 0.973787 0.963856
0.965858 0.976853 0.973420
0.979569 0.979569 0.981997
0.023201 0.023201 0.217872
0.038697 0.026275 0.240718
0.063867 0.029743 0.265197
0.103642 0.033654 0.291269
0.163852 0.038058 0.318863
0.249313 0.043013 0.347872
0.360148 0.048581 0.378156
0.488212 0.054828 0.409538
0.617842 0.061827 0.441812
0.035197 0.051614 0.301144
0.058228 0.058228 0.329267
0.094847 0.065630 0.358758
0.150808 0.073899 0.389464
0.231347 0.083118 0.421196
0.337790 0.093370 0.453738
0.463664 0.104743 0.486847
0.594346 0.117322 0.520265
0.712902 0.131190 0.553720
0.053059 0.110874 0.400909
0.086726 0.124087 0.432962
0.138629 0.138629 0.465740
0.214306 0.154575 0.498992
0.316133 0.171988 0.532454
0.439291 0.190921 0.565857
0.570409 0.211405 0.598929
0.692340 0.233452 0.631414
0.792266 0.257050 0.663071
0.079240 0.222230 0.511164
0.127287 0.245055 0.544636
0.198197 0.269414 0.577949
0.295246 0.295246 0.610837
0.415207 0.322462 0.643047
0.546138 0.350938 0.674347
0.670984 0.380516 0.704533
0.775599 0.411008 0.733433
0.854179 0.442200 0.760906
0.116747 0.395656 0.622655
0.183017 0.426526 0.654559
0.275184 0.457979 0.685476
0.391522 0.489771 0.715212
0.521646 0.521646 0.743606
0.648898 0.553346 0.770533
0.758003 0.584618 0.795903
0.841485 0.615223 0.819658
0.899969 0.644942 0.841773
0.168755 0.600013 0.725712
0.255989 0.630201 0.753585
0.368336 0.659404 0.779953
0.497050 0.687445 0.804740
0.626156 0.714177 0.827899
0.739490 0.739490 0.849417
0.827909 0.763304 0.869304
0.890751 0.785572 0.887597
0.932516 0.806277 0.904349
0.237695 0.774630 0.813361
0.345744 0.796117 0.835923
0.472468 0.816042 0.856844
0.602842 0.834425 0.876146
0.720084 0.851306 0.893871
0.813428 0.866740 0.910077
0.880797 0.880797 0.924837
0.926051 0.893553 0.938231
0.955003 0.905091 0.950346
0.323827 0.887331 0.882779
0.448019 0.899467 0.899943
0.579051 0.910429 0.915614
0.699820 0.920301 0.929867
0.798026 0.929169 0.942785
0.870068 0.937119 0.954456
0.919021 0.944229 0.964972
0.950578 0.950578 0.974422
0.970236 0.956238 0.982895
0.423818 0.947493 0.934720
0.554888 0.953489 0.947174
0.678743 0.958830 0.958414
0.781693 0.963581 0.968531
0.858528 0.967802 0.977615
0.911386 0.971548 0.985754
0.945743 0.974870 0.993030
0.967258 0.977813 0.999525
0.980418 0.980418 1.000000
0.024203 0.024203 0.304203
0.040341 0.027406 0.332485
0.066506 0.031019 0.362120
0.107736 0.035091 0.392949
0.169874 0.039676 0.424783
0.257508 0.044832 0.457400
0.370190 0.050623 0.490557
0.499040 0.057117 0.523992
0.628017 0.064388 0.557435
0.036698 0.053777 0.404434
0.060649 0.060649 0.436580
0.098632 0.068337 0.469423
0.156440 0.076919 0.502711
0.239140 0.086479 0.536181
0.347547 0.097103 0.569560
0.474452 0.108875 0.602579
0.604746 0.121883 0.634983
0.721686 0.136207 0.666534
0.055278 0.115218 0.514890
0.090219 0.128873 0.548358
0.143884 0.143884 0.581636
0.221691 0.160321 0.614461
0.325572 0.178245 0.646580
0.449988 0.197702 0.677766
0.580990 0.218717 0.707817
0.701489 0.241294 0.736564
0.799306 0.265409 0.763872
0.082459 0.229807 0.626248
0.132178 0.253158 0.658053
0.205172 0.278025 0.688848
0.304339 0.304339 0.718441
0.425763 0.331998 0.746678
0.556853 0.360868 0.773436
0.680476 0.390779 0.798628
0.783048 0.421534 0.822201
0.859492 0.452910 0.844133
0.121289 0.406059 0.728886
0.189583 0.437154 0.756596
0.283908 0.468751 0.782792
0.401889 0.500600 0.807399
0.532444 0.532444 0.830376
0.658703 0.564027 0.851711
0.765860 0.595098 0.871419
0.847178 0.625425 0.889537
0.903802 0.654799 0.906121
0.174919 0.610363 0.815954
0.264327 0.640239 0.838333
0.378472 0.669065 0.859073
0.507879 0.696676 0.878197
0.636240 0.722938 0.895749
0.747748 0.747748 0.911791
0.833994 0.771041 0.926394
0.894896 0.792779 0.939641
0.935192 0.812954 0.951619
0.245633 0.782102 0.884766
0.355608 0.803058 0.901761
0.483276 0.822457 0.917269
0.613166 0.840324 0.931369
0.728732 0.856706 0.944144
0.819913 0.871665 0.955683
0.885271 0.885271 0.966075
0.928964 0.897604 0.975412
0.956828 0.908748 0.983781
0.333384 0.891589 0.936169
0.458754 0.903317 0.948483
0.589573 0.913899 0.959594
0.708841 0.923421 0.969592
0.804918 0.931968 0.978566
0.874887 0.939624 0.986605
0.922187 0.946467 0.993790
0.952574 0.952574 1.000000
0.971462 0.958015 1.000000
0.434430 0.949607 0.972973
0.565560 0.955373 0.981597
0.688115 0.960506 0.989315
0.788995 0.965071 0.996210
0.863709 0.969125 1.000000
0.914823 0.972722 1.000000
0.947923 0.975910 1.000000
0.968602 0.978733 1.000000
0.981232 0.981232 1.000000
0.025248 0.025248 0.407970
0.042052 0.028585 0.440206
0.069247 0.032348 0.473111
0.111971 0.036588 0.506433
0.176071 0.041360 0.539906
0.265878 0.046724 0.573258
0.380346 0.052746 0.606222
0.509869 0.059495 0.638542
0.638080 0.067047 0.669984
0.038261 0.056024 0.518616
0.063165 0.063165 0.552076
0.102551 0.071147 0.585317
0.162242 0.080052 0.618076
0.247111 0.089964 0.650102
0.357434 0.100968 0.681171
0.485264 0.113150 0.711084
0.615052 0.126596 0.739677
0.730303 0.141384 0.766818
0.057584 0.119708 0.629832
0.093839 0.133815 0.661535
0.149303 0.149303 0.692205
0.229255 0.166239 0.721654
0.335155 0.184679 0.749732
0.460731 0.204663 0.776319
0.591498 0.226209 0.801333
0.710481 0.249313 0.824724
0.806165 0.273941 0.846473
0.085796 0.237564 0.732042
0.137226 0.261436 0.759589
0.212326 0.286803 0.785611
0.313588 0.313588 0.810038
0.436387 0.341675 0.832832
0.567515 0.370918 0.853985
0.689820 0.401139 0.873514
0.790317 0.432131 0.891458
0.864643 0.463664 0.907875
0.125982 0.416548 0.818526
0.196329 0.447840 0.840722
0.292797 0.479551 0.861281
0.412345 0.511428 0.880227
0.543212 0.543212 0.897608
0.668374 0.574648 0.913486
0.773538 0.605492 0.927934
0.852703 0.635517 0.941036
0.907503 0.664524 0.952878
0.181259 0.620615 0.886733
0.272836 0.650155 0.903559
0.388714 0.678586 0.918907
0.518701 0.705752 0.932855
0.646205 0.731530 0.945488
0.755832 0.755832 0.956895
0.839905 0.778599 0.967165
0.898902 0.799806 0.976390
0.937768 0.819452 0.984657
0.253748 0.789395 0.937602
0.365595 0.809820 0.949778
0.494100 0.828694 0.960760
0.623389 0.846051 0.970640
0.737210 0.861943 0.979506
0.826221 0.876433 0.987445
0.889598 0.889598 0.994541
0.931770 0.901517 1.000000
0.958583 0.912277 1.000000
0.343080 0.895706 0.973980
0.469528 0.907035 0.982499
0.600013 0.917247 0.990122
0.717700 0.926429 0.996931
0.811631 0.934664 1.000000
0.879553 0.942035 1.000000
0.925239 0.948620 1.000000
0.954493 0.954493 1.000000
0.972639 0.959724 1.000000
0.445102 0.951640 0.999222
0.576172 0.957184 1.000000
0.697335 0.962117 1.000000
0.796117 0.966502 1.000000
0.868728 0.970395 1.000000
0.918139 0.973848 1.000000
0.950021 0.976907 1.000000
0.969893 0.979617 1.000000
0.982014 0.982014 1.000000
