apps/booth/assets/luts/glamour_bw.cube
TITLE "Glamour B&W"
LUT_3D_SIZE 9
0.023529 0.023529 0.023529
0.031373 0.031373 0.031373
0.043137 0.043137 0.043137
0.054902 0.054902 0.054902
0.070588 0.070588 0.070588
0.090196 0.090196 0.090196
0.117647 0.117647 0.117647
0.149020 0.149020 0.149020
0.188235 0.188235 0.188235
0.043137 0.043137 0.043137
0.054902 0.054902 0.054902
0.070588 0.070588 0.070588
0.090196 0.090196 0.090196
0.113725 0.113725 0.113725
0.145098 0.145098 0.145098
0.184314 0.184314 0.184314
0.223529 0.223529 0.223529
0.278431 0.278431 0.278431
0.070588 0.070588 0.070588
0.090196 0.090196 0.090196
0.113725 0.113725 0.113725
0.145098 0.145098 0.145098
0.180392 0.180392 0.180392
0.223529 0.223529 0.223529
0.278431 0.278431 0.278431
0.329412 0.329412 0.329412
0.396078 0.396078 0.396078
0.113725 0.113725 0.113725
0.145098 0.145098 0.145098
0.180392 0.180392 0.180392
0.223529 0.223529 0.223529
0.270588 0.270588 0.270588
0.329412 0.329412 0.329412
0.388235 0.388235 0.388235
0.454902 0.454902 0.454902
0.517647 0.517647 0.517647
0.180392 0.180392 0.180392
0.219608 0.219608 0.219608
0.270588 0.270588 0.270588
0.325490 0.325490 0.325490
0.388235 0.388235 0.388235
0.454902 0.454902 0.454902
0.517647 0.517647 0.517647
0.588235 0.588235 0.588235
0.647059 0.647059 0.647059
0.270588 0.270588 0.270588
0.325490 0.325490 0.325490
0.388235 0.388235 0.388235
0.450980 0.450980 0.450980
0.517647 0.517647 0.517647
0.580392 0.580392 0.580392
0.647059 0.647059 0.647059
0.701961 0.701961 0.701961
0.756863 0.756863 0.756863
0.388235 0.388235 0.388235
0.450980 0.450980 0.450980
0.513725 0.513725 0.513725
0.580392 0.580392 0.580392
0.647059 0.647059 0.647059
0.701961 0.701961 0.701961
0.756863 0.756863 0.756863
0.800000 0.800000 0.800000
0.839216 0.839216 0.839216
0.513725 0.513725 0.513725
0.580392 0.580392 0.580392
0.639216 0.639216 0.639216
0.701961 0.701961 0.701961
0.752941 0.752941 0.752941
0.800000 0.800000 0.800000
0.835294 0.835294 0.835294
0.870588 0.870588 0.870588
0.898039 0.898039 0.898039
0.639216 0.639216 0.639216
0.698039 0.698039 0.698039
0.752941 0.752941 0.752941
0.800000 0.800000 0.800000
0.835294 0.835294 0.835294
0.870588 0.870588 0.870588
0.898039 0.898039 0.898039
0.921569 0.921569 0.921569
0.937255 0.937255 0.937255
0.027451 0.027451 0.027451
0.035294 0.035294 0.035294
0.047059 0.047059 0.047059
0.058824 0.058824 0.058824
0.078431 0.078431 0.078431
0.101961 0.101961 0.101961
0.129412 0.129412 0.129412
0.160784 0.160784 0.160784
0.200000 0.200000 0.200000
0.047059 0.047059 0.047059
0.058824 0.058824 0.058824
0.074510 0.074510 0.074510
0.098039 0.098039 0.098039
0.125490 0.125490 0.125490
0.160784 0.160784 0.160784
0.196078 0.196078 0.196078
0.243137 0.243137 0.243137
0.294118 0.294118 0.294118
0.074510 0.074510 0.074510
0.098039 0.098039 0.098039
0.125490 0.125490 0.125490
0.156863 0.156863 0.156863
0.196078 0.196078 0.196078
0.243137 0.243137 0.243137
0.294118 0.294118 0.294118
0.356863 0.356863 0.356863
0.415686 0.415686 0.415686
0.125490 0.125490 0.125490
0.156863 0.156863 0.156863
0.196078 0.196078 0.196078
0.239216 0.239216 0.239216
0.294118 0.294118 0.294118
0.349020 0.349020 0.349020
0.415686 0.415686 0.415686
0.478431 0.478431 0.478431
0.545098 0.545098 0.545098
0.196078 0.196078 0.196078
0.239216 0.239216 0.239216
0.286275 0.286275 0.286275
0.349020 0.349020 0.349020
0.415686 0.415686 0.415686
0.478431 0.478431 0.478431
0.545098 0.545098 0.545098
0.607843 0.607843 0.607843
0.670588 0.670588 0.670588
0.286275 0.286275 0.286275
0.349020 0.349020 0.349020
0.407843 0.407843 0.407843
0.478431 0.478431 0.478431
0.541176 0.541176 0.541176
0.607843 0.607843 0.607843
0.666667 0.666667 0.666667
0.725490 0.725490 0.725490
0.776471 0.776471 0.776471
0.407843 0.407843 0.407843
0.470588 0.470588 0.470588
0.541176 0.541176 0.541176
0.607843 0.607843 0.607843
0.666667 0.666667 0.666667
0.725490 0.725490 0.725490
0.772549 0.772549 0.772549
0.815686 0.815686 0.815686
0.850980 0.850980 0.850980
0.541176 0.541176 0.541176
0.600000 0.600000 0.600000
0.666667 0.666667 0.666667
0.717647 0.717647 0.717647
0.772549 0.772549 0.772549
0.811765 0.811765 0.811765
0.850980 0.850980 0.850980
0.882353 0.882353 0.882353
0.905882 0.905882 0.905882
0.666667 0.666667 0.666667
0.717647 0.717647 0.717647
0.772549 0.772549 0.772549
0.811765 0.811765 0.811765
0.850980 0.850980 0.850980
0.882353 0.882353 0.882353
0.905882 0.905882 0.905882
0.925490 0.925490 0.925490
0.941176 0.941176 0.941176
0.031373 0.031373 0.031373
0.039216 0.039216 0.039216
0.050980 0.050980 0.050980
0.066667 0.066667 0.066667
0.086275 0.086275 0.086275
0.109804 0.109804 0.109804
0.141176 0.141176 0.141176
0.176471 0.176471 0.176471
0.219608 0.219608 0.219608
0.050980 0.050980 0.050980
0.066667 0.066667 0.066667
0.086275 0.086275 0.086275
0.105882 0.105882 0.105882
0.137255 0.137255 0.137255
0.168627 0.168627 0.168627
0.215686 0.215686 0.215686
0.266667 0.266667 0.266667
0.317647 0.317647 0.317647
0.086275 0.086275 0.086275
0.105882 0.105882 0.105882
0.133333 0.133333 0.133333
0.168627 0.168627 0.168627
0.215686 0.215686 0.215686
0.258824 0.258824 0.258824
0.317647 0.317647 0.317647
0.376471 0.376471 0.376471
0.443137 0.443137 0.443137
0.133333 0.133333 0.133333
0.168627 0.168627 0.168627
0.207843 0.207843 0.207843
0.258824 0.258824 0.258824
0.309804 0.309804 0.309804
0.376471 0.376471 0.376471
0.443137 0.443137 0.443137
0.505882 0.505882 0.505882
0.572549 0.572549 0.572549
0.207843 0.207843 0.207843
0.254902 0.254902 0.254902
0.309804 0.309804 0.309804
0.376471 0.376471 0.376471
0.435294 0.435294 0.435294
0.505882 0.505882 0.505882
0.568627 0.568627 0.568627
0.635294 0.635294 0.635294
0.690196 0.690196 0.690196
0.309804 0.309804 0.309804
0.368627 0.368627 0.368627
0.435294 0.435294 0.435294
0.498039 0.498039 0.498039
0.568627 0.568627 0.568627
0.635294 0.635294 0.635294
0.690196 0.690196 0.690196
0.745098 0.745098 0.745098
0.792157 0.792157 0.792157
0.435294 0.435294 0.435294
0.498039 0.498039 0.498039
0.568627 0.568627 0.568627
0.627451 0.627451 0.627451
0.690196 0.690196 0.690196
0.741176 0.741176 0.741176
0.792157 0.792157 0.792157
0.831373 0.831373 0.831373
0.866667 0.866667 0.866667
0.568627 0.568627 0.568627
0.627451 0.627451 0.627451
0.686275 0.686275 0.686275
0.741176 0.741176 0.741176
0.792157 0.792157 0.792157
0.831373 0.831373 0.831373
0.866667 0.866667 0.866667
0.890196 0.890196 0.890196
0.913725 0.913725 0.913725
0.686275 0.686275 0.686275
0.741176 0.741176 0.741176
0.788235 0.788235 0.788235
0.831373 0.831373 0.831373
0.862745 0.862745 0.862745
0.890196 0.890196 0.890196
0.913725 0.913725 0.913725
0.933333 0.933333 0.933333
0.949020 0.949020 0.949020
0.035294 0.035294 0.035294
0.043137 0.043137 0.043137
0.058824 0.058824 0.058824
0.074510 0.074510 0.074510
0.094118 0.094118 0.094118
0.121569 0.121569 0.121569
0.152941 0.152941 0.152941
0.192157 0.192157 0.192157
0.239216 0.239216 0.239216
0.058824 0.058824 0.058824
0.070588 0.070588 0.070588
0.090196 0.090196 0.090196
0.117647 0.117647 0.117647
0.149020 0.149020 0.149020
0.188235 0.188235 0.188235
0.235294 0.235294 0.235294
0.282353 0.282353 0.282353
0.341176 0.341176 0.341176
0.090196 0.090196 0.090196
0.117647 0.117647 0.117647
0.149020 0.149020 0.149020
0.188235 0.188235 0.188235
0.227451 0.227451 0.227451
0.282353 0.282353 0.282353
0.337255 0.337255 0.337255
0.400000 0.400000 0.400000
0.470588 0.470588 0.470588
0.149020 0.149020 0.149020
0.184314 0.184314 0.184314
0.227451 0.227451 0.227451
0.278431 0.278431 0.278431
0.337255 0.337255 0.337255
0.400000 0.400000 0.400000
0.462745 0.462745 0.462745
0.533333 0.533333 0.533333
0.596078 0.596078 0.596078
0.227451 0.227451 0.227451
0.278431 0.278431 0.278431
0.337255 0.337255 0.337255
0.396078 0.396078 0.396078
0.462745 0.462745 0.462745
0.525490 0.525490 0.525490
0.596078 0.596078 0.596078
0.658824 0.658824 0.658824
0.713725 0.713725 0.713725
0.337255 0.337255 0.337255
0.396078 0.396078 0.396078
0.454902 0.454902 0.454902
0.525490 0.525490 0.525490
0.596078 0.596078 0.596078
0.654902 0.654902 0.654902
0.713725 0.713725 0.713725
0.760784 0.760784 0.760784
0.807843 0.807843 0.807843
0.454902 0.454902 0.454902
0.525490 0.525490 0.525490
0.588235 0.588235 0.588235
0.654902 0.654902 0.654902
0.709804 0.709804 0.709804
0.760784 0.760784 0.760784
0.807843 0.807843 0.807843
0.843137 0.843137 0.843137
0.878431 0.878431 0.878431
0.588235 0.588235 0.588235
0.647059 0.647059 0.647059
0.709804 0.709804 0.709804
0.760784 0.760784 0.760784
0.803922 0.803922 0.803922
0.843137 0.843137 0.843137
0.874510 0.874510 0.874510
0.901961 0.901961 0.901961
0.921569 0.921569 0.921569
0.709804 0.709804 0.709804
0.756863 0.756863 0.756863
0.803922 0.803922 0.803922
0.839216 0.839216 0.839216
0.874510 0.874510 0.874510
0.901961 0.901961 0.901961
0.921569 0.921569 0.921569
0.937255 0.937255 0.937255
0.952941 0.952941 0.952941
0.039216 0.039216 0.039216
0.047059 0.047059 0.047059
0.062745 0.062745 0.062745
0.082353 0.082353 0.082353
0.105882 0.105882 0.105882
0.133333 0.133333 0.133333
0.164706 0.164706 0.164706
0.207843 0.207843 0.207843
0.254902 0.254902 0.254902
0.062745 0.062745 0.062745
0.078431 0.078431 0.078431
0.101961 0.101961 0.101961
0.129412 0.129412 0.129412
0.160784 0.160784 0.160784
0.203922 0.203922 0.203922
0.250980 0.250980 0.250980
0.305882 0.305882 0.305882
0.360784 0.360784 0.360784
0.101961 0.101961 0.101961
0.129412 0.129412 0.129412
0.160784 0.160784 0.160784
0.200000 0.200000 0.200000
0.250980 0.250980 0.250980
0.298039 0.298039 0.298039
0.360784 0.360784 0.360784
0.427451 0.427451 0.427451
0.490196 0.490196 0.490196
0.160784 0.160784 0.160784
0.200000 0.200000 0.200000
0.250980 0.250980 0.250980
0.298039 0.298039 0.298039
0.360784 0.360784 0.360784
0.423529 0.423529 0.423529
0.490196 0.490196 0.490196
0.552941 0.552941 0.552941
0.619608 0.619608 0.619608
0.250980 0.250980 0.250980
0.298039 0.298039 0.298039
0.356863 0.356863 0.356863
0.423529 0.423529 0.423529
0.482353 0.482353 0.482353
0.552941 0.552941 0.552941
0.619608 0.619608 0.619608
0.678431 0.678431 0.678431
0.737255 0.737255 0.737255
0.356863 0.356863 0.356863
0.423529 0.423529 0.423529
0.482353 0.482353 0.482353
0.552941 0.552941 0.552941
0.615686 0.615686 0.615686
0.678431 0.678431 0.678431
0.729412 0.729412 0.729412
0.780392 0.780392 0.780392
0.827451 0.827451 0.827451
0.482353 0.482353 0.482353
0.545098 0.545098 0.545098
0.615686 0.615686 0.615686
0.670588 0.670588 0.670588
0.729412 0.729412 0.729412
0.780392 0.780392 0.780392
0.819608 0.819608 0.819608
0.858824 0.858824 0.858824
0.886275 0.886275 0.886275
0.615686 0.615686 0.615686
0.670588 0.670588 0.670588
0.729412 0.729412 0.729412
0.776471 0.776471 0.776471
0.819608 0.819608 0.819608
0.854902 0.854902 0.854902
0.886275 0.886275 0.886275
0.909804 0.909804 0.909804
0.929412 0.929412 0.929412
0.729412 0.729412 0.729412
0.776471 0.776471 0.776471
0.815686 0.815686 0.815686
0.854902 0.854902 0.854902
0.886275 0.886275 0.886275
0.909804 0.909804 0.909804
0.929412 0.929412 0.929412
0.945098 0.945098 0.945098
0.956863 0.956863 0.956863
0.043137 0.043137 0.043137
0.054902 0.054902 0.054902
0.070588 0.070588 0.070588
0.090196 0.090196 0.090196
0.113725 0.113725 0.113725
0.145098 0.145098 0.145098
0.184314 0.184314 0.184314
0.223529 0.223529 0.223529
0.278431 0.278431 0.278431
0.070588 0.070588 0.070588
0.086275 0.086275 0.086275
0.113725 0.113725 0.113725
0.141176 0.141176 0.141176
0.180392 0.180392 0.180392
0.219608 0.219608 0.219608
0.270588 0.270588 0.270588
0.325490 0.325490 0.325490
0.388235 0.388235 0.388235
0.113725 0.113725 0.113725
0.141176 0.141176 0.141176
0.176471 0.176471 0.176471
0.219608 0.219608 0.219608
0.270588 0.270588 0.270588
0.325490 0.325490 0.325490
0.388235 0.388235 0.388235
0.450980 0.450980 0.450980
0.517647 0.517647 0.517647
0.176471 0.176471 0.176471
0.219608 0.219608 0.219608
0.266667 0.266667 0.266667
0.325490 0.325490 0.325490
0.380392 0.380392 0.380392
0.450980 0.450980 0.450980
0.513725 0.513725 0.513725
0.580392 0.580392 0.580392
0.647059 0.647059 0.647059
0.266667 0.266667 0.266667
0.317647 0.317647 0.317647
0.380392 0.380392 0.380392
0.450980 0.450980 0.450980
0.513725 0.513725 0.513725
0.580392 0.580392 0.580392
0.639216 0.639216 0.639216
0.701961 0.701961 0.701961
0.752941 0.752941 0.752941
0.380392 0.380392 0.380392
0.443137 0.443137 0.443137
0.513725 0.513725 0.513725
0.572549 0.572549 0.572549
0.639216 0.639216 0.639216
0.698039 0.698039 0.698039
0.752941 0.752941 0.752941
0.800000 0.800000 0.800000
0.835294 0.835294 0.835294
0.513725 0.513725 0.513725
0.572549 0.572549 0.572549
0.639216 0.639216 0.639216
0.698039 0.698039 0.698039
0.752941 0.752941 0.752941
0.796078 0.796078 0.796078
0.835294 0.835294 0.835294
0.866667 0.866667 0.866667
0.898039 0.898039 0.898039
0.639216 0.639216 0.639216
0.698039 0.698039 0.698039
0.745098 0.745098 0.745098
0.796078 0.796078 0.796078
0.835294 0.835294 0.835294
0.866667 0.866667 0.866667
0.898039 0.898039 0.898039
0.917647 0.917647 0.917647
0.937255 0.937255 0.937255
0.745098 0.745098 0.745098
0.796078 0.796078 0.796078
0.835294 0.835294 0.835294
0.866667 0.866667 0.866667
0.894118 0.894118 0.894118
0.917647 0.917647 0.917647
0.933333 0.933333 0.933333
0.949020 0.949020 0.949020
0.960784 0.960784 0.960784
0.047059 0.047059 0.047059
0.058824 0.058824 0.058824
0.074510 0.074510 0.074510
0.098039 0.098039 0.098039
0.125490 0.125490 0.125490
0.160784 0.160784 0.160784
0.196078 0.196078 0.196078
0.243137 0.243137 0.243137
0.294118 0.294118 0.294118
0.074510 0.074510 0.074510
0.098039 0.098039 0.098039
0.121569 0.121569 0.121569
0.156863 0.156863 0.156863
0.192157 0.192157 0.192157
0.239216 0.239216 0.239216
0.294118 0.294118 0.294118
0.349020 0.349020 0.349020
0.415686 0.415686 0.415686
0.121569 0.121569 0.121569
0.156863 0.156863 0.156863
0.192157 0.192157 0.192157
0.239216 0.239216 0.239216
0.286275 0.286275 0.286275
0.349020 0.349020 0.349020
0.407843 0.407843 0.407843
0.478431 0.478431 0.478431
0.541176 0.541176 0.541176
0.192157 0.192157 0.192157
0.235294 0.235294 0.235294
0.286275 0.286275 0.286275
0.341176 0.341176 0.341176
0.407843 0.407843 0.407843
0.478431 0.478431 0.478431
0.541176 0.541176 0.541176
0.607843 0.607843 0.607843
0.666667 0.666667 0.666667
0.286275 0.286275 0.286275
0.341176 0.341176 0.341176
0.407843 0.407843 0.407843
0.470588 0.470588 0.470588
0.541176 0.541176 0.541176
0.600000 0.600000 0.600000
0.666667 0.666667 0.666667
0.717647 0.717647 0.717647
0.772549 0.772549 0.772549
0.407843 0.407843 0.407843
0.470588 0.470588 0.470588
0.533333 0.533333 0.533333
0.600000 0.600000 0.600000
0.666667 0.666667 0.666667
0.717647 0.717647 0.717647
0.772549 0.772549 0.772549
0.811765 0.811765 0.811765
0.850980 0.850980 0.850980
0.533333 0.533333 0.533333
0.600000 0.600000 0.600000
0.658824 0.658824 0.658824
0.717647 0.717647 0.717647
0.768627 0.768627 0.768627
0.811765 0.811765 0.811765
0.847059 0.847059 0.847059
0.882353 0.882353 0.882353
0.905882 0.905882 0.905882
0.658824 0.658824 0.658824
0.713725 0.713725 0.713725
0.768627 0.768627 0.768627
0.811765 0.811765 0.811765
0.847059 0.847059 0.847059
0.882353 0.882353 0.882353
0.905882 0.905882 0.905882
0.925490 0.925490 0.925490
0.941176 0.941176 0.941176
0.768627 0.768627 0.768627
0.807843 0.807843 0.807843
0.847059 0.847059 0.847059
0.878431 0.878431 0.878431
0.905882 0.905882 0.905882
0.925490 0.925490 0.925490
0.941176 0.941176 0.941176
0.952941 0.952941 0.952941
0.964706 0.964706 0.964706
0.050980 0.050980 0.050980
0.066667 0.066667 0.066667
0.086275 0.086275 0.086275
0.105882 0.105882 0.105882
0.137255 0.137255 0.137255
0.168627 0.168627 0.168627
0.215686 0.215686 0.215686
0.266667 0.266667 0.266667
0.317647 0.317647 0.317647
0.082353 0.082353 0.082353
0.105882 0.105882 0.105882
0.133333 0.133333 0.133333
0.168627 0.168627 0.168627
0.207843 0.207843 0.207843
0.258824 0.258824 0.258824
0.309804 0.309804 0.309804
0.376471 0.376471 0.376471
0.435294 0.435294 0.435294
0.133333 0.133333 0.133333
0.164706 0.164706 0.164706
0.207843 0.207843 0.207843
0.254902 0.254902 0.254902
0.309804 0.309804 0.309804
0.368627 0.368627 0.368627
0.435294 0.435294 0.435294
0.505882 0.505882 0.505882
0.568627 0.568627 0.568627
0.207843 0.207843 0.207843
0.254902 0.254902 0.254902
0.309804 0.309804 0.309804
0.368627 0.368627 0.368627
0.435294 0.435294 0.435294
0.498039 0.498039 0.498039
0.568627 0.568627 0.568627
0.627451 0.627451 0.627451
0.690196 0.690196 0.690196
0.305882 0.305882 0.305882
0.368627 0.368627 0.368627
0.427451 0.427451 0.427451
0.498039 0.498039 0.498039
0.560784 0.560784 0.560784
0.627451 0.627451 0.627451
0.690196 0.690196 0.690196
0.741176 0.741176 0.741176
0.792157 0.792157 0.792157
0.427451 0.427451 0.427451
0.498039 0.498039 0.498039
0.560784 0.560784 0.560784
0.627451 0.627451 0.627451
0.686275 0.686275 0.686275
0.741176 0.741176 0.741176
0.788235 0.788235 0.788235
0.831373 0.831373 0.831373
0.862745 0.862745 0.862745
0.560784 0.560784 0.560784
0.619608 0.619608 0.619608
0.686275 0.686275 0.686275
0.737255 0.737255 0.737255
0.788235 0.788235 0.788235
0.831373 0.831373 0.831373
0.862745 0.862745 0.862745
0.890196 0.890196 0.890196
0.913725 0.913725 0.913725
0.686275 0.686275 0.686275
0.737255 0.737255 0.737255
0.788235 0.788235 0.788235
0.827451 0.827451 0.827451
0.862745 0.862745 0.862745
0.890196 0.890196 0.890196
0.913725 0.913725 0.913725
0.929412 0.929412 0.929412
0.945098 0.945098 0.945098
0.788235 0.788235 0.788235
0.827451 0.827451 0.827451
0.858824 0.858824 0.858824
0.890196 0.890196 0.890196
0.913725 0.913725 0.913725
0.929412 0.929412 0.929412
0.945098 0.945098 0.945098
0.956863 0.956863 0.956863
0.968627 0.968627 0.968627
0.058824 0.058824 0.058824
0.070588 0.070588 0.070588
0.090196 0.090196 0.090196
0.117647 0.117647 0.117647
0.152941 0.152941 0.152941
0.188235 0.188235 0.188235
0.235294 0.235294 0.235294
0.282353 0.282353 0.282353
0.341176 0.341176 0.341176
0.090196 0.090196 0.090196
0.113725 0.113725 0.113725
0.149020 0.149020 0.149020
0.184314 0.184314 0.184314
0.227451 0.227451 0.227451
0.278431 0.278431 0.278431
0.337255 0.337255 0.337255
0.396078 0.396078 0.396078
0.462745 0.462745 0.462745
0.149020 0.149020 0.149020
0.184314 0.184314 0.184314
0.223529 0.223529 0.223529
0.278431 0.278431 0.278431
0.337255 0.337255 0.337255
0.396078 0.396078 0.396078
0.462745 0.462745 0.462745
0.525490 0.525490 0.525490
0.596078 0.596078 0.596078
0.223529 0.223529 0.223529
0.278431 0.278431 0.278431
0.329412 0.329412 0.329412
0.396078 0.396078 0.396078
0.454902 0.454902 0.454902
0.525490 0.525490 0.525490
0.588235 0.588235 0.588235
0.654902 0.654902 0.654902
0.713725 0.713725 0.713725
0.329412 0.329412 0.329412
0.388235 0.388235 0.388235
0.454902 0.454902 0.454902
0.525490 0.525490 0.525490
0.588235 0.588235 0.588235
0.654902 0.654902 0.654902
0.709804 0.709804 0.709804
0.760784 0.760784 0.760784
0.803922 0.803922 0.803922
0.454902 0.454902 0.454902
0.517647 0.517647 0.517647
0.588235 0.588235 0.588235
0.647059 0.647059 0.647059
0.709804 0.709804 0.709804
0.756863 0.756863 0.756863
0.803922 0.803922 0.803922
0.843137 0.843137 0.843137
0.874510 0.874510 0.874510
0.588235 0.588235 0.588235
0.647059 0.647059 0.647059
0.709804 0.709804 0.709804
0.756863 0.756863 0.756863
0.803922 0.803922 0.803922
0.839216 0.839216 0.839216
0.874510 0.874510 0.874510
0.898039 0.898039 0.898039
0.921569 0.921569 0.921569
0.701961 0.701961 0.701961
0.756863 0.756863 0.756863
0.800000 0.800000 0.800000
0.839216 0.839216 0.839216
0.870588 0.870588 0.870588
0.898039 0.898039 0.898039
0.921569 0.921569 0.921569
0.937255 0.937255 0.937255
0.952941 0.952941 0.952941
0.800000 0.800000 0.800000
0.839216 0.839216 0.839216
0.870588 0.870588 0.870588
0.898039 0.898039 0.898039
0.921569 0.921569 0.921569
0.937255 0.937255 0.937255
0.949020 0.949020 0.949020
0.960784 0.960784 0.960784
0.968627 0.968627 0.968627
