apps/booth/assets/luts/glamour_bw.cube
TITLE "Glamour B&W"
LUT_3D_SIZE 5
0.023529 0.023529 0.023529
0.043137 0.043137 0.043137
0.070588 0.070588 0.070588
0.117647 0.117647 0.117647
0.188235 0.188235 0.188235
0.070588 0.070588 0.070588
0.113725 0.113725 0.113725
0.180392 0.180392 0.180392
0.278431 0.278431 0.278431
0.396078 0.396078 0.396078
0.180392 0.180392 0.180392
0.270588 0.270588 0.270588
0.388235 0.388235 0.388235
0.517647 0.517647 0.517647
0.647059 0.647059 0.647059
0.388235 0.388235 0.388235
0.513725 0.513725 0.513725
0.647059 0.647059 0.647059
0.756863 0.756863 0.756863
0.839216 0.839216 0.839216
0.639216 0.639216 0.639216
0.752941 0.752941 0.752941
0.835294 0.835294 0.835294
0.898039 0.898039 0.898039
0.937255 0.937255 0.937255
0.031373 0.031373 0.031373
0.050980 0.050980 0.050980
0.086275 0.086275 0.086275
0.141176 0.141176 0.141176
0.219608 0.219608 0.219608
0.086275 0.086275 0.086275
0.133333 0.133333 0.133333
0.215686 0.215686 0.215686
0.317647 0.317647 0.317647
0.443137 0.443137 0.443137
0.207843 0.207843 0.207843
0.309804 0.309804 0.309804
0.435294 0.435294 0.435294
0.568627 0.568627 0.568627
0.690196 0.690196 0.690196
0.435294 0.435294 0.435294
0.568627 0.568627 0.568627
0.690196 0.690196 0.690196
0.792157 0.792157 0.792157
0.866667 0.866667 0.866667
0.686275 0.686275 0.686275
0.788235 0.788235 0.788235
0.862745 0.862745 0.862745
0.913725 0.913725 0.913725
0.949020 0.949020 0.949020
0.039216 0.039216 0.039216
0.062745 0.062745 0.062745
0.105882 0.105882 0.105882
0.164706 0.164706 0.164706
0.254902 0.254902 0.254902
0.101961 0.101961 0.101961
0.160784 0.160784 0.160784
0.250980 0.250980 0.250980
0.360784 0.360784 0.360784
0.490196 0.490196 0.490196
0.250980 0.250980 0.250980
0.356863 0.356863 0.356863
0.482353 0.482353 0.482353
0.619608 0.619608 0.619608
0.737255 0.737255 0.737255
0.482353 0.482353 0.482353
0.615686 0.615686 0.615686
0.729412 0.729412 0.729412
0.819608 0.819608 0.819608
0.886275 0.886275 0.886275
0.729412 0.729412 0.729412
0.815686 0.815686 0.815686
0.886275 0.886275 0.886275
0.929412 0.929412 0.929412
0.956863 0.956863 0.956863
0.047059 0.047059 0.047059
0.074510 0.074510 0.074510
0.125490 0.125490 0.125490
0.196078 0.196078 0.196078
0.294118 0.294118 0.294118
0.121569 0.121569 0.121569
0.192157 0.192157 0.192157
0.286275 0.286275 0.286275
0.407843 0.407843 0.407843
0.541176 0.541176 0.541176
0.286275 0.286275 0.286275
0.407843 0.407843 0.407843
0.541176 0.541176 0.541176
0.666667 0.666667 0.666667
0.772549 0.772549 0.772549
0.533333 0.533333 0.533333
0.658824 0.658824 0.658824
0.768627 0.768627 0.768627
0.847059 0.847059 0.847059
0.905882 0.905882 0.905882
0.768627 0.768627 0.768627
0.847059 0.847059 0.847059
0.905882 0.905882 0.905882
0.941176 0.941176 0.941176
0.964706 0.964706 0.964706
0.058824 0.058824 0.058824
0.090196 0.090196 0.090196
0.152941 0.152941 0.152941
0.235294 0.235294 0.235294
0.341176 0.341176 0.341176
0.149020 0.149020 0.149020
0.223529 0.223529 0.223529
0.337255 0.337255 0.337255
0.462745 0.462745 0.462745
0.596078 0.596078 0.596078
0.329412 0.329412 0.329412
0.454902 0.454902 0.454902
0.588235 0.588235 0.588235
0.709804 0.709804 0.709804
0.803922 0.803922 0.803922
0.588235 0.588235 0.588235
0.709804 0.709804 0.709804
0.803922 0.803922 0.803922
0.874510 0.874510 0.874510
0.921569 0.921569 0.921569
0.800000 0.800000 0.800000
0.870588 0.870588 0.870588
0.921569 0.921569 0.921569
0.949020 0.949020 0.949020
0.968627 0.968627 0.968627
