apps/booth/assets/luts/glamour_bw.cube
TITLE "Glamour B&W"
LUT_3D_SIZE 33
0.023529 0.023529 0.023529
0.027451 0.027451 0.027451
0.027451 0.027451 0.027451
0.031373 0.031373 0.031373
0.031373 0.031373 0.031373
0.035294 0.035294 0.035294
0.039216 0.039216 0.039216
0.039216 0.039216 0.039216
0.043137 0.043137 0.043137
0.047059 0.047059 0.047059
0.047059 0.047059 0.047059
0.050980 0.050980 0.050980
0.054902 0.054902 0.054902
0.058824 0.058824 0.058824
0.062745 0.062745 0.062745
0.066667 0.066667 0.066667
0.070588 0.070588 0.070588
0.074510 0.074510 0.074510
0.082353 0.082353 0.082353
0.086275 0.086275 0.086275
0.090196 0.090196 0.090196
0.098039 0.098039 0.098039
0.105882 0.105882 0.105882
0.109804 0.109804 0.109804
0.117647 0.117647 0.117647
0.125490 0.125490 0.125490
0.129412 0.129412 0.129412
0.141176 0.141176 0.141176
0.149020 0.149020 0.149020
0.160784 0.160784 0.160784
0.164706 0.164706 0.164706
0.176471 0.176471 0.176471
0.188235 0.188235 0.188235
0.027451 0.027451 0.027451
0.031373 0.031373 0.031373
0.031373 0.031373 0.031373
0.035294 0.035294 0.035294
0.035294 0.035294 0.035294
0.039216 0.039216 0.039216
0.043137 0.043137 0.043137
0.043137 0.043137 0.043137
0.047059 0.047059 0.047059
0.050980 0.050980 0.050980
0.054902 0.054902 0.054902
0.058824 0.058824 0.058824
0.062745 0.062745 0.062745
0.066667 0.066667 0.066667
0.070588 0.070588 0.070588
0.074510 0.074510 0.074510
0.082353 0.082353 0.082353
0.086275 0.086275 0.086275
0.090196 0.090196 0.090196
0.098039 0.098039 0.098039
0.101961 0.101961 0.101961
0.109804 0.109804 0.109804
0.113725 0.113725 0.113725
0.121569 0.121569 0.121569
0.129412 0.129412 0.129412
0.137255 0.137255 0.137255
0.145098 0.145098 0.145098
0.156863 0.156863 0.156863
0.160784 0.160784 0.160784
0.176471 0.176471 0.176471
0.184314 0.184314 0.184314
0.192157 0.192157 0.192157
0.203922 0.203922 0.203922
0.031373 0.031373 0.031373
0.035294 0.035294 0.035294
0.035294 0.035294 0.035294
0.039216 0.039216 0.039216
0.043137 0.043137 0.043137
0.043137 0.043137 0.043137
0.047059 0.047059 0.047059
0.050980 0.050980 0.050980
0.054902 0.054902 0.054902
0.058824 0.058824 0.058824
0.062745 0.062745 0.062745
0.066667 0.066667 0.066667
0.070588 0.070588 0.070588
0.074510 0.074510 0.074510
0.078431 0.078431 0.078431
0.086275 0.086275 0.086275
0.090196 0.090196 0.090196
0.098039 0.098039 0.098039
0.101961 0.101961 0.101961
0.105882 0.105882 0.105882
0.113725 0.113725 0.113725
0.121569 0.121569 0.121569
0.129412 0.129412 0.129412
0.137255 0.137255 0.137255
0.145098 0.145098 0.145098
0.156863 0.156863 0.156863
0.160784 0.160784 0.160784
0.176471 0.176471 0.176471
0.184314 0.184314 0.184314
0.192157 0.192157 0.192157
0.203922 0.203922 0.203922
0.215686 0.215686 0.215686
0.227451 0.227451 0.227451
0.035294 0.035294 0.035294
0.039216 0.039216 0.039216
0.039216 0.039216 0.039216
0.043137 0.043137 0.043137
0.047059 0.047059 0.047059
0.050980 0.050980 0.050980
0.054902 0.054902 0.054902
0.058824 0.058824 0.058824
0.062745 0.062745 0.062745
0.066667 0.066667 0.066667
0.070588 0.070588 0.070588
0.074510 0.074510 0.074510
0.078431 0.078431 0.078431
0.086275 0.086275 0.086275
0.090196 0.090196 0.090196
0.098039 0.098039 0.098039
0.101961 0.101961 0.101961
0.105882 0.105882 0.105882
0.113725 0.113725 0.113725
0.121569 0.121569 0.121569
0.129412 0.129412 0.129412
0.137255 0.137255 0.137255
0.145098 0.145098 0.145098
0.156863 0.156863 0.156863
0.160784 0.160784 0.160784
0.168627 0.168627 0.168627
0.184314 0.184314 0.184314
0.192157 0.192157 0.192157
0.203922 0.203922 0.203922
0.215686 0.215686 0.215686
0.223529 0.223529 0.223529
0.239216 0.239216 0.239216
0.250980 0.250980 0.250980
0.043137 0.043137 0.043137
0.043137 0.043137 0.043137
0.047059 0.047059 0.047059
0.050980 0.050980 0.050980
0.054902 0.054902 0.054902
0.058824 0.058824 0.058824
0.062745 0.062745 0.062745
0.066667 0.066667 0.066667
0.070588 0.070588 0.070588
0.074510 0.074510 0.074510
0.078431 0.078431 0.078431
0.086275 0.086275 0.086275
0.090196 0.090196 0.090196
0.094118 0.094118 0.094118
0.101961 0.101961 0.101961
0.105882 0.105882 0.105882
0.113725 0.113725 0.113725
0.121569 0.121569 0.121569
0.129412 0.129412 0.129412
0.137255 0.137255 0.137255
0.145098 0.145098 0.145098
0.156863 0.156863 0.156863
0.160784 0.160784 0.160784
0.168627 0.168627 0.168627
0.184314 0.184314 0.184314
0.192157 0.192157 0.192157
0.203922 0.203922 0.203922
0.215686 0.215686 0.215686
0.223529 0.223529 0.223529
0.239216 0.239216 0.239216
0.250980 0.250980 0.250980
0.266667 0.266667 0.266667
0.278431 0.278431 0.278431
0.047059 0.047059 0.047059
0.050980 0.050980 0.050980
0.054902 0.054902 0.054902
0.058824 0.058824 0.058824
0.062745 0.062745 0.062745
0.066667 0.066667 0.066667
0.070588 0.070588 0.070588
0.074510 0.074510 0.074510
0.078431 0.078431 0.078431
0.086275 0.086275 0.086275
0.090196 0.090196 0.090196
0.094118 0.094118 0.094118
0.101961 0.101961 0.101961
0.105882 0.105882 0.105882
0.113725 0.113725 0.113725
0.121569 0.121569 0.121569
0.129412 0.129412 0.129412
0.137255 0.137255 0.137255
0.145098 0.145098 0.145098
0.156863 0.156863 0.156863
0.160784 0.160784 0.160784
0.168627 0.168627 0.168627
0.184314 0.184314 0.184314
0.192157 0.192157 0.192157
0.200000 0.200000 0.200000
0.215686 0.215686 0.215686
0.223529 0.223529 0.223529
0.239216 0.239216 0.239216
0.250980 0.250980 0.250980
0.258824 0.258824 0.258824
0.278431 0.278431 0.278431
0.286275 0.286275 0.286275
0.305882 0.305882 0.305882
0.054902 0.054902 0.054902
0.058824 0.058824 0.058824
0.062745 0.062745 0.062745
0.066667 0.066667 0.066667
0.070588 0.070588 0.070588
0.074510 0.074510 0.074510
0.078431 0.078431 0.078431
0.086275 0.086275 0.086275
0.090196 0.090196 0.090196
0.094118 0.094118 0.094118
0.101961 0.101961 0.101961
0.105882 0.105882 0.105882
0.113725 0.113725 0.113725
0.121569 0.121569 0.121569
0.129412 0.129412 0.129412
0.137255 0.137255 0.137255
0.145098 0.145098 0.145098
0.152941 0.152941 0.152941
0.160784 0.160784 0.160784
0.168627 0.168627 0.168627
0.184314 0.184314 0.184314
0.192157 0.192157 0.192157
0.200000 0.200000 0.200000
0.215686 0.215686 0.215686
0.223529 0.223529 0.223529
0.239216 0.239216 0.239216
0.250980 0.250980 0.250980
0.258824 0.258824 0.258824
0.278431 0.278431 0.278431
0.286275 0.286275 0.286275
0.305882 0.305882 0.305882
0.317647 0.317647 0.317647
0.329412 0.329412 0.329412
0.062745 0.062745 0.062745
0.066667 0.066667 0.066667
0.070588 0.070588 0.070588
0.074510 0.074510 0.074510
0.078431 0.078431 0.078431
0.082353 0.082353 0.082353
0.090196 0.090196 0.090196
0.094118 0.094118 0.094118
0.101961 0.101961 0.101961
0.105882 0.105882 0.105882
0.113725 0.113725 0.113725
0.121569 0.121569 0.121569
0.129412 0.129412 0.129412
0.137255 0.137255 0.137255
0.145098 0.145098 0.145098
0.152941 0.152941 0.152941
0.160784 0.160784 0.160784
0.168627 0.168627 0.168627
0.184314 0.184314 0.184314
0.192157 0.192157 0.192157
0.200000 0.200000 0.200000
0.215686 0.215686 0.215686
0.223529 0.223529 0.223529
0.235294 0.235294 0.235294
0.250980 0.250980 0.250980
0.258824 0.258824 0.258824
0.278431 0.278431 0.278431
0.286275 0.286275 0.286275
0.298039 0.298039 0.298039
0.317647 0.317647 0.317647
0.329412 0.329412 0.329412
0.349020 0.349020 0.349020
0.360784 0.360784 0.360784
0.070588 0.070588 0.070588
0.074510 0.074510 0.074510
0.078431 0.078431 0.078431
0.082353 0.082353 0.082353
0.090196 0.090196 0.090196
0.094118 0.094118 0.094118
0.101961 0.101961 0.101961
0.105882 0.105882 0.105882
0.113725 0.113725 0.113725
0.121569 0.121569 0.121569
0.129412 0.129412 0.129412
0.133333 0.133333 0.133333
0.145098 0.145098 0.145098
0.152941 0.152941 0.152941
0.160784 0.160784 0.160784
0.168627 0.168627 0.168627
0.180392 0.180392 0.180392
0.192157 0.192157 0.192157
0.200000 0.200000 0.200000
0.215686 0.215686 0.215686
0.223529 0.223529 0.223529
0.235294 0.235294 0.235294
0.250980 0.250980 0.250980
0.258824 0.258824 0.258824
0.278431 0.278431 0.278431
0.286275 0.286275 0.286275
0.298039 0.298039 0.298039
0.317647 0.317647 0.317647
0.329412 0.329412 0.329412
0.349020 0.349020 0.349020
0.360784 0.360784 0.360784
0.376471 0.376471 0.376471
0.396078 0.396078 0.396078
0.078431 0.078431 0.078431
0.082353 0.082353 0.082353
0.090196 0.090196 0.090196
0.094118 0.094118 0.094118
0.098039 0.098039 0.098039
0.105882 0.105882 0.105882
0.113725 0.113725 0.113725
0.121569 0.121569 0.121569
0.129412 0.129412 0.129412
0.133333 0.133333 0.133333
0.145098 0.145098 0.145098
0.152941 0.152941 0.152941
0.160784 0.160784 0.160784
0.168627 0.168627 0.168627
0.180392 0.180392 0.180392
0.192157 0.192157 0.192157
0.200000 0.200000 0.200000
0.215686 0.215686 0.215686
0.223529 0.223529 0.223529
0.235294 0.235294 0.235294
0.250980 0.250980 0.250980
0.258824 0.258824 0.258824
0.270588 0.270588 0.270588
0.286275 0.286275 0.286275
0.298039 0.298039 0.298039
0.317647 0.317647 0.317647
0.329412 0.329412 0.329412
0.341176 0.341176 0.341176
0.360784 0.360784 0.360784
0.376471 0.376471 0.376471
0.396078 0.396078 0.396078
0.407843 0.407843 0.407843
0.423529 0.423529 0.423529
0.090196 0.090196 0.090196
0.094118 0.094118 0.094118
0.098039 0.098039 0.098039
0.105882 0.105882 0.105882
0.113725 0.113725 0.113725
0.121569 0.121569 0.121569
0.129412 0.129412 0.129412
0.133333 0.133333 0.133333
0.145098 0.145098 0.145098
0.152941 0.152941 0.152941
0.160784 0.160784 0.160784
0.168627 0.168627 0.168627
0.180392 0.180392 0.180392
0.192157 0.192157 0.192157
0.200000 0.200000 0.200000
0.207843 0.207843 0.207843
0.223529 0.223529 0.223529
0.235294 0.235294 0.235294
0.250980 0.250980 0.250980
0.258824 0.258824 0.258824
0.270588 0.270588 0.270588
0.286275 0.286275 0.286275
0.298039 0.298039 0.298039
0.317647 0.317647 0.317647
0.329412 0.329412 0.329412
0.341176 0.341176 0.341176
0.360784 0.360784 0.360784
0.376471 0.376471 0.376471
0.396078 0.396078 0.396078
0.407843 0.407843 0.407843
0.423529 0.423529 0.423529
0.443137 0.443137 0.443137
0.454902 0.454902 0.454902
0.101961 0.101961 0.101961
0.105882 0.105882 0.105882
0.113725 0.113725 0.113725
0.117647 0.117647 0.117647
0.129412 0.129412 0.129412
0.133333 0.133333 0.133333
0.145098 0.145098 0.145098
0.152941 0.152941 0.152941
0.160784 0.160784 0.160784
0.168627 0.168627 0.168627
0.180392 0.180392 0.180392
0.192157 0.192157 0.192157
0.200000 0.200000 0.200000
0.207843 0.207843 0.207843
0.223529 0.223529 0.223529
0.235294 0.235294 0.235294
0.250980 0.250980 0.250980
0.258824 0.258824 0.258824
0.270588 0.270588 0.270588
0.286275 0.286275 0.286275
0.298039 0.298039 0.298039
0.309804 0.309804 0.309804
0.329412 0.329412 0.329412
0.341176 0.341176 0.341176
0.360784 0.360784 0.360784
0.376471 0.376471 0.376471
0.388235 0.388235 0.388235
0.407843 0.407843 0.407843
0.423529 0.423529 0.423529
0.443137 0.443137 0.443137
0.454902 0.454902 0.454902
0.470588 0.470588 0.470588
0.490196 0.490196 0.490196
0.113725 0.113725 0.113725
0.117647 0.117647 0.117647
0.129412 0.129412 0.129412
0.133333 0.133333 0.133333
0.145098 0.145098 0.145098
0.152941 0.152941 0.152941
0.160784 0.160784 0.160784
0.168627 0.168627 0.168627
0.180392 0.180392 0.180392
0.188235 0.188235 0.188235
0.200000 0.200000 0.200000
0.207843 0.207843 0.207843
0.223529 0.223529 0.223529
0.235294 0.235294 0.235294
0.243137 0.243137 0.243137
0.258824 0.258824 0.258824
0.270588 0.270588 0.270588
0.286275 0.286275 0.286275
0.298039 0.298039 0.298039
0.309804 0.309804 0.309804
0.329412 0.329412 0.329412
0.341176 0.341176 0.341176
0.360784 0.360784 0.360784
0.376471 0.376471 0.376471
0.388235 0.388235 0.388235
0.407843 0.407843 0.407843
0.423529 0.423529 0.423529
0.443137 0.443137 0.443137
0.454902 0.454902 0.454902
0.470588 0.470588 0.470588
0.490196 0.490196 0.490196
0.505882 0.505882 0.505882
0.517647 0.517647 0.517647
0.129412 0.129412 0.129412
0.133333 0.133333 0.133333
0.141176 0.141176 0.141176
0.152941 0.152941 0.152941
0.160784 0.160784 0.160784
0.168627 0.168627 0.168627
0.180392 0.180392 0.180392
0.188235 0.188235 0.188235
0.200000 0.200000 0.200000
0.207843 0.207843 0.207843
0.223529 0.223529 0.223529
0.235294 0.235294 0.235294
0.243137 0.243137 0.243137
0.258824 0.258824 0.258824
0.270588 0.270588 0.270588
0.286275 0.286275 0.286275
0.298039 0.298039 0.298039
0.309804 0.309804 0.309804
0.329412 0.329412 0.329412
0.341176 0.341176 0.341176
0.356863 0.356863 0.356863
0.376471 0.376471 0.376471
0.388235 0.388235 0.388235
0.407843 0.407843 0.407843
0.423529 0.423529 0.423529
0.435294 0.435294 0.435294
0.454902 0.454902 0.454902
0.470588 0.470588 0.470588
0.490196 0.490196 0.490196
0.505882 0.505882 0.505882
0.517647 0.517647 0.517647
0.541176 0.541176 0.541176
0.552941 0.552941 0.552941
0.145098 0.145098 0.145098
0.152941 0.152941 0.152941
0.160784 0.160784 0.160784
0.168627 0.168627 0.168627
0.180392 0.180392 0.180392
0.188235 0.188235 0.188235
0.200000 0.200000 0.200000
0.207843 0.207843 0.207843
0.219608 0.219608 0.219608
0.235294 0.235294 0.235294
0.243137 0.243137 0.243137
0.258824 0.258824 0.258824
0.270588 0.270588 0.270588
0.282353 0.282353 0.282353
0.298039 0.298039 0.298039
0.309804 0.309804 0.309804
0.329412 0.329412 0.329412
0.341176 0.341176 0.341176
0.356863 0.356863 0.356863
0.376471 0.376471 0.376471
0.388235 0.388235 0.388235
0.407843 0.407843 0.407843
0.423529 0.423529 0.423529
0.435294 0.435294 0.435294
0.454902 0.454902 0.454902
0.470588 0.470588 0.470588
0.490196 0.490196 0.490196
0.505882 0.505882 0.505882
0.517647 0.517647 0.517647
0.541176 0.541176 0.541176
0.552941 0.552941 0.552941
0.568627 0.568627 0.568627
0.588235 0.588235 0.588235
0.160784 0.160784 0.160784
0.164706 0.164706 0.164706
0.180392 0.180392 0.180392
0.188235 0.188235 0.188235
0.200000 0.200000 0.200000
0.207843 0.207843 0.207843
0.219608 0.219608 0.219608
0.235294 0.235294 0.235294
0.243137 0.243137 0.243137
0.258824 0.258824 0.258824
0.270588 0.270588 0.270588
0.282353 0.282353 0.282353
0.298039 0.298039 0.298039
0.309804 0.309804 0.309804
0.329412 0.329412 0.329412
0.341176 0.341176 0.341176
0.356863 0.356863 0.356863
0.376471 0.376471 0.376471
0.388235 0.388235 0.388235
0.400000 0.400000 0.400000
0.423529 0.423529 0.423529
0.435294 0.435294 0.435294
0.454902 0.454902 0.454902
0.470588 0.470588 0.470588
0.482353 0.482353 0.482353
0.505882 0.505882 0.505882
0.517647 0.517647 0.517647
0.541176 0.541176 0.541176
0.552941 0.552941 0.552941
0.568627 0.568627 0.568627
0.588235 0.588235 0.588235
0.600000 0.600000 0.600000
0.619608 0.619608 0.619608
0.180392 0.180392 0.180392
0.188235 0.188235 0.188235
0.200000 0.200000 0.200000
0.207843 0.207843 0.207843
0.219608 0.219608 0.219608
0.235294 0.235294 0.235294
0.243137 0.243137 0.243137
0.254902 0.254902 0.254902
0.270588 0.270588 0.270588
0.282353 0.282353 0.282353
0.298039 0.298039 0.298039
0.309804 0.309804 0.309804
0.325490 0.325490 0.325490
0.341176 0.341176 0.341176
0.356863 0.356863 0.356863
0.376471 0.376471 0.376471
0.388235 0.388235 0.388235
0.400000 0.400000 0.400000
0.423529 0.423529 0.423529
0.435294 0.435294 0.435294
0.454902 0.454902 0.454902
0.470588 0.470588 0.470588
0.482353 0.482353 0.482353
0.505882 0.505882 0.505882
0.517647 0.517647 0.517647
0.541176 0.541176 0.541176
0.552941 0.552941 0.552941
0.568627 0.568627 0.568627
0.588235 0.588235 0.588235
0.600000 0.600000 0.600000
0.615686 0.615686 0.615686
0.635294 0.635294 0.635294
0.647059 0.647059 0.647059
0.200000 0.200000 0.200000
0.207843 0.207843 0.207843
0.219608 0.219608 0.219608
0.235294 0.235294 0.235294
0.243137 0.243137 0.243137
0.254902 0.254902 0.254902
0.270588 0.270588 0.270588
0.282353 0.282353 0.282353
0.298039 0.298039 0.298039
0.309804 0.309804 0.309804
0.325490 0.325490 0.325490
0.341176 0.341176 0.341176
0.356863 0.356863 0.356863
0.376471 0.376471 0.376471
0.388235 0.388235 0.388235
0.400000 0.400000 0.400000
0.423529 0.423529 0.423529
0.435294 0.435294 0.435294
0.450980 0.450980 0.450980
0.470588 0.470588 0.470588
0.482353 0.482353 0.482353
0.505882 0.505882 0.505882
0.517647 0.517647 0.517647
0.533333 0.533333 0.533333
0.552941 0.552941 0.552941
0.568627 0.568627 0.568627
0.588235 0.588235 0.588235
0.600000 0.600000 0.600000
0.615686 0.615686 0.615686
0.635294 0.635294 0.635294
0.647059 0.647059 0.647059
0.666667 0.666667 0.666667
0.678431 0.678431 0.678431
0.219608 0.219608 0.219608
0.235294 0.235294 0.235294
0.243137 0.243137 0.243137
0.254902 0.254902 0.254902
0.270588 0.270588 0.270588
0.282353 0.282353 0.282353
0.294118 0.294118 0.294118
0.309804 0.309804 0.309804
0.325490 0.325490 0.325490
0.341176 0.341176 0.341176
0.356863 0.356863 0.356863
0.368627 0.368627 0.368627
0.388235 0.388235 0.388235
0.400000 0.400000 0.400000
0.423529 0.423529 0.423529
0.435294 0.435294 0.435294
0.450980 0.450980 0.450980
0.470588 0.470588 0.470588
0.482353 0.482353 0.482353
0.505882 0.505882 0.505882
0.517647 0.517647 0.517647
0.533333 0.533333 0.533333
0.552941 0.552941 0.552941
0.568627 0.568627 0.568627
0.588235 0.588235 0.588235
0.600000 0.600000 0.600000
0.615686 0.615686 0.615686
0.635294 0.635294 0.635294
0.647059 0.647059 0.647059
0.658824 0.658824 0.658824
0.678431 0.678431 0.678431
0.690196 0.690196 0.690196
0.709804 0.709804 0.709804
0.243137 0.243137 0.243137
0.254902 0.254902 0.254902
0.270588 0.270588 0.270588
0.282353 0.282353 0.282353
0.294118 0.294118 0.294118
0.309804 0.309804 0.309804
0.325490 0.325490 0.325490
0.341176 0.341176 0.341176
0.356863 0.356863 0.356863
0.368627 0.368627 0.368627
0.388235 0.388235 0.388235
0.400000 0.400000 0.400000
0.423529 0.423529 0.423529
0.435294 0.435294 0.435294
0.450980 0.450980 0.450980
0.470588 0.470588 0.470588
0.482353 0.482353 0.482353
0.498039 0.498039 0.498039
0.517647 0.517647 0.517647
0.533333 0.533333 0.533333
0.552941 0.552941 0.552941
0.568627 0.568627 0.568627
0.580392 0.580392 0.580392
0.600000 0.600000 0.600000
0.615686 0.615686 0.615686
0.635294 0.635294 0.635294
0.647059 0.647059 0.647059
0.658824 0.658824 0.658824
0.678431 0.678431 0.678431
0.690196 0.690196 0.690196
0.709804 0.709804 0.709804
0.717647 0.717647 0.717647
0.729412 0.729412 0.729412
0.270588 0.270588 0.270588
0.282353 0.282353 0.282353
0.294118 0.294118 0.294118
0.309804 0.309804 0.309804
0.325490 0.325490 0.325490
0.337255 0.337255 0.337255
0.356863 0.356863 0.356863
0.368627 0.368627 0.368627
0.388235 0.388235 0.388235
0.400000 0.400000 0.400000
0.415686 0.415686 0.415686
0.435294 0.435294 0.435294
0.450980 0.450980 0.450980
0.470588 0.470588 0.470588
0.482353 0.482353 0.482353
0.498039 0.498039 0.498039
0.517647 0.517647 0.517647
0.533333 0.533333 0.533333
0.552941 0.552941 0.552941
0.568627 0.568627 0.568627
0.580392 0.580392 0.580392
0.600000 0.600000 0.600000
0.615686 0.615686 0.615686
0.635294 0.635294 0.635294
0.647059 0.647059 0.647059
0.658824 0.658824 0.658824
0.678431 0.678431 0.678431
0.690196 0.690196 0.690196
0.701961 0.701961 0.701961
0.717647 0.717647 0.717647
0.729412 0.729412 0.729412
0.745098 0.745098 0.745098
0.756863 0.756863 0.756863
0.298039 0.298039 0.298039
0.309804 0.309804 0.309804
0.325490 0.325490 0.325490
0.337255 0.337255 0.337255
0.356863 0.356863 0.356863
0.368627 0.368627 0.368627
0.388235 0.388235 0.388235
0.400000 0.400000 0.400000
0.415686 0.415686 0.415686
0.435294 0.435294 0.435294
0.450980 0.450980 0.450980
0.470588 0.470588 0.470588
0.482353 0.482353 0.482353
0.498039 0.498039 0.498039
0.517647 0.517647 0.517647
0.533333 0.533333 0.533333
0.545098 0.545098 0.545098
0.568627 0.568627 0.568627
0.580392 0.580392 0.580392
0.600000 0.600000 0.600000
0.615686 0.615686 0.615686
0.627451 0.627451 0.627451
0.647059 0.647059 0.647059
0.658824 0.658824 0.658824
0.678431 0.678431 0.678431
0.690196 0.690196 0.690196
0.701961 0.701961 0.701961
0.717647 0.717647 0.717647
0.729412 0.729412 0.729412
0.745098 0.745098 0.745098
0.756863 0.756863 0.756863
0.768627 0.768627 0.768627
0.780392 0.780392 0.780392
0.325490 0.325490 0.325490
0.337255 0.337255 0.337255
0.356863 0.356863 0.356863
0.368627 0.368627 0.368627
0.380392 0.380392 0.380392
0.400000 0.400000 0.400000
0.415686 0.415686 0.415686
0.435294 0.435294 0.435294
0.450980 0.450980 0.450980
0.462745 0.462745 0.462745
0.482353 0.482353 0.482353
0.498039 0.498039 0.498039
0.517647 0.517647 0.517647
0.533333 0.533333 0.533333
0.545098 0.545098 0.545098
0.568627 0.568627 0.568627
0.580392 0.580392 0.580392
0.600000 0.600000 0.600000
0.615686 0.615686 0.615686
0.627451 0.627451 0.627451
0.647059 0.647059 0.647059
0.658824 0.658824 0.658824
0.678431 0.678431 0.678431
0.690196 0.690196 0.690196
0.701961 0.701961 0.701961
0.717647 0.717647 0.717647
0.729412 0.729412 0.729412
0.741176 0.741176 0.741176
0.756863 0.756863 0.756863
0.768627 0.768627 0.768627
0.780392 0.780392 0.780392
0.792157 0.792157 0.792157
0.800000 0.800000 0.800000
0.356863 0.356863 0.356863
0.368627 0.368627 0.368627
0.380392 0.380392 0.380392
0.400000 0.400000 0.400000
0.415686 0.415686 0.415686
0.435294 0.435294 0.435294
0.450980 0.450980 0.450980
0.462745 0.462745 0.462745
0.482353 0.482353 0.482353
0.498039 0.498039 0.498039
0.517647 0.517647 0.517647
0.533333 0.533333 0.533333
0.545098 0.545098 0.545098
0.568627 0.568627 0.568627
0.580392 0.580392 0.580392
0.596078 0.596078 0.596078
0.615686 0.615686 0.615686
0.627451 0.627451 0.627451
0.647059 0.647059 0.647059
0.658824 0.658824 0.658824
0.670588 0.670588 0.670588
0.690196 0.690196 0.690196
0.701961 0.701961 0.701961
0.717647 0.717647 0.717647
0.729412 0.729412 0.729412
0.741176 0.741176 0.741176
0.756863 0.756863 0.756863
0.768627 0.768627 0.768627
0.780392 0.780392 0.780392
0.792157 0.792157 0.792157
0.800000 0.800000 0.800000
0.811765 0.811765 0.811765
0.819608 0.819608 0.819608
0.388235 0.388235 0.388235
0.400000 0.400000 0.400000
0.415686 0.415686 0.415686
0.427451 0.427451 0.427451
0.450980 0.450980 0.450980
0.462745 0.462745 0.462745
0.482353 0.482353 0.482353
0.498039 0.498039 0.498039
0.513725 0.513725 0.513725
0.533333 0.533333 0.533333
0.545098 0.545098 0.545098
0.568627 0.568627 0.568627
0.580392 0.580392 0.580392
0.596078 0.596078 0.596078
0.615686 0.615686 0.615686
0.627451 0.627451 0.627451
0.647059 0.647059 0.647059
0.658824 0.658824 0.658824
0.670588 0.670588 0.670588
0.690196 0.690196 0.690196
0.701961 0.701961 0.701961
0.717647 0.717647 0.717647
0.729412 0.729412 0.729412
0.741176 0.741176 0.741176
0.756863 0.756863 0.756863
0.768627 0.768627 0.768627
0.776471 0.776471 0.776471
0.792157 0.792157 0.792157
0.800000 0.800000 0.800000
0.811765 0.811765 0.811765
0.819608 0.819608 0.819608
0.831373 0.831373 0.831373
0.839216 0.839216 0.839216
0.415686 0.415686 0.415686
0.427451 0.427451 0.427451
0.450980 0.450980 0.450980
0.462745 0.462745 0.462745
0.482353 0.482353 0.482353
0.498039 0.498039 0.498039
0.513725 0.513725 0.513725
0.533333 0.533333 0.533333
0.545098 0.545098 0.545098
0.568627 0.568627 0.568627
0.580392 0.580392 0.580392
0.596078 0.596078 0.596078
0.615686 0.615686 0.615686
0.627451 0.627451 0.627451
0.639216 0.639216 0.639216
0.658824 0.658824 0.658824
0.670588 0.670588 0.670588
0.690196 0.690196 0.690196
0.701961 0.701961 0.701961
0.713725 0.713725 0.713725
0.729412 0.729412 0.729412
0.741176 0.741176 0.741176
0.756863 0.756863 0.756863
0.768627 0.768627 0.768627
0.776471 0.776471 0.776471
0.792157 0.792157 0.792157
0.800000 0.800000 0.800000
0.811765 0.811765 0.811765
0.819608 0.819608 0.819608
0.831373 0.831373 0.831373
0.839216 0.839216 0.839216
0.847059 0.847059 0.847059
0.858824 0.858824 0.858824
0.450980 0.450980 0.450980
0.462745 0.462745 0.462745
0.478431 0.478431 0.478431
0.498039 0.498039 0.498039
0.513725 0.513725 0.513725
0.533333 0.533333 0.533333
0.545098 0.545098 0.545098
0.560784 0.560784 0.560784
0.580392 0.580392 0.580392
0.596078 0.596078 0.596078
0.615686 0.615686 0.615686
0.627451 0.627451 0.627451
0.639216 0.639216 0.639216
0.658824 0.658824 0.658824
0.670588 0.670588 0.670588
0.690196 0.690196 0.690196
0.701961 0.701961 0.701961
0.713725 0.713725 0.713725
0.729412 0.729412 0.729412
0.741176 0.741176 0.741176
0.756863 0.756863 0.756863
0.768627 0.768627 0.768627
0.776471 0.776471 0.776471
0.792157 0.792157 0.792157
0.800000 0.800000 0.800000
0.807843 0.807843 0.807843
0.819608 0.819608 0.819608
0.831373 0.831373 0.831373
0.839216 0.839216 0.839216
