apps/booth/assets/luts/sunset_bliss.cube
TITLE "Sunset Bliss"
LUT_3D_SIZE 5
0.107000 0.049200 0.030000
0.365750 0.049200 0.030000
0.624500 0.049200 0.030000
0.883250 0.049200 0.030000
0.980000 0.049200 0.030000
0.107000 0.267700 0.030000
0.365750 0.267700 0.030000
0.624500 0.267700 0.030000
0.883250 0.267700 0.030000
0.980000 0.267700 0.030000
0.107000 0.486200 0.030000
0.365750 0.486200 0.030000
0.624500 0.486200 0.030000
0.883250 0.486200 0.030000
0.980000 0.486200 0.030000
0.107000 0.704700 0.030000
0.365750 0.704700 0.030000
0.624500 0.704700 0.030000
0.883250 0.704700 0.030000
0.980000 0.704700 0.030000
0.107000 0.923200 0.030000
0.365750 0.923200 0.030000
0.624500 0.923200 0.030000
0.883250 0.923200 0.030000
0.980000 0.923200 0.030000
0.107000 0.049200 0.218600
0.365750 0.049200 0.218600
0.624500 0.049200 0.218600
0.883250 0.049200 0.218600
0.980000 0.049200 0.218600
0.107000 0.267700 0.218600
0.365750 0.267700 0.218600
0.624500 0.267700 0.218600
0.883250 0.267700 0.218600
0.980000 0.267700 0.218600
0.107000 0.486200 0.218600
0.365750 0.486200 0.218600
0.624500 0.486200 0.218600
0.883250 0.486200 0.218600
0.980000 0.486200 0.218600
0.107000 0.704700 0.218600
0.365750 0.704700 0.218600
0.624500 0.704700 0.218600
0.883250 0.704700 0.218600
0.980000 0.704700 0.218600
0.107000 0.923200 0.218600
0.365750 0.923200 0.218600
0.624500 0.923200 0.218600
0.883250 0.923200 0.218600
0.980000 0.923200 0.218600
0.107000 0.049200 0.407200
0.365750 0.049200 0.407200
0.624500 0.049200 0.407200
0.883250 0.049200 0.407200
0.980000 0.049200 0.407200
0.107000 0.267700 0.407200
0.365750 0.267700 0.407200
0.624500 0.267700 0.407200
0.883250 0.267700 0.407200
0.980000 0.267700 0.407200
0.107000 0.486200 0.407200
0.365750 0.486200 0.407200
0.624500 0.486200 0.407200
0.883250 0.486200 0.407200
0.980000 0.486200 0.407200
0.107000 0.704700 0.407200
0.365750 0.704700 0.407200
0.624500 0.704700 0.407200
0.883250 0.704700 0.407200
0.980000 0.704700 0.407200
0.107000 0.923200 0.407200
0.365750 0.923200 0.407200
0.624500 0.923200 0.407200
0.883250 0.923200 0.407200
0.980000 0.923200 0.407200
0.107000 0.049200 0.595800
0.365750 0.049200 0.595800
0.624500 0.049200 0.595800
0.883250 0.049200 0.595800
0.980000 0.049200 0.595800
0.107000 0.267700 0.595800
0.365750 0.267700 0.595800
0.624500 0.267700 0.595800
0.883250 0.267700 0.595800
0.980000 0.267700 0.595800
0.107000 0.486200 0.595800
0.365750 0.486200 0.595800
0.624500 0.486200 0.595800
0.883250 0.486200 0.595800
0.980000 0.486200 0.595800
0.107000 0.704700 0.595800
0.365750 0.704700 0.595800
0.624500 0.704700 0.595800
0.883250 0.704700 0.595800
0.980000 0.704700 0.595800
0.107000 0.923200 0.595800
0.365750 0.923200 0.595800
0.624500 0.923200 0.595800
0.883250 0.923200 0.595800
0.980000 0.923200 0.595800
0.107000 0.049200 0.784400
0.365750 0.049200 0.784400
0.624500 0.049200 0.784400
0.883250 0.049200 0.784400
0.980000 0.049200 0.784400
0.107000 0.267700 0.784400
0.365750 0.267700 0.784400
0.624500 0.267700 0.784400
0.883250 0.267700 0.784400
0.980000 0.267700 0.784400
0.107000 0.486200 0.784400
0.365750 0.486200 0.784400
0.624500 0.486200 0.784400
0.883250 0.486200 0.784400
0.980000 0.486200 0.784400
0.107000 0.704700 0.784400
0.365750 0.704700 0.784400
0.624500 0.704700 0.784400
0.883250 0.704700 0.784400
0.980000 0.704700 0.784400
0.107000 0.923200 0.784400
0.365750 0.923200 0.784400
0.624500 0.923200 0.784400
0.883250 0.923200 0.784400
0.980000 0.923200 0.784400
