apps/booth/assets/luts/sunset_bliss.cube
TITLE "Sunset Bliss"
LUT_3D_SIZE 9
0.107000 0.049200 0.030000
0.236375 0.049200 0.030000
0.365750 0.049200 0.030000
0.495125 0.049200 0.030000
0.624500 0.049200 0.030000
0.753875 0.049200 0.030000
0.883250 0.049200 0.030000
0.980000 0.049200 0.030000
0.980000 0.049200 0.030000
0.107000 0.158450 0.030000
0.236375 0.158450 0.030000
0.365750 0.158450 0.030000
0.495125 0.158450 0.030000
0.624500 0.158450 0.030000
0.753875 0.158450 0.030000
0.883250 0.158450 0.030000
0.980000 0.158450 0.030000
0.980000 0.158450 0.030000
0.107000 0.267700 0.030000
0.236375 0.267700 0.030000
0.365750 0.267700 0.030000
0.495125 0.267700 0.030000
0.624500 0.267700 0.030000
0.753875 0.267700 0.030000
0.883250 0.267700 0.030000
0.980000 0.267700 0.030000
0.980000 0.267700 0.030000
0.107000 0.376950 0.030000
0.236375 0.376950 0.030000
0.365750 0.376950 0.030000
0.495125 0.376950 0.030000
0.624500 0.376950 0.030000
0.753875 0.376950 0.030000
0.883250 0.376950 0.030000
0.980000 0.376950 0.030000
0.980000 0.376950 0.030000
0.107000 0.486200 0.030000
0.236375 0.486200 0.030000
0.365750 0.486200 0.030000
0.495125 0.486200 0.030000
0.624500 0.486200 0.030000
0.753875 0.486200 0.030000
0.883250 0.486200 0.030000
0.980000 0.486200 0.030000
0.980000 0.486200 0.030000
0.107000 0.595450 0.030000
0.236375 0.595450 0.030000
0.365750 0.595450 0.030000
0.495125 0.595450 0.030000
0.624500 0.595450 0.030000
0.753875 0.595450 0.030000
0.883250 0.595450 0.030000
0.980000 0.595450 0.030000
0.980000 0.595450 0.030000
0.107000 0.704700 0.030000
0.236375 0.704700 0.030000
0.365750 0.704700 0.030000
0.495125 0.704700 0.030000
0.624500 0.704700 0.030000
0.753875 0.704700 0.030000
0.883250 0.704700 0.030000
0.980000 0.704700 0.030000
0.980000 0.704700 0.030000
0.107000 0.813950 0.030000
0.236375 0.813950 0.030000
0.365750 0.813950 0.030000
0.495125 0.813950 0.030000
0.624500 0.813950 0.030000
0.753875 0.813950 0.030000
0.883250 0.813950 0.030000
0.980000 0.813950 0.030000
0.980000 0.813950 0.030000
0.107000 0.923200 0.030000
0.236375 0.923200 0.030000
0.365750 0.923200 0.030000
0.495125 0.923200 0.030000
0.624500 0.923200 0.030000
0.753875 0.923200 0.030000
0.883250 0.923200 0.030000
0.980000 0.923200 0.030000
0.980000 0.923200 0.030000
0.107000 0.049200 0.124300
0.236375 0.049200 0.124300
0.365750 0.049200 0.124300
0.495125 0.049200 0.124300
0.624500 0.049200 0.124300
0.753875 0.049200 0.124300
0.883250 0.049200 0.124300
0.980000 0.049200 0.124300
0.980000 0.049200 0.124300
0.107000 0.158450 0.124300
0.236375 0.158450 0.124300
0.365750 0.158450 0.124300
0.495125 0.158450 0.124300
0.624500 0.158450 0.124300
0.753875 0.158450 0.124300
0.883250 0.158450 0.124300
0.980000 0.158450 0.124300
0.980000 0.158450 0.124300
0.107000 0.267700 0.124300
0.236375 0.267700 0.124300
0.365750 0.267700 0.124300
0.495125 0.267700 0.124300
0.624500 0.267700 0.124300
0.753875 0.267700 0.124300
0.883250 0.267700 0.124300
0.980000 0.267700 0.124300
0.980000 0.267700 0.124300
0.107000 0.376950 0.124300
0.236375 0.376950 0.124300
0.365750 0.376950 0.124300
0.495125 0.376950 0.124300
0.624500 0.376950 0.124300
0.753875 0.376950 0.124300
0.883250 0.376950 0.124300
0.980000 0.376950 0.124300
0.980000 0.376950 0.124300
0.107000 0.486200 0.124300
0.236375 0.486200 0.124300
0.365750 0.486200 0.124300
0.495125 0.486200 0.124300
0.624500 0.486200 0.124300
0.753875 0.486200 0.124300
0.883250 0.486200 0.124300
0.980000 0.486200 0.124300
0.980000 0.486200 0.124300
0.107000 0.595450 0.124300
0.236375 0.595450 0.124300
0.365750 0.595450 0.124300
0.495125 0.595450 0.124300
0.624500 0.595450 0.124300
0.753875 0.595450 0.124300
0.883250 0.595450 0.124300
0.980000 0.595450 0.124300
0.980000 0.595450 0.124300
0.107000 0.704700 0.124300
0.236375 0.704700 0.124300
0.365750 0.704700 0.124300
0.495125 0.704700 0.124300
0.624500 0.704700 0.124300
0.753875 0.704700 0.124300
0.883250 0.704700 0.124300
0.980000 0.704700 0.124300
0.980000 0.704700 0.124300
0.107000 0.813950 0.124300
0.236375 0.813950 0.124300
0.365750 0.813950 0.124300
0.495125 0.813950 0.124300
0.624500 0.813950 0.124300
0.753875 0.813950 0.124300
0.883250 0.813950 0.124300
0.980000 0.813950 0.124300
0.980000 0.813950 0.124300
0.107000 0.923200 0.124300
0.236375 0.923200 0.124300
0.365750 0.923200 0.124300
0.495125 0.923200 0.124300
0.624500 0.923200 0.124300
0.753875 0.923200 0.124300
0.883250 0.923200 0.124300
0.980000 0.923200 0.124300
0.980000 0.923200 0.124300
0.107000 0.049200 0.218600
0.236375 0.049200 0.218600
0.365750 0.049200 0.218600
0.495125 0.049200 0.218600
0.624500 0.049200 0.218600
0.753875 0.049200 0.218600
0.883250 0.049200 0.218600
0.980000 0.049200 0.218600
0.980000 0.049200 0.218600
0.107000 0.158450 0.218600
0.236375 0.158450 0.218600
0.365750 0.158450 0.218600
0.495125 0.158450 0.218600
0.624500 0.158450 0.218600
0.753875 0.158450 0.218600
0.883250 0.158450 0.218600
0.980000 0.158450 0.218600
0.980000 0.158450 0.218600
0.107000 0.267700 0.218600
0.236375 0.267700 0.218600
0.365750 0.267700 0.218600
0.495125 0.267700 0.218600
0.624500 0.267700 0.218600
0.753875 0.267700 0.218600
0.883250 0.267700 0.218600
0.980000 0.267700 0.218600
0.980000 0.267700 0.218600
0.107000 0.376950 0.218600
0.236375 0.376950 0.218600
0.365750 0.376950 0.218600
0.495125 0.376950 0.218600
0.624500 0.376950 0.218600
0.753875 0.376950 0.218600
0.883250 0.376950 0.218600
0.980000 0.376950 0.218600
0.980000 0.376950 0.218600
0.107000 0.486200 0.218600
0.236375 0.486200 0.218600
0.365750 0.486200 0.218600
0.495125 0.486200 0.218600
0.624500 0.486200 0.218600
0.753875 0.486200 0.218600
0.883250 0.486200 0.218600
0.980000 0.486200 0.218600
0.980000 0.486200 0.218600
0.107000 0.595450 0.218600
0.236375 0.595450 0.218600
0.365750 0.595450 0.218600
0.495125 0.595450 0.218600
0.624500 0.595450 0.218600
0.753875 0.595450 0.218600
0.883250 0.595450 0.218600
0.980000 0.595450 0.218600
0.980000 0.595450 0.218600
0.107000 0.704700 0.218600
0.236375 0.704700 0.218600
0.365750 0.704700 0.218600
0.495125 0.704700 0.218600
0.624500 0.704700 0.218600
0.753875 0.704700 0.218600
0.883250 0.704700 0.218600
0.980000 0.704700 0.218600
0.980000 0.704700 0.218600
0.107000 0.813950 0.218600
0.236375 0.813950 0.218600
0.365750 0.813950 0.218600
0.495125 0.813950 0.218600
0.624500 0.813950 0.218600
0.753875 0.813950 0.218600
0.883250 0.813950 0.218600
0.980000 0.813950 0.218600
0.980000 0.813950 0.218600
0.107000 0.923200 0.218600
0.236375 0.923200 0.218600
0.365750 0.923200 0.218600
0.495125 0.923200 0.218600
0.624500 0.923200 0.218600
0.753875 0.923200 0.218600
0.883250 0.923200 0.218600
0.980000 0.923200 0.218600
0.980000 0.923200 0.218600
0.107000 0.049200 0.312900
0.236375 0.049200 0.312900
0.365750 0.049200 0.312900
0.495125 0.049200 0.312900
0.624500 0.049200 0.312900
0.753875 0.049200 0.312900
0.883250 0.049200 0.312900
0.980000 0.049200 0.312900
0.980000 0.049200 0.312900
0.107000 0.158450 0.312900
0.236375 0.158450 0.312900
0.365750 0.158450 0.312900
0.495125 0.158450 0.312900
0.624500 0.158450 0.312900
0.753875 0.158450 0.312900
0.883250 0.158450 0.312900
0.980000 0.158450 0.312900
0.980000 0.158450 0.312900
0.107000 0.267700 0.312900
0.236375 0.267700 0.312900
0.365750 0.267700 0.312900
0.495125 0.267700 0.312900
0.624500 0.267700 0.312900
0.753875 0.267700 0.312900
0.883250 0.267700 0.312900
0.980000 0.267700 0.312900
0.980000 0.267700 0.312900
0.107000 0.376950 0.312900
0.236375 0.376950 0.312900
0.365750 0.376950 0.312900
0.495125 0.376950 0.312900
0.624500 0.376950 0.312900
0.753875 0.376950 0.312900
0.883250 0.376950 0.312900
0.980000 0.376950 0.312900
0.980000 0.376950 0.312900
0.107000 0.486200 0.312900
0.236375 0.486200 0.312900
0.365750 0.486200 0.312900
0.495125 0.486200 0.312900
0.624500 0.486200 0.312900
0.753875 0.486200 0.312900
0.883250 0.486200 0.312900
0.980000 0.486200 0.312900
0.980000 0.486200 0.312900
0.107000 0.595450 0.312900
0.236375 0.595450 0.312900
0.365750 0.595450 0.312900
0.495125 0.595450 0.312900
0.624500 0.595450 0.312900
0.753875 0.595450 0.312900
0.883250 0.595450 0.312900
0.980000 0.595450 0.312900
0.980000 0.595450 0.312900
0.107000 0.704700 0.312900
0.236375 0.704700 0.312900
0.365750 0.704700 0.312900
0.495125 0.704700 0.312900
0.624500 0.704700 0.312900
0.753875 0.704700 0.312900
0.883250 0.704700 0.312900
0.980000 0.704700 0.312900
0.980000 0.704700 0.312900
0.107000 0.813950 0.312900
0.236375 0.813950 0.312900
0.365750 0.813950 0.312900
0.495125 0.813950 0.312900
0.624500 0.813950 0.312900
0.753875 0.813950 0.312900
0.883250 0.813950 0.312900
0.980000 0.813950 0.312900
0.980000 0.813950 0.312900
0.107000 0.923200 0.312900
0.236375 0.923200 0.312900
0.365750 0.923200 0.312900
0.495125 0.923200 0.312900
0.624500 0.923200 0.312900
0.753875 0.923200 0.312900
0.883250 0.923200 0.312900
0.980000 0.923200 0.312900
0.980000 0.923200 0.312900
0.107000 0.049200 0.407200
0.236375 0.049200 0.407200
0.365750 0.049200 0.407200
0.495125 0.049200 0.407200
0.624500 0.049200 0.407200
0.753875 0.049200 0.407200
0.883250 0.049200 0.407200
0.980000 0.049200 0.407200
0.980000 0.049200 0.407200
0.107000 0.158450 0.407200
0.236375 0.158450 0.407200
0.365750 0.158450 0.407200
0.495125 0.158450 0.407200
0.624500 0.158450 0.407200
0.753875 0.158450 0.407200
0.883250 0.158450 0.407200
0.980000 0.158450 0.407200
0.980000 0.158450 0.407200
0.107000 0.267700 0.407200
0.236375 0.267700 0.407200
0.365750 0.267700 0.407200
0.495125 0.267700 0.407200
0.624500 0.267700 0.407200
0.753875 0.267700 0.407200
0.883250 0.267700 0.407200
0.980000 0.267700 0.407200
0.980000 0.267700 0.407200
0.107000 0.376950 0.407200
0.236375 0.376950 0.407200
0.365750 0.376950 0.407200
0.495125 0.376950 0.407200
0.624500 0.376950 0.407200
0.753875 0.376950 0.407200
0.883250 0.376950 0.407200
0.980000 0.376950 0.407200
0.980000 0.376950 0.407200
0.107000 0.486200 0.407200
0.236375 0.486200 0.407200
0.365750 0.486200 0.407200
0.495125 0.486200 0.407200
0.624500 0.486200 0.407200
0.753875 0.486200 0.407200
0.883250 0.486200 0.407200
0.980000 0.486200 0.407200
0.980000 0.486200 0.407200
0.107000 0.595450 0.407200
0.236375 0.595450 0.407200
0.365750 0.595450 0.407200
0.495125 0.595450 0.407200
0.624500 0.595450 0.407200
0.753875 0.595450 0.407200
0.883250 0.595450 0.407200
0.980000 0.595450 0.407200
0.980000 0.595450 0.407200
0.107000 0.704700 0.407200
0.236375 0.704700 0.407200
0.365750 0.704700 0.407200
0.495125 0.704700 0.407200
0.624500 0.704700 0.407200
0.753875 0.704700 0.407200
0.883250 0.704700 0.407200
0.980000 0.704700 0.407200
0.980000 0.704700 0.407200
0.107000 0.813950 0.407200
0.236375 0.813950 0.407200
0.365750 0.813950 0.407200
0.495125 0.813950 0.407200
0.624500 0.813950 0.407200
0.753875 0.813950 0.407200
0.883250 0.813950 0.407200
0.980000 0.813950 0.407200
0.980000 0.813950 0.407200
0.107000 0.923200 0.407200
0.236375 0.923200 0.407200
0.365750 0.923200 0.407200
0.495125 0.923200 0.407200
0.624500 0.923200 0.407200
0.753875 0.923200 0.407200
0.883250 0.923200 0.407200
0.980000 0.923200 0.407200
0.980000 0.923200 0.407200
0.107000 0.049200 0.501500
0.236375 0.049200 0.501500
0.365750 0.049200 0.501500
0.495125 0.049200 0.501500
0.624500 0.049200 0.501500
0.753875 0.049200 0.501500
0.883250 0.049200 0.501500
0.980000 0.049200 0.501500
0.980000 0.049200 0.501500
0.107000 0.158450 0.501500
0.236375 0.158450 0.501500
0.365750 0.158450 0.501500
0.495125 0.158450 0.501500
0.624500 0.158450 0.501500
0.753875 0.158450 0.501500
0.883250 0.158450 0.501500
0.980000 0.158450 0.501500
0.980000 0.158450 0.501500
0.107000 0.267700 0.501500
0.236375 0.267700 0.501500
0.365750 0.267700 0.501500
0.495125 0.267700 0.501500
0.624500 0.267700 0.501500
0.753875 0.267700 0.501500
0.883250 0.267700 0.501500
0.980000 0.267700 0.501500
0.980000 0.267700 0.501500
0.107000 0.376950 0.501500
0.236375 0.376950 0.501500
0.365750 0.376950 0.501500
0.495125 0.376950 0.501500
0.624500 0.376950 0.501500
0.753875 0.376950 0.501500
0.883250 0.376950 0.501500
0.980000 0.376950 0.501500
0.980000 0.376950 0.501500
0.107000 0.486200 0.501500
0.236375 0.486200 0.501500
0.365750 0.486200 0.501500
0.495125 0.486200 0.501500
0.624500 0.486200 0.501500
0.753875 0.486200 0.501500
0.883250 0.486200 0.501500
0.980000 0.486200 0.501500
0.980000 0.486200 0.501500
0.107000 0.595450 0.501500
0.236375 0.595450 0.501500
0.365750 0.595450 0.501500
0.495125 0.595450 0.501500
0.624500 0.595450 0.501500
0.753875 0.595450 0.501500
0.883250 0.595450 0.501500
0.980000 0.595450 0.501500
0.980000 0.595450 0.501500
0.107000 0.704700 0.501500
0.236375 0.704700 0.501500
0.365750 0.704700 0.501500
0.495125 0.704700 0.501500
0.624500 0.704700 0.501500
0.753875 0.704700 0.501500
0.883250 0.704700 0.501500
0.980000 0.704700 0.501500
0.980000 0.704700 0.501500
0.107000 0.813950 0.501500
0.236375 0.813950 0.501500
0.365750 0.813950 0.501500
0.495125 0.813950 0.501500
0.624500 0.813950 0.501500
0.753875 0.813950 0.501500
0.883250 0.813950 0.501500
0.980000 0.813950 0.501500
0.980000 0.813950 0.501500
0.107000 0.923200 0.501500
0.236375 0.923200 0.501500
0.365750 0.923200 0.501500
0.495125 0.923200 0.501500
0.624500 0.923200 0.501500
0.753875 0.923200 0.501500
0.883250 0.923200 0.501500
0.980000 0.923200 0.501500
0.980000 0.923200 0.501500
0.107000 0.049200 0.595800
0.236375 0.049200 0.595800
0.365750 0.049200 0.595800
0.495125 0.049200 0.595800
0.624500 0.049200 0.595800
0.753875 0.049200 0.595800
0.883250 0.049200 0.595800
0.980000 0.049200 0.595800
0.980000 0.049200 0.595800
0.107000 0.158450 0.595800
0.236375 0.158450 0.595800
0.365750 0.158450 0.595800
0.495125 0.158450 0.595800
0.624500 0.158450 0.595800
0.753875 0.158450 0.595800
0.883250 0.158450 0.595800
0.980000 0.158450 0.595800
0.980000 0.158450 0.595800
0.107000 0.267700 0.595800
0.236375 0.267700 0.595800
0.365750 0.267700 0.595800
0.495125 0.267700 0.595800
0.624500 0.267700 0.595800
0.753875 0.267700 0.595800
0.883250 0.267700 0.595800
0.980000 0.267700 0.595800
0.980000 0.267700 0.595800
0.107000 0.376950 0.595800
0.236375 0.376950 0.595800
0.365750 0.376950 0.595800
0.495125 0.376950 0.595800
0.624500 0.376950 0.595800
0.753875 0.376950 0.595800
0.883250 0.376950 0.595800
0.980000 0.376950 0.595800
0.980000 0.376950 0.595800
0.107000 0.486200 0.595800
0.236375 0.486200 0.595800
0.365750 0.486200 0.595800
0.495125 0.486200 0.595800
0.624500 0.486200 0.595800
0.753875 0.486200 0.595800
0.883250 0.486200 0.595800
0.980000 0.486200 0.595800
0.980000 0.486200 0.595800
0.107000 0.595450 0.595800
0.236375 0.595450 0.595800
0.365750 0.595450 0.595800
0.495125 0.595450 0.595800
0.624500 0.595450 0.595800
0.753875 0.595450 0.595800
0.883250 0.595450 0.595800
0.980000 0.595450 0.595800
0.980000 0.595450 0.595800
0.107000 0.704700 0.595800
0.236375 0.704700 0.595800
0.365750 0.704700 0.595800
0.495125 0.704700 0.595800
0.624500 0.704700 0.595800
0.753875 0.704700 0.595800
0.883250 0.704700 0.595800
0.980000 0.704700 0.595800
0.980000 0.704700 0.595800
0.107000 0.813950 0.595800
0.236375 0.813950 0.595800
0.365750 0.813950 0.595800
0.495125 0.813950 0.595800
0.624500 0.813950 0.595800
0.753875 0.813950 0.595800
0.883250 0.813950 0.595800
0.980000 0.813950 0.595800
0.980000 0.813950 0.595800
0.107000 0.923200 0.595800
0.236375 0.923200 0.595800
0.365750 0.923200 0.595800
0.495125 0.923200 0.595800
0.624500 0.923200 0.595800
0.753875 0.923200 0.595800
0.883250 0.923200 0.595800
0.980000 0.923200 0.595800
0.980000 0.923200 0.595800
0.107000 0.049200 0.690100
0.236375 0.049200 0.690100
0.365750 0.049200 0.690100
0.495125 0.049200 0.690100
0.624500 0.049200 0.690100
0.753875 0.049200 0.690100
0.883250 0.049200 0.690100
0.980000 0.049200 0.690100
0.980000 0.049200 0.690100
0.107000 0.158450 0.690100
0.236375 0.158450 0.690100
0.365750 0.158450 0.690100
0.495125 0.158450 0.690100
0.624500 0.158450 0.690100
0.753875 0.158450 0.690100
0.883250 0.158450 0.690100
0.980000 0.158450 0.690100
0.980000 0.158450 0.690100
0.107000 0.267700 0.690100
0.236375 0.267700 0.690100
0.365750 0.267700 0.690100
0.495125 0.267700 0.690100
0.624500 0.267700 0.690100
0.753875 0.267700 0.690100
0.883250 0.267700 0.690100
0.980000 0.267700 0.690100
0.980000 0.267700 0.690100
0.107000 0.376950 0.690100
0.236375 0.376950 0.690100
0.365750 0.376950 0.690100
0.495125 0.376950 0.690100
0.624500 0.376950 0.690100
0.753875 0.376950 0.690100
0.883250 0.376950 0.690100
0.980000 0.376950 0.690100
0.980000 0.376950 0.690100
0.107000 0.486200 0.690100
0.236375 0.486200 0.690100
0.365750 0.486200 0.690100
0.495125 0.486200 0.690100
0.624500 0.486200 0.690100
0.753875 0.486200 0.690100
0.883250 0.486200 0.690100
0.980000 0.486200 0.690100
0.980000 0.486200 0.690100
0.107000 0.595450 0.690100
0.236375 0.595450 0.690100
0.365750 0.595450 0.690100
0.495125 0.595450 0.690100
0.624500 0.595450 0.690100
0.753875 0.595450 0.690100
0.883250 0.595450 0.690100
0.980000 0.595450 0.690100
0.980000 0.595450 0.690100
0.107000 0.704700 0.690100
0.236375 0.704700 0.690100
0.365750 0.704700 0.690100
0.495125 0.704700 0.690100
0.624500 0.704700 0.690100
0.753875 0.704700 0.690100
0.883250 0.704700 0.690100
0.980000 0.704700 0.690100
0.980000 0.704700 0.690100
0.107000 0.813950 0.690100
0.236375 0.813950 0.690100
0.365750 0.813950 0.690100
0.495125 0.813950 0.690100
0.624500 0.813950 0.690100
0.753875 0.813950 0.690100
0.883250 0.813950 0.690100
0.980000 0.813950 0.690100
0.980000 0.813950 0.690100
0.107000 0.923200 0.690100
0.236375 0.923200 0.690100
0.365750 0.923200 0.690100
0.495125 0.923200 0.690100
0.624500 0.923200 0.690100
0.753875 0.923200 0.690100
0.883250 0.923200 0.690100
0.980000 0.923200 0.690100
0.980000 0.923200 0.690100
0.107000 0.049200 0.784400
0.236375 0.049200 0.784400
0.365750 0.049200 0.784400
0.495125 0.049200 0.784400
0.624500 0.049200 0.784400
0.753875 0.049200 0.784400
0.883250 0.049200 0.784400
0.980000 0.049200 0.784400
0.980000 0.049200 0.784400
0.107000 0.158450 0.784400
0.236375 0.158450 0.784400
0.365750 0.158450 0.784400
0.495125 0.158450 0.784400
0.624500 0.158450 0.784400
0.753875 0.158450 0.784400
0.883250 0.158450 0.784400
0.980000 0.158450 0.784400
0.980000 0.158450 0.784400
0.107000 0.267700 0.784400
0.236375 0.267700 0.784400
0.365750 0.267700 0.784400
0.495125 0.267700 0.784400
0.624500 0.267700 0.784400
0.753875 0.267700 0.784400
0.883250 0.267700 0.784400
0.980000 0.267700 0.784400
0.980000 0.267700 0.784400
0.107000 0.376950 0.784400
0.236375 0.376950 0.784400
0.365750 0.376950 0.784400
0.495125 0.376950 0.784400
0.624500 0.376950 0.784400
0.753875 0.376950 0.784400
0.883250 0.376950 0.784400
0.980000 0.376950 0.784400
0.980000 0.376950 0.784400
0.107000 0.486200 0.784400
0.236375 0.486200 0.784400
0.365750 0.486200 0.784400
0.495125 0.486200 0.784400
0.624500 0.486200 0.784400
0.753875 0.486200 0.784400
0.883250 0.486200 0.784400
0.980000 0.486200 0.784400
0.980000 0.486200 0.784400
0.107000 0.595450 0.784400
0.236375 0.595450 0.784400
0.365750 0.595450 0.784400
0.495125 0.595450 0.784400
0.624500 0.595450 0.784400
0.753875 0.595450 0.784400
0.883250 0.595450 0.784400
0.980000 0.595450 0.784400
0.980000 0.595450 0.784400
0.107000 0.704700 0.784400
0.236375 0.704700 0.784400
0.365750 0.704700 0.784400
0.495125 0.704700 0.784400
0.624500 0.704700 0.784400
0.753875 0.704700 0.784400
0.883250 0.704700 0.784400
0.980000 0.704700 0.784400
0.980000 0.704700 0.784400
0.107000 0.813950 0.784400
0.236375 0.813950 0.784400
0.365750 0.813950 0.784400
0.495125 0.813950 0.784400
0.624500 0.813950 0.784400
0.753875 0.813950 0.784400
0.883250 0.813950 0.784400
0.980000 0.813950 0.784400
0.980000 0.813950 0.784400
0.107000 0.923200 0.784400
0.236375 0.923200 0.784400
0.365750 0.923200 0.784400
0.495125 0.923200 0.784400
0.624500 0.923200 0.784400
0.753875 0.923200 0.784400
0.883250 0.923200 0.784400
0.980000 0.923200 0.784400
0.980000 0.923200 0.784400
