apps/booth/assets/luts/sunset_bliss.cube
TITLE "Sunset Bliss"
LUT_3D_SIZE 17
0.107000 0.049200 0.030000
0.171687 0.049200 0.030000
0.236375 0.049200 0.030000
0.301063 0.049200 0.030000
0.365750 0.049200 0.030000
0.430438 0.049200 0.030000
0.495125 0.049200 0.030000
0.559812 0.049200 0.030000
0.624500 0.049200 0.030000
0.689187 0.049200 0.030000
0.753875 0.049200 0.030000
0.818562 0.049200 0.030000
0.883250 0.049200 0.030000
0.947937 0.049200 0.030000
0.980000 0.049200 0.030000
0.980000 0.049200 0.030000
0.980000 0.049200 0.030000
0.107000 0.103825 0.030000
0.171687 0.103825 0.030000
0.236375 0.103825 0.030000
0.301063 0.103825 0.030000
0.365750 0.103825 0.030000
0.430438 0.103825 0.030000
0.495125 0.103825 0.030000
0.559812 0.103825 0.030000
0.624500 0.103825 0.030000
0.689187 0.103825 0.030000
0.753875 0.103825 0.030000
0.818562 0.103825 0.030000
0.883250 0.103825 0.030000
0.947937 0.103825 0.030000
0.980000 0.103825 0.030000
0.980000 0.103825 0.030000
0.980000 0.103825 0.030000
0.107000 0.158450 0.030000
0.171687 0.158450 0.030000
0.236375 0.158450 0.030000
0.301063 0.158450 0.030000
0.365750 0.158450 0.030000
0.430438 0.158450 0.030000
0.495125 0.158450 0.030000
0.559812 0.158450 0.030000
0.624500 0.158450 0.030000
0.689187 0.158450 0.030000
0.753875 0.158450 0.030000
0.818562 0.158450 0.030000
0.883250 0.158450 0.030000
0.947937 0.158450 0.030000
0.980000 0.158450 0.030000
0.980000 0.158450 0.030000
0.980000 0.158450 0.030000
0.107000 0.213075 0.030000
0.171687 0.213075 0.030000
0.236375 0.213075 0.030000
0.301063 0.213075 0.030000
0.365750 0.213075 0.030000
0.430438 0.213075 0.030000
0.495125 0.213075 0.030000
0.559812 0.213075 0.030000
0.624500 0.213075 0.030000
0.689187 0.213075 0.030000
0.753875 0.213075 0.030000
0.818562 0.213075 0.030000
0.883250 0.213075 0.030000
0.947937 0.213075 0.030000
0.980000 0.213075 0.030000
0.980000 0.213075 0.030000
0.980000 0.213075 0.030000
0.107000 0.267700 0.030000
0.171687 0.267700 0.030000
0.236375 0.267700 0.030000
0.301063 0.267700 0.030000
0.365750 0.267700 0.030000
0.430438 0.267700 0.030000
0.495125 0.267700 0.030000
0.559812 0.267700 0.030000
0.624500 0.267700 0.030000
0.689187 0.267700 0.030000
0.753875 0.267700 0.030000
0.818562 0.267700 0.030000
0.883250 0.267700 0.030000
0.947937 0.267700 0.030000
0.980000 0.267700 0.030000
0.980000 0.267700 0.030000
0.980000 0.267700 0.030000
0.107000 0.322325 0.030000
0.171687 0.322325 0.030000
0.236375 0.322325 0.030000
0.301063 0.322325 0.030000
0.365750 0.322325 0.030000
0.430438 0.322325 0.030000
0.495125 0.322325 0.030000
0.559812 0.322325 0.030000
0.624500 0.322325 0.030000
0.689187 0.322325 0.030000
0.753875 0.322325 0.030000
0.818562 0.322325 0.030000
0.883250 0.322325 0.030000
0.947937 0.322325 0.030000
0.980000 0.322325 0.030000
0.980000 0.322325 0.030000
0.980000 0.322325 0.030000
0.107000 0.376950 0.030000
0.171687 0.376950 0.030000
0.236375 0.376950 0.030000
0.301063 0.376950 0.030000
0.365750 0.376950 0.030000
0.430438 0.376950 0.030000
0.495125 0.376950 0.030000
0.559812 0.376950 0.030000
0.624500 0.376950 0.030000
0.689187 0.376950 0.030000
0.753875 0.376950 0.030000
0.818562 0.376950 0.030000
0.883250 0.376950 0.030000
0.947937 0.376950 0.030000
0.980000 0.376950 0.030000
0.980000 0.376950 0.030000
0.980000 0.376950 0.030000
0.107000 0.431575 0.030000
0.171687 0.431575 0.030000
0.236375 0.431575 0.030000
0.301063 0.431575 0.030000
0.365750 0.431575 0.030000
0.430438 0.431575 0.030000
0.495125 0.431575 0.030000
0.559812 0.431575 0.030000
0.624500 0.431575 0.030000
0.689187 0.431575 0.030000
0.753875 0.431575 0.030000
0.818562 0.431575 0.030000
0.883250 0.431575 0.030000
0.947937 0.431575 0.030000
0.980000 0.431575 0.030000
0.980000 0.431575 0.030000
0.980000 0.431575 0.030000
0.107000 0.486200 0.030000
0.171687 0.486200 0.030000
0.236375 0.486200 0.030000
0.301063 0.486200 0.030000
0.365750 0.486200 0.030000
0.430438 0.486200 0.030000
0.495125 0.486200 0.030000
0.559812 0.486200 0.030000
0.624500 0.486200 0.030000
0.689187 0.486200 0.030000
0.753875 0.486200 0.030000
0.818562 0.486200 0.030000
0.883250 0.486200 0.030000
0.947937 0.486200 0.030000
0.980000 0.486200 0.030000
0.980000 0.486200 0.030000
0.980000 0.486200 0.030000
0.107000 0.540825 0.030000
0.171687 0.540825 0.030000
0.236375 0.540825 0.030000
0.301063 0.540825 0.030000
0.365750 0.540825 0.030000
0.430438 0.540825 0.030000
0.495125 0.540825 0.030000
0.559812 0.540825 0.030000
0.624500 0.540825 0.030000
0.689187 0.540825 0.030000
0.753875 0.540825 0.030000
0.818562 0.540825 0.030000
0.883250 0.540825 0.030000
0.947937 0.540825 0.030000
0.980000 0.540825 0.030000
0.980000 0.540825 0.030000
0.980000 0.540825 0.030000
0.107000 0.595450 0.030000
0.171687 0.595450 0.030000
0.236375 0.595450 0.030000
0.301063 0.595450 0.030000
0.365750 0.595450 0.030000
0.430438 0.595450 0.030000
0.495125 0.595450 0.030000
0.559812 0.595450 0.030000
0.624500 0.595450 0.030000
0.689187 0.595450 0.030000
0.753875 0.595450 0.030000
0.818562 0.595450 0.030000
0.883250 0.595450 0.030000
0.947937 0.595450 0.030000
0.980000 0.595450 0.030000
0.980000 0.595450 0.030000
0.980000 0.595450 0.030000
0.107000 0.650075 0.030000
0.171687 0.650075 0.030000
0.236375 0.650075 0.030000
0.301063 0.650075 0.030000
0.365750 0.650075 0.030000
0.430438 0.650075 0.030000
0.495125 0.650075 0.030000
0.559812 0.650075 0.030000
0.624500 0.650075 0.030000
0.689187 0.650075 0.030000
0.753875 0.650075 0.030000
0.818562 0.650075 0.030000
0.883250 0.650075 0.030000
0.947937 0.650075 0.030000
0.980000 0.650075 0.030000
0.980000 0.650075 0.030000
0.980000 0.650075 0.030000
0.107000 0.704700 0.030000
0.171687 0.704700 0.030000
0.236375 0.704700 0.030000
0.301063 0.704700 0.030000
0.365750 0.704700 0.030000
0.430438 0.704700 0.030000
0.495125 0.704700 0.030000
0.559812 0.704700 0.030000
0.624500 0.704700 0.030000
0.689187 0.704700 0.030000
0.753875 0.704700 0.030000
0.818562 0.704700 0.030000
0.883250 0.704700 0.030000
0.947937 0.704700 0.030000
0.980000 0.704700 0.030000
0.980000 0.704700 0.030000
0.980000 0.704700 0.030000
0.107000 0.759325 0.030000
0.171687 0.759325 0.030000
0.236375 0.759325 0.030000
0.301063 0.759325 0.030000
0.365750 0.759325 0.030000
0.430438 0.759325 0.030000
0.495125 0.759325 0.030000
0.559812 0.759325 0.030000
0.624500 0.759325 0.030000
0.689187 0.759325 0.030000
0.753875 0.759325 0.030000
0.818562 0.759325 0.030000
0.883250 0.759325 0.030000
0.947937 0.759325 0.030000
0.980000 0.759325 0.030000
0.980000 0.759325 0.030000
0.980000 0.759325 0.030000
0.107000 0.813950 0.030000
0.171687 0.813950 0.030000
0.236375 0.813950 0.030000
0.301063 0.813950 0.030000
0.365750 0.813950 0.030000
0.430438 0.813950 0.030000
0.495125 0.813950 0.030000
0.559812 0.813950 0.030000
0.624500 0.813950 0.030000
0.689187 0.813950 0.030000
0.753875 0.813950 0.030000
0.818562 0.813950 0.030000
0.883250 0.813950 0.030000
0.947937 0.813950 0.030000
0.980000 0.813950 0.030000
0.980000 0.813950 0.030000
0.980000 0.813950 0.030000
0.107000 0.868575 0.030000
0.171687 0.868575 0.030000
0.236375 0.868575 0.030000
0.301063 0.868575 0.030000
0.365750 0.868575 0.030000
0.430438 0.868575 0.030000
0.495125 0.868575 0.030000
0.559812 0.868575 0.030000
0.624500 0.868575 0.030000
0.689187 0.868575 0.030000
0.753875 0.868575 0.030000
0.818562 0.868575 0.030000
0.883250 0.868575 0.030000
0.947937 0.868575 0.030000
0.980000 0.868575 0.030000
0.980000 0.868575 0.030000
0.980000 0.868575 0.030000
0.107000 0.923200 0.030000
0.171687 0.923200 0.030000
0.236375 0.923200 0.030000
0.301063 0.923200 0.030000
0.365750 0.923200 0.030000
0.430438 0.923200 0.030000
0.495125 0.923200 0.030000
0.559812 0.923200 0.030000
0.624500 0.923200 0.030000
0.689187 0.923200 0.030000
0.753875 0.923200 0.030000
0.818562 0.923200 0.030000
0.883250 0.923200 0.030000
0.947937 0.923200 0.030000
0.980000 0.923200 0.030000
0.980000 0.923200 0.030000
0.980000 0.923200 0.030000
0.107000 0.049200 0.077150
0.171687 0.049200 0.077150
0.236375 0.049200 0.077150
0.301063 0.049200 0.077150
0.365750 0.049200 0.077150
0.430438 0.049200 0.077150
0.495125 0.049200 0.077150
0.559812 0.049200 0.077150
0.624500 0.049200 0.077150
0.689187 0.049200 0.077150
0.753875 0.049200 0.077150
0.818562 0.049200 0.077150
0.883250 0.049200 0.077150
0.947937 0.049200 0.077150
0.980000 0.049200 0.077150
0.980000 0.049200 0.077150
0.980000 0.049200 0.077150
0.107000 0.103825 0.077150
0.171687 0.103825 0.077150
0.236375 0.103825 0.077150
0.301063 0.103825 0.077150
0.365750 0.103825 0.077150
0.430438 0.103825 0.077150
0.495125 0.103825 0.077150
0.559812 0.103825 0.077150
0.624500 0.103825 0.077150
0.689187 0.103825 0.077150
0.753875 0.103825 0.077150
0.818562 0.103825 0.077150
0.883250 0.103825 0.077150
0.947937 0.103825 0.077150
0.980000 0.103825 0.077150
0.980000 0.103825 0.077150
0.980000 0.103825 0.077150
0.107000 0.158450 0.077150
0.171687 0.158450 0.077150
0.236375 0.158450 0.077150
0.301063 0.158450 0.077150
0.365750 0.158450 0.077150
0.430438 0.158450 0.077150
0.495125 0.158450 0.077150
0.559812 0.158450 0.077150
0.624500 0.158450 0.077150
0.689187 0.158450 0.077150
0.753875 0.158450 0.077150
0.818562 0.158450 0.077150
0.883250 0.158450 0.077150
0.947937 0.158450 0.077150
0.980000 0.158450 0.077150
0.980000 0.158450 0.077150
0.980000 0.158450 0.077150
0.107000 0.213075 0.077150
0.171687 0.213075 0.077150
0.236375 0.213075 0.077150
0.301063 0.213075 0.077150
0.365750 0.213075 0.077150
0.430438 0.213075 0.077150
0.495125 0.213075 0.077150
0.559812 0.213075 0.077150
0.624500 0.213075 0.077150
0.689187 0.213075 0.077150
0.753875 0.213075 0.077150
0.818562 0.213075 0.077150
0.883250 0.213075 0.077150
0.947937 0.213075 0.077150
0.980000 0.213075 0.077150
0.980000 0.213075 0.077150
0.980000 0.213075 0.077150
0.107000 0.267700 0.077150
0.171687 0.267700 0.077150
0.236375 0.267700 0.077150
0.301063 0.267700 0.077150
0.365750 0.267700 0.077150
0.430438 0.267700 0.077150
0.495125 0.267700 0.077150
0.559812 0.267700 0.077150
0.624500 0.267700 0.077150
0.689187 0.267700 0.077150
0.753875 0.267700 0.077150
0.818562 0.267700 0.077150
0.883250 0.267700 0.077150
0.947937 0.267700 0.077150
0.980000 0.267700 0.077150
0.980000 0.267700 0.077150
0.980000 0.267700 0.077150
0.107000 0.322325 0.077150
0.171687 0.322325 0.077150
0.236375 0.322325 0.077150
0.301063 0.322325 0.077150
0.365750 0.322325 0.077150
0.430438 0.322325 0.077150
0.495125 0.322325 0.077150
0.559812 0.322325 0.077150
0.624500 0.322325 0.077150
0.689187 0.322325 0.077150
0.753875 0.322325 0.077150
0.818562 0.322325 0.077150
0.883250 0.322325 0.077150
0.947937 0.322325 0.077150
0.980000 0.322325 0.077150
0.980000 0.322325 0.077150
0.980000 0.322325 0.077150
0.107000 0.376950 0.077150
0.171687 0.376950 0.077150
0.236375 0.376950 0.077150
0.301063 0.376950 0.077150
0.365750 0.376950 0.077150
0.430438 0.376950 0.077150
0.495125 0.376950 0.077150
0.559812 0.376950 0.077150
0.624500 0.376950 0.077150
0.689187 0.376950 0.077150
0.753875 0.376950 0.077150
0.818562 0.376950 0.077150
0.883250 0.376950 0.077150
0.947937 0.376950 0.077150
0.980000 0.376950 0.077150
0.980000 0.376950 0.077150
0.980000 0.376950 0.077150
0.107000 0.431575 0.077150
0.171687 0.431575 0.077150
0.236375 0.431575 0.077150
0.301063 0.431575 0.077150
0.365750 0.431575 0.077150
0.430438 0.431575 0.077150
0.495125 0.431575 0.077150
0.559812 0.431575 0.077150
0.624500 0.431575 0.077150
0.689187 0.431575 0.077150
0.753875 0.431575 0.077150
0.818562 0.431575 0.077150
0.883250 0.431575 0.077150
0.947937 0.431575 0.077150
0.980000 0.431575 0.077150
0.980000 0.431575 0.077150
0.980000 0.431575 0.077150
0.107000 0.486200 0.077150
0.171687 0.486200 0.077150
0.236375 0.486200 0.077150
0.301063 0.486200 0.077150
0.365750 0.486200 0.077150
0.430438 0.486200 0.077150
0.495125 0.486200 0.077150
0.559812 0.486200 0.077150
0.624500 0.486200 0.077150
0.689187 0.486200 0.077150
0.753875 0.486200 0.077150
0.818562 0.486200 0.077150
0.883250 0.486200 0.077150
0.947937 0.486200 0.077150
0.980000 0.486200 0.077150
0.980000 0.486200 0.077150
0.980000 0.486200 0.077150
0.107000 0.540825 0.077150
0.171687 0.540825 0.077150
0.236375 0.540825 0.077150
0.301063 0.540825 0.077150
0.365750 0.540825 0.077150
0.430438 0.540825 0.077150
0.495125 0.540825 0.077150
0.559812 0.540825 0.077150
0.624500 0.540825 0.077150
0.689187 0.540825 0.077150
0.753875 0.540825 0.077150
0.818562 0.540825 0.077150
0.883250 0.540825 0.077150
0.947937 0.540825 0.077150
0.980000 0.540825 0.077150
0.980000 0.540825 0.077150
0.980000 0.540825 0.077150
0.107000 0.595450 0.077150
0.171687 0.595450 0.077150
0.236375 0.595450 0.077150
0.301063 0.595450 0.077150
0.365750 0.595450 0.077150
0.430438 0.595450 0.077150
0.495125 0.595450 0.077150
0.559812 0.595450 0.077150
0.624500 0.595450 0.077150
0.689187 0.595450 0.077150
0.753875 0.595450 0.077150
0.818562 0.595450 0.077150
0.883250 0.595450 0.077150
0.947937 0.595450 0.077150
0.980000 0.595450 0.077150
0.980000 0.595450 0.077150
0.980000 0.595450 0.077150
0.107000 0.650075 0.077150
0.171687 0.650075 0.077150
0.236375 0.650075 0.077150
0.301063 0.650075 0.077150
0.365750 0.650075 0.077150
0.430438 0.650075 0.077150
0.495125 0.650075 0.077150
0.559812 0.650075 0.077150
0.624500 0.650075 0.077150
0.689187 0.650075 0.077150
0.753875 0.650075 0.077150
0.818562 0.650075 0.077150
0.883250 0.650075 0.077150
0.947937 0.650075 0.077150
0.980000 0.650075 0.077150
0.980000 0.650075 0.077150
0.980000 0.650075 0.077150
0.107000 0.704700 0.077150
0.171687 0.704700 0.077150
0.236375 0.704700 0.077150
0.301063 0.704700 0.077150
0.365750 0.704700 0.077150
0.430438 0.704700 0.077150
0.495125 0.704700 0.077150
0.559812 0.704700 0.077150
0.624500 0.704700 0.077150
0.689187 0.704700 0.077150
0.753875 0.704700 0.077150
0.818562 0.704700 0.077150
0.883250 0.704700 0.077150
0.947937 0.704700 0.077150
0.980000 0.704700 0.077150
0.980000 0.704700 0.077150
0.980000 0.704700 0.077150
0.107000 0.759325 0.077150
0.171687 0.759325 0.077150
0.236375 0.759325 0.077150
0.301063 0.759325 0.077150
0.365750 0.759325 0.077150
0.430438 0.759325 0.077150
0.495125 0.759325 0.077150
0.559812 0.759325 0.077150
0.624500 0.759325 0.077150
0.689187 0.759325 0.077150
0.753875 0.759325 0.077150
0.818562 0.759325 0.077150
0.883250 0.759325 0.077150
0.947937 0.759325 0.077150
0.980000 0.759325 0.077150
0.980000 0.759325 0.077150
0.980000 0.759325 0.077150
0.107000 0.813950 0.077150
0.171687 0.813950 0.077150
0.236375 0.813950 0.077150
0.301063 0.813950 0.077150
0.365750 0.813950 0.077150
0.430438 0.813950 0.077150
0.495125 0.813950 0.077150
0.559812 0.813950 0.077150
0.624500 0.813950 0.077150
0.689187 0.813950 0.077150
0.753875 0.813950 0.077150
0.818562 0.813950 0.077150
0.883250 0.813950 0.077150
0.947937 0.813950 0.077150
0.980000 0.813950 0.077150
0.980000 0.813950 0.077150
0.980000 0.813950 0.077150
0.107000 0.868575 0.077150
0.171687 0.868575 0.077150
0.236375 0.868575 0.077150
0.301063 0.868575 0.077150
0.365750 0.868575 0.077150
0.430438 0.868575 0.077150
0.495125 0.868575 0.077150
0.559812 0.868575 0.077150
0.624500 0.868575 0.077150
0.689187 0.868575 0.077150
0.753875 0.868575 0.077150
0.818562 0.868575 0.077150
0.883250 0.868575 0.077150
0.947937 0.868575 0.077150
0.980000 0.868575 0.077150
0.980000 0.868575 0.077150
0.980000 0.868575 0.077150
0.107000 0.923200 0.077150
0.171687 0.923200 0.077150
0.236375 0.923200 0.077150
0.301063 0.923200 0.077150
0.365750 0.923200 0.077150
0.430438 0.923200 0.077150
0.495125 0.923200 0.077150
0.559812 0.923200 0.077150
0.624500 0.923200 0.077150
0.689187 0.923200 0.077150
0.753875 0.923200 0.077150
0.818562 0.923200 0.077150
0.883250 0.923200 0.077150
0.947937 0.923200 0.077150
0.980000 0.923200 0.077150
0.980000 0.923200 0.077150
0.980000 0.923200 0.077150
0.107000 0.049200 0.124300
0.171687 0.049200 0.124300
0.236375 0.049200 0.124300
0.301063 0.049200 0.124300
0.365750 0.049200 0.124300
0.430438 0.049200 0.124300
0.495125 0.049200 0.124300
0.559812 0.049200 0.124300
0.624500 0.049200 0.124300
0.689187 0.049200 0.124300
0.753875 0.049200 0.124300
0.818562 0.049200 0.124300
0.883250 0.049200 0.124300
0.947937 0.049200 0.124300
0.980000 0.049200 0.124300
0.980000 0.049200 0.124300
0.980000 0.049200 0.124300
0.107000 0.103825 0.124300
0.171687 0.103825 0.124300
0.236375 0.103825 0.124300
0.301063 0.103825 0.124300
0.365750 0.103825 0.124300
0.430438 0.103825 0.124300
0.495125 0.103825 0.124300
0.559812 0.103825 0.124300
0.624500 0.103825 0.124300
0.689187 0.103825 0.124300
0.753875 0.103825 0.124300
0.818562 0.103825 0.124300
0.883250 0.103825 0.124300
0.947937 0.103825 0.124300
0.980000 0.103825 0.124300
0.980000 0.103825 0.124300
0.980000 0.103825 0.124300
0.107000 0.158450 0.124300
0.171687 0.158450 0.124300
0.236375 0.158450 0.124300
0.301063 0.158450 0.124300
0.365750 0.158450 0.124300
0.430438 0.158450 0.124300
0.495125 0.158450 0.124300
0.559812 0.158450 0.124300
0.624500 0.158450 0.124300
0.689187 0.158450 0.124300
0.753875 0.158450 0.124300
0.818562 0.158450 0.124300
0.883250 0.158450 0.124300
0.947937 0.158450 0.124300
0.980000 0.158450 0.124300
0.980000 0.158450 0.124300
0.980000 0.158450 0.124300
0.107000 0.213075 0.124300
0.171687 0.213075 0.124300
0.236375 0.213075 0.124300
0.301063 0.213075 0.124300
0.365750 0.213075 0.124300
0.430438 0.213075 0.124300
0.495125 0.213075 0.124300
0.559812 0.213075 0.124300
0.624500 0.213075 0.124300
0.689187 0.213075 0.124300
0.753875 0.213075 0.124300
0.818562 0.213075 0.124300
0.883250 0.213075 0.124300
0.947937 0.213075 0.124300
0.980000 0.213075 0.124300
0.980000 0.213075 0.124300
0.980000 0.213075 0.124300
0.107000 0.267700 0.124300
0.171687 0.267700 0.124300
0.236375 0.267700 0.124300
0.301063 0.267700 0.124300
0.365750 0.267700 0.124300
0.430438 0.267700 0.124300
0.495125 0.267700 0.124300
0.559812 0.267700 0.124300
0.624500 0.267700 0.124300
0.689187 0.267700 0.124300
0.753875 0.267700 0.124300
0.818562 0.267700 0.124300
0.883250 0.267700 0.124300
0.947937 0.267700 0.124300
0.980000 0.267700 0.124300
0.980000 0.267700 0.124300
0.980000 0.267700 0.124300
0.107000 0.322325 0.124300
0.171687 0.322325 0.124300
0.236375 0.322325 0.124300
0.301063 0.322325 0.124300
0.365750 0.322325 0.124300
0.430438 0.322325 0.124300
0.495125 0.322325 0.124300
0.559812 0.322325 0.124300
0.624500 0.322325 0.124300
0.689187 0.322325 0.124300
0.753875 0.322325 0.124300
0.818562 0.322325 0.124300
0.883250 0.322325 0.124300
0.947937 0.322325 0.124300
0.980000 0.322325 0.124300
0.980000 0.322325 0.124300
0.980000 0.322325 0.124300
0.107000 0.376950 0.124300
0.171687 0.376950 0.124300
0.236375 0.376950 0.124300
0.301063 0.376950 0.124300
0.365750 0.376950 0.124300
0.430438 0.376950 0.124300
0.495125 0.376950 0.124300
0.559812 0.376950 0.124300
0.624500 0.376950 0.124300
0.689187 0.376950 0.124300
0.753875 0.376950 0.124300
0.818562 0.376950 0.124300
0.883250 0.376950 0.124300
0.947937 0.376950 0.124300
0.980000 0.376950 0.124300
0.980000 0.376950 0.124300
0.980000 0.376950 0.124300
0.107000 0.431575 0.124300
0.171687 0.431575 0.124300
0.236375 0.431575 0.124300
0.301063 0.431575 0.124300
0.365750 0.431575 0.124300
0.430438 0.431575 0.124300
0.495125 0.431575 0.124300
0.559812 0.431575 0.124300
0.624500 0.431575 0.124300
0.689187 0.431575 0.124300
0.753875 0.431575 0.124300
0.818562 0.431575 0.124300
0.883250 0.431575 0.124300
0.947937 0.431575 0.124300
0.980000 0.431575 0.124300
0.980000 0.431575 0.124300
0.980000 0.431575 0.124300
0.107000 0.486200 0.124300
0.171687 0.486200 0.124300
0.236375 0.486200 0.124300
0.301063 0.486200 0.124300
0.365750 0.486200 0.124300
0.430438 0.486200 0.124300
0.495125 0.486200 0.124300
0.559812 0.486200 0.124300
0.624500 0.486200 0.124300
0.689187 0.486200 0.124300
0.753875 0.486200 0.124300
0.818562 0.486200 0.124300
0.883250 0.486200 0.124300
0.947937 0.486200 0.124300
0.980000 0.486200 0.124300
0.980000 0.486200 0.124300
0.980000 0.486200 0.124300
0.107000 0.540825 0.124300
0.171687 0.540825 0.124300
0.236375 0.540825 0.124300
0.301063 0.540825 0.124300
0.365750 0.540825 0.124300
0.430438 0.540825 0.124300
0.495125 0.540825 0.124300
0.559812 0.540825 0.124300
0.624500 0.540825 0.124300
0.689187 0.540825 0.124300
0.753875 0.540825 0.124300
0.818562 0.540825 0.124300
0.883250 0.540825 0.124300
0.947937 0.540825 0.124300
0.980000 0.540825 0.124300
0.980000 0.540825 0.124300
0.980000 0.540825 0.124300
0.107000 0.595450 0.124300
0.171687 0.595450 0.124300
0.236375 0.595450 0.124300
0.301063 0.595450 0.124300
0.365750 0.595450 0.124300
0.430438 0.595450 0.124300
0.495125 0.595450 0.124300
0.559812 0.595450 0.124300
0.624500 0.595450 0.124300
0.689187 0.595450 0.124300
0.753875 0.595450 0.124300
0.818562 0.595450 0.124300
0.883250 0.595450 0.124300
0.947937 0.595450 0.124300
0.980000 0.595450 0.124300
0.980000 0.595450 0.124300
0.980000 0.595450 0.124300
0.107000 0.650075 0.124300
0.171687 0.650075 0.124300
0.236375 0.650075 0.124300
0.301063 0.650075 0.124300
0.365750 0.650075 0.124300
0.430438 0.650075 0.124300
0.495125 0.650075 0.124300
0.559812 0.650075 0.124300
0.624500 0.650075 0.124300
0.689187 0.650075 0.124300
0.753875 0.650075 0.124300
0.818562 0.650075 0.124300
0.883250 0.650075 0.124300
0.947937 0.650075 0.124300
0.980000 0.650075 0.124300
0.980000 0.650075 0.124300
0.980000 0.650075 0.124300
0.107000 0.704700 0.124300
0.171687 0.704700 0.124300
0.236375 0.704700 0.124300
0.301063 0.704700 0.124300
0.365750 0.704700 0.124300
0.430438 0.704700 0.124300
0.495125 0.704700 0.124300
0.559812 0.704700 0.124300
0.624500 0.704700 0.124300
0.689187 0.704700 0.124300
0.753875 0.704700 0.124300
0.818562 0.704700 0.124300
0.883250 0.704700 0.124300
0.947937 0.704700 0.124300
0.980000 0.704700 0.124300
0.980000 0.704700 0.124300
0.980000 0.704700 0.124300
0.107000 0.759325 0.124300
0.171687 0.759325 0.124300
0.236375 0.759325 0.124300
0.301063 0.759325 0.124300
0.365750 0.759325 0.124300
0.430438 0.759325 0.124300
0.495125 0.759325 0.124300
0.559812 0.759325 0.124300
0.624500 0.759325 0.124300
0.689187 0.759325 0.124300
0.753875 0.759325 0.124300
0.818562 0.759325 0.124300
0.883250 0.759325 0.124300
0.947937 0.759325 0.124300
0.980000 0.759325 0.124300
0.980000 0.759325 0.124300
0.980000 0.759325 0.124300
0.107000 0.813950 0.124300
0.171687 0.813950 0.124300
0.236375 0.813950 0.124300
0.301063 0.813950 0.124300
0.365750 0.813950 0.124300
0.430438 0.813950 0.124300
0.495125 0.813950 0.124300
0.559812 0.813950 0.124300
0.624500 0.813950 0.124300
0.689187 0.813950 0.124300
0.753875 0.813950 0.124300
0.818562 0.813950 0.124300
0.883250 0.813950 0.124300
0.947937 0.813950 0.124300
0.980000 0.813950 0.124300
0.980000 0.813950 0.124300
0.980000 0.813950 0.124300
0.107000 0.868575 0.124300
0.171687 0.868575 0.124300
0.236375 0.868575 0.124300
0.301063 0.868575 0.124300
0.365750 0.868575 0.124300
0.430438 0.868575 0.124300
0.495125 0.868575 0.124300
0.559812 0.868575 0.124300
0.624500 0.868575 0.124300
0.689187 0.868575 0.124300
0.753875 0.868575 0.124300
0.818562 0.868575 0.124300
0.883250 0.868575 0.124300
0.947937 0.868575 0.124300
0.980000 0.868575 0.124300
0.980000 0.868575 0.124300
0.980000 0.868575 0.124300
0.107000 0.923200 0.124300
0.171687 0.923200 0.124300
0.236375 0.923200 0.124300
0.301063 0.923200 0.124300
0.365750 0.923200 0.124300
0.430438 0.923200 0.124300
0.495125 0.923200 0.124300
0.559812 0.923200 0.124300
0.624500 0.923200 0.124300
0.689187 0.923200 0.124300
0.753875 0.923200 0.124300
0.818562 0.923200 0.124300
0.883250 0.923200 0.124300
0.947937 0.923200 0.124300
0.980000 0.923200 0.124300
0.980000 0.923200 0.124300
0.980000 0.923200 0.124300
0.107000 0.049200 0.171450
0.171687 0.049200 0.171450
0.236375 0.049200 0.171450
0.301063 0.049200 0.171450
0.365750 0.049200 0.171450
0.430438 0.049200 0.171450
0.495125 0.049200 0.171450
0.559812 0.049200 0.171450
0.624500 0.049200 0.171450
0.689187 0.049200 0.171450
0.753875 0.049200 0.171450
0.818562 0.049200 0.171450
0.883250 0.049200 0.171450
0.947937 0.049200 0.171450
0.980000 0.049200 0.171450
0.980000 0.049200 0.171450
0.980000 0.049200 0.171450
0.107000 0.103825 0.171450
0.171687 0.103825 0.171450
0.236375 0.103825 0.171450
